P3
400 225
255
204 226 255
204 226 255
204 226 255
204 226 255
204 226 255
204 226 255
204 226 255
204 226 255
204 226 255
204 226 255
204 226 255
204 226 255
204 226 255
204 226 255
204 226 255
203 226 255
203 226 255
203 226 255
203 226 255
203 226 255
203 226 255
203 226 255
203 226 255
203 225 255
203 225 255
203 225 255
203 225 255
203 225 255
203 225 255
203 225 255
203 225 255
203 225 255
202 225 255
202 225 255
202 225 255
202 225 255
202 225 255
202 225 255
202 225 255
202 225 255
202 225 255
202 225 255
202 225 255
202 225 255
202 225 255
202 225 255
202 225 255
202 225 255
201 225 255
201 225 255
201 225 255
201 225 255
201 224 255
201 224 255
201 224 255
201 224 255
201 224 255
201 224 255
201 224 255
201 224 255
201 224 255
201 224 255
201 224 255
200 224 255
200 224 255
200 224 255
200 224 255
200 224 255
200 224 255
200 224 255
200 224 255
200 224 255
200 224 255
200 224 255
200 224 255
200 224 255
200 224 255
200 224 255
199 224 255
199 224 255
199 223 255
199 223 255
199 223 255
199 223 255
199 223 255
199 223 255
199 223 255
199 223 255
199 223 255
199 223 255
199 223 255
199 223 255
198 223 255
198 223 255
198 223 255
198 223 255
198 223 255
198 223 255
198 223 255
198 223 255
198 223 255
198 223 255
198 223 255
198 223 255
198 223 255
198 223 255
197 223 255
197 222 255
197 222 255
197 222 255
197 222 255
197 222 255
197 222 255
197 222 255
197 222 255
197 222 255
197 222 255
197 222 255
197 222 255
197 222 255
197 222 255
196 222 255
196 222 255
196 222 255
196 222 255
196 222 255
196 222 255
196 222 255
196 222 255
196 222 255
196 222 255
196 222 255
196 222 255
196 222 255
196 222 255
196 221 255
196 221 255
195 221 255
195 221 255
195 221 255
195 221 255
195 221 255
195 221 255
195 221 255
195 221 255
195 221 255
195 221 255
195 221 255
195 221 255
195 221 255
195 221 255
195 221 255
195 221 255
195 221 255
195 221 255
194 221 255
194 221 255
194 221 255
194 221 255
194 221 255
194 221 255
194 221 255
194 221 255
194 221 255
194 221 255
194 221 255
194 221 255
194 221 255
194 221 255
194 221 255
194 221 255
194 221 255
194 221 255
194 221 255
194 221 255
194 221 255
194 221 255
194 220 255
194 220 255
194 220 255
194 220 255
194 220 255
194 220 255
194 220 255
194 220 255
194 220 255
193 220 255
193 220 255
193 220 255
193 220 255
193 220 255
193 220 255
193 220 255
193 220 255
193 220 255
193 220 255
193 220 255
193 220 255
193 220 255
193 220 255
193 220 255
193 220 255
193 220 255
193 220 255
193 220 255
193 220 255
193 220 255
193 220 255
193 220 255
193 220 255
193 220 255
193 220 255
193 220 255
193 220 255
194 220 255
194 220 255
194 220 255
194 220 255
194 220 255
194 220 255
194 220 255
194 220 255
194 221 255
194 221 255
194 221 255
194 221 255
194 221 255
194 221 255
194 221 255
194 221 255
194 221 255
194 221 255
194 221 255
194 221 255
194 221 255
194 221 255
194 221 255
194 221 255
194 221 255
194 221 255
194 221 255
194 221 255
194 221 255
194 221 255
194 221 255
195 221 255
195 221 255
195 221 255
195 221 255
195 221 255
195 221 255
195 221 255
195 221 255
195 221 255
195 221 255
195 221 255
195 221 255
195 221 255
195 221 255
195 221 255
195 221 255
195 221 255
195 221 255
196 221 255
196 221 255
196 222 255
196 222 255
196 222 255
196 222 255
196 222 255
196 222 255
196 222 255
196 222 255
196 222 255
196 222 255
196 222 255
196 222 255
196 222 255
196 222 255
197 222 255
197 222 255
197 222 255
197 222 255
197 222 255
197 222 255
197 222 255
197 222 255
197 222 255
197 222 255
197 222 255
197 222 255
197 222 255
197 222 255
197 223 255
198 223 255
198 223 255
198 223 255
198 223 255
198 223 255
198 223 255
198 223 255
198 223 255
198 223 255
198 223 255
198 223 255
198 223 255
198 223 255
198 223 255
199 223 255
199 223 255
199 223 255
199 223 255
199 223 255
199 223 255
199 223 255
199 223 255
199 223 255
199 223 255
199 223 255
199 223 255
199 224 255
199 224 255
199 224 255
200 224 255
200 224 255
200 224 255
200 224 255
200 224 255
200 224 255
200 224 255
200 224 255
200 224 255
200 224 255
200 224 255
200 224 255
200 224 255
200 224 255
201 224 255
201 224 255
201 224 255
201 224 255
201 224 255
201 224 255
201 224 255
201 224 255
201 224 255
201 224 255
201 225 255
201 225 255
201 225 255
201 225 255
201 225 255
202 225 255
202 225 255
202 225 255
202 225 255
202 225 255
202 225 255
202 225 255
202 225 255
202 225 255
202 225 255
202 225 255
202 225 255
202 225 255
202 225 255
202 225 255
202 225 255
203 225 255
203 225 255
203 225 255
203 225 255
203 225 255
203 225 255
203 225 255
203 225 255
203 225 255
203 226 255
203 226 255
203 226 255
203 226 255
203 226 255
203 226 255
203 226 255
203 226 255
204 226 255
204 226 255
204 226 255
204 226 255
204 226 255
204 226 255
204 226 255
204 226 255
204 226 255
204 226 255
204 226 255
204 226 255
204 226 255
204 226 255
204 226 255
204 226 255
204 226 255
204 226 255
204 226 255
204 226 255
204 226 255
204 226 255
204 226 255
204 226 255
204 226 255
204 226 255
204 226 255
204 226 255
204 226 255
204 226 255
204 226 255
204 226 255
204 226 255
203 226 255
203 226 255
203 226 255
203 226 255
203 226 255
203 226 255
203 226 255
203 225 255
203 225 255
203 225 255
203 225 255
203 225 255
203 225 255
203 225 255
203 225 255
203 225 255
202 225 255
202 225 255
202 225 255
202 225 255
202 225 255
202 225 255
202 225 255
202 225 255
202 225 255
202 225 255
202 225 255
202 225 255
202 225 255
202 225 255
202 225 255
202 225 255
201 225 255
201 225 255
201 225 255
201 225 255
201 225 255
201 224 255
201 224 255
201 224 255
201 224 255
201 224 255
201 224 255
201 224 255
201 224 255
201 224 255
201 224 255
200 224 255
200 224 255
200 224 255
200 224 255
200 224 255
200 224 255
200 224 255
200 224 255
200 224 255
200 224 255
200 224 255
200 224 255
200 224 255
200 224 255
200 224 255
199 224 255
199 224 255
199 223 255
199 223 255
199 223 255
199 223 255
199 223 255
199 223 255
199 223 255
199 223 255
199 223 255
199 223 255
199 223 255
199 223 255
198 223 255
198 223 255
198 223 255
198 223 255
198 223 255
198 223 255
198 223 255
198 223 255
198 223 255
198 223 255
198 223 255
198 223 255
198 223 255
198 223 255
197 223 255
197 222 255
197 222 255
197 222 255
197 222 255
197 222 255
197 222 255
197 222 255
197 222 255
197 222 255
197 222 255
197 222 255
197 222 255
197 222 255
197 222 255
196 222 255
196 222 255
196 222 255
196 222 255
196 222 255
196 222 255
196 222 255
196 222 255
196 222 255
196 222 255
196 222 255
196 222 255
196 222 255
196 222 255
196 222 255
196 221 255
195 221 255
195 221 255
195 221 255
195 221 255
195 221 255
195 221 255
195 221 255
195 221 255
195 221 255
195 221 255
195 221 255
195 221 255
195 221 255
195 221 255
195 221 255
195 221 255
195 221 255
195 221 255
195 221 255
194 221 255
194 221 255
194 221 255
194 221 255
194 221 255
194 221 255
194 221 255
194 221 255
194 221 255
194 221 255
194 221 255
194 221 255
194 221 255
194 221 255
194 221 255
194 221 255
194 221 255
194 221 255
194 221 255
194 221 255
194 221 255
194 221 255
194 221 255
194 221 255
194 221 255
194 220 255
194 220 255
194 220 255
194 220 255
194 220 255
194 220 255
194 220 255
194 220 255
194 220 255
194 220 255
194 220 255
194 220 255
194 220 255
194 220 255
194 220 255
194 220 255
194 220 255
194 220 255
194 220 255
194 220 255
194 220 255
194 220 255
194 220 255
194 220 255
194 220 255
194 220 255
194 220 255
194 220 255
194 220 255
194 220 255
194 220 255
194 220 255
194 220 255
194 220 255
194 221 255
194 221 255
194 221 255
194 221 255
194 221 255
194 221 255
194 221 255
194 221 255
194 221 255
194 221 255
194 221 255
194 221 255
194 221 255
194 221 255
194 221 255
194 221 255
194 221 255
194 221 255
194 221 255
194 221 255
194 221 255
194 221 255
194 221 255
194 221 255
195 221 255
195 221 255
195 221 255
195 221 255
195 221 255
195 221 255
195 221 255
195 221 255
195 221 255
195 221 255
195 221 255
195 221 255
195 221 255
195 221 255
195 221 255
195 221 255
195 221 255
195 221 255
195 221 255
195 221 255
196 221 255
196 222 255
196 222 255
196 222 255
196 222 255
196 222 255
196 222 255
196 222 255
196 222 255
196 222 255
196 222 255
196 222 255
196 222 255
196 222 255
196 222 255
196 222 255
197 222 255
197 222 255
197 222 255
197 222 255
197 222 255
197 222 255
197 222 255
197 222 255
197 222 255
197 222 255
197 222 255
197 222 255
197 222 255
197 222 255
197 223 255
198 223 255
198 223 255
198 223 255
198 223 255
198 223 255
198 223 255
198 223 255
198 223 255
198 223 255
198 223 255
198 223 255
198 223 255
198 223 255
198 223 255
199 223 255
199 223 255
199 223 255
199 223 255
199 223 255
199 223 255
199 223 255
199 223 255
199 223 255
199 223 255
199 223 255
199 223 255
199 224 255
199 224 255
199 224 255
200 224 255
200 224 255
200 224 255
200 224 255
200 224 255
200 224 255
200 224 255
200 224 255
200 224 255
200 224 255
200 224 255
200 224 255
200 224 255
200 224 255
201 224 255
201 224 255
201 224 255
201 224 255
201 224 255
201 224 255
201 224 255
201 224 255
201 224 255
201 224 255
201 225 255
201 225 255
201 225 255
201 225 255
201 225 255
202 225 255
202 225 255
202 225 255
202 225 255
202 225 255
202 225 255
202 225 255
202 225 255
202 225 255
202 225 255
202 225 255
202 225 255
202 225 255
202 225 255
202 225 255
202 225 255
203 225 255
203 225 255
203 225 255
203 225 255
203 225 255
203 225 255
203 225 255
203 225 255
203 225 255
203 226 255
203 226 255
203 226 255
203 226 255
203 226 255
203 226 255
203 226 255
204 226 255
204 226 255
204 226 255
204 226 255
204 226 255
204 226 255
204 226 255
204 226 255
204 226 255
204 226 255
204 226 255
204 226 255
204 226 255
204 226 255
204 226 255
204 226 255
204 226 255
204 226 255
205 226 255
205 226 255
204 226 255
204 226 255
204 226 255
204 226 255
204 226 255
204 226 255
204 226 255
204 226 255
204 226 255
204 226 255
204 226 255
204 226 255
204 226 255
204 226 255
204 226 255
204 226 255
204 226 255
204 226 255
203 226 255
203 226 255
203 226 255
203 226 255
203 226 255
203 226 255
203 226 255
203 225 255
203 225 255
203 225 255
203 225 255
203 225 255
203 225 255
203 225 255
203 225 255
203 225 255
202 225 255
202 225 255
202 225 255
202 225 255
202 225 255
202 225 255
202 225 255
202 225 255
202 225 255
202 225 255
202 225 255
202 225 255
202 225 255
202 225 255
202 225 255
202 225 255
201 225 255
201 225 255
201 225 255
201 225 255
201 225 255
201 224 255
201 224 255
201 224 255
201 224 255
201 224 255
201 224 255
201 224 255
201 224 255
201 224 255
201 224 255
200 224 255
200 224 255
200 224 255
200 224 255
200 224 255
200 224 255
200 224 255
200 224 255
200 224 255
200 224 255
200 224 255
200 224 255
200 224 255
200 224 255
200 224 255
199 224 255
199 224 255
199 223 255
199 223 255
199 223 255
199 223 255
199 223 255
199 223 255
199 223 255
199 223 255
199 223 255
199 223 255
199 223 255
199 223 255
198 223 255
198 223 255
198 223 255
198 223 255
198 223 255
198 223 255
198 223 255
198 223 255
198 223 255
198 223 255
198 223 255
198 223 255
198 223 255
198 223 255
197 223 255
197 222 255
197 222 255
197 222 255
197 222 255
197 222 255
197 222 255
197 222 255
197 222 255
197 222 255
197 222 255
197 222 255
197 222 255
197 222 255
197 222 255
196 222 255
196 222 255
196 222 255
196 222 255
196 222 255
196 222 255
196 222 255
196 222 255
196 222 255
196 222 255
196 222 255
196 222 255
196 222 255
196 222 255
196 222 255
196 221 255
195 221 255
195 221 255
195 221 255
195 221 255
195 221 255
195 221 255
195 221 255
195 221 255
195 221 255
195 221 255
195 221 255
195 221 255
195 221 255
195 221 255
195 221 255
195 221 255
195 221 255
195 221 255
195 221 255
195 221 255
194 221 255
194 221 255
194 221 255
194 221 255
194 221 255
194 221 255
194 221 255
194 221 255
194 221 255
194 221 255
194 221 255
194 221 255
194 221 255
194 221 255
194 221 255
194 221 255
194 221 255
194 221 255
194 221 255
194 221 255
194 221 255
194 221 255
194 221 255
194 221 255
194 221 255
194 221 255
194 221 255
194 221 255
194 221 255
194 221 255
194 221 255
194 220 255
194 220 255
194 220 255
194 220 255
194 220 255
194 220 255
194 220 255
194 220 255
194 220 255
194 220 255
194 220 255
194 220 255
194 220 255
194 220 255
194 220 255
194 220 255
194 221 255
194 221 255
194 221 255
194 221 255
194 221 255
194 221 255
194 221 255
194 221 255
194 221 255
194 221 255
194 221 255
194 221 255
194 221 255
194 221 255
194 221 255
194 221 255
194 221 255
194 221 255
194 221 255
194 221 255
194 221 255
194 221 255
194 221 255
194 221 255
194 221 255
194 221 255
194 221 255
194 221 255
194 221 255
194 221 255
195 221 255
195 221 255
195 221 255
195 221 255
195 221 255
195 221 255
195 221 255
195 221 255
195 221 255
195 221 255
195 221 255
195 221 255
195 221 255
195 221 255
195 221 255
195 221 255
195 221 255
195 221 255
195 221 255
195 221 255
196 221 255
196 221 255
196 222 255
196 222 255
196 222 255
196 222 255
196 222 255
196 222 255
196 222 255
196 222 255
196 222 255
196 222 255
196 222 255
196 222 255
196 222 255
196 222 255
196 222 255
197 222 255
197 222 255
197 222 255
197 222 255
197 222 255
197 222 255
197 222 255
197 222 255
197 222 255
197 222 255
197 222 255
197 222 255
197 222 255
197 222 255
197 223 255
198 223 255
198 223 255
198 223 255
198 223 255
198 223 255
198 223 255
198 223 255
198 223 255
198 223 255
198 223 255
198 223 255
198 223 255
198 223 255
198 223 255
199 223 255
199 223 255
199 223 255
199 223 255
199 223 255
199 223 255
199 223 255
199 223 255
199 223 255
199 223 255
199 223 255
199 223 255
199 224 255
199 224 255
200 224 255
200 224 255
200 224 255
200 224 255
200 224 255
200 224 255
200 224 255
200 224 255
200 224 255
200 224 255
200 224 255
200 224 255
200 224 255
200 224 255
200 224 255
201 224 255
201 224 255
201 224 255
201 224 255
201 224 255
201 224 255
201 224 255
201 224 255
201 224 255
201 224 255
201 225 255
201 225 255
201 225 255
201 225 255
201 225 255
202 225 255
202 225 255
202 225 255
202 225 255
202 225 255
202 225 255
202 225 255
202 225 255
202 225 255
202 225 255
202 225 255
202 225 255
202 225 255
202 225 255
202 225 255
203 225 255
203 225 255
203 225 255
203 225 255
203 225 255
203 225 255
203 225 255
203 225 255
203 225 255
203 225 255
203 226 255
203 226 255
203 226 255
203 226 255
203 226 255
203 226 255
203 226 255
204 226 255
204 226 255
204 226 255
204 226 255
204 226 255
204 226 255
204 226 255
204 226 255
204 226 255
204 226 255
204 226 255
204 226 255
204 226 255
204 226 255
204 226 255
204 226 255
204 226 255
204 226 255
205 226 255
205 226 255
205 226 255
205 226 255
205 226 255
205 226 255
204 226 255
204 226 255
204 226 255
204 226 255
204 226 255
204 226 255
204 226 255
204 226 255
204 226 255
204 226 255
204 226 255
204 226 255
204 226 255
204 226 255
204 226 255
204 226 255
204 226 255
204 226 255
203 226 255
203 226 255
203 226 255
203 226 255
203 226 255
203 226 255
203 226 255
203 226 255
203 225 255
203 225 255
203 225 255
203 225 255
203 225 255
203 225 255
203 225 255
203 225 255
203 225 255
202 225 255
202 225 255
202 225 255
202 225 255
202 225 255
202 225 255
202 225 255
202 225 255
202 225 255
202 225 255
202 225 255
202 225 255
202 225 255
202 225 255
202 225 255
201 225 255
201 225 255
201 225 255
201 225 255
201 225 255
201 224 255
201 224 255
201 224 255
201 224 255
201 224 255
201 224 255
201 224 255
201 224 255
201 224 255
201 224 255
200 224 255
200 224 255
200 224 255
200 224 255
200 224 255
200 224 255
200 224 255
200 224 255
200 224 255
200 224 255
200 224 255
200 224 255
200 224 255
200 224 255
200 224 255
199 224 255
199 224 255
199 223 255
199 223 255
199 223 255
199 223 255
199 223 255
199 223 255
199 223 255
199 223 255
199 223 255
199 223 255
199 223 255
199 223 255
198 223 255
198 223 255
198 223 255
198 223 255
198 223 255
198 223 255
198 223 255
198 223 255
198 223 255
198 223 255
198 223 255
198 223 255
198 223 255
198 223 255
197 223 255
197 222 255
197 222 255
197 222 255
197 222 255
197 222 255
197 222 255
197 222 255
197 222 255
197 222 255
197 222 255
197 222 255
197 222 255
197 222 255
197 222 255
196 222 255
196 222 255
196 222 255
196 222 255
196 222 255
196 222 255
196 222 255
196 222 255
196 222 255
196 222 255
196 222 255
196 222 255
196 222 255
196 222 255
196 222 255
196 221 255
196 221 255
195 221 255
195 221 255
195 221 255
195 221 255
195 221 255
195 221 255
195 221 255
195 221 255
195 221 255
195 221 255
195 221 255
195 221 255
195 221 255
195 221 255
195 221 255
195 221 255
195 221 255
195 221 255
195 221 255
195 221 255
195 221 255
194 221 255
194 221 255
194 221 255
194 221 255
194 221 255
194 221 255
194 221 255
194 221 255
194 221 255
194 221 255
194 221 255
194 221 255
194 221 255
194 221 255
194 221 255
194 221 255
194 221 255
194 221 255
194 221 255
194 221 255
194 221 255
194 221 255
194 221 255
194 221 255
194 221 255
194 221 255
194 221 255
194 221 255
194 221 255
194 221 255
194 221 255
194 221 255
194 221 255
194 221 255
194 221 255
194 221 255
194 221 255
194 221 255
194 221 255
194 221 255
194 221 255
194 221 255
194 221 255
194 221 255
194 221 255
194 221 255
194 221 255
194 221 255
194 221 255
194 221 255
194 221 255
194 221 255
194 221 255
194 221 255
194 221 255
194 221 255
194 221 255
194 221 255
194 221 255
194 221 255
194 221 255
194 221 255
194 221 255
194 221 255
194 221 255
194 221 255
194 221 255
194 221 255
194 221 255
194 221 255
195 221 255
195 221 255
195 221 255
195 221 255
195 221 255
195 221 255
195 221 255
195 221 255
195 221 255
195 221 255
195 221 255
195 221 255
195 221 255
195 221 255
195 221 255
195 221 255
195 221 255
195 221 255
195 221 255
195 221 255
195 221 255
196 221 255
196 221 255
196 222 255
196 222 255
196 222 255
196 222 255
196 222 255
196 222 255
196 222 255
196 222 255
196 222 255
196 222 255
196 222 255
196 222 255
196 222 255
196 222 255
196 222 255
197 222 255
197 222 255
197 222 255
197 222 255
197 222 255
197 222 255
197 222 255
197 222 255
197 222 255
197 222 255
197 222 255
197 222 255
197 222 255
197 222 255
197 223 255
198 223 255
198 223 255
198 223 255
198 223 255
198 223 255
198 223 255
198 223 255
198 223 255
198 223 255
198 223 255
198 223 255
198 223 255
198 223 255
198 223 255
199 223 255
199 223 255
199 223 255
199 223 255
199 223 255
199 223 255
199 223 255
199 223 255
199 223 255
199 223 255
199 223 255
199 223 255
199 224 255
199 224 255
200 224 255
200 224 255
200 224 255
200 224 255
200 224 255
200 224 255
200 224 255
200 224 255
200 224 255
200 224 255
200 224 255
200 224 255
200 224 255
200 224 255
200 224 255
201 224 255
201 224 255
201 224 255
201 224 255
201 224 255
201 224 255
201 224 255
201 224 255
201 224 255
201 224 255
201 225 255
201 225 255
201 225 255
201 225 255
201 225 255
202 225 255
202 225 255
202 225 255
202 225 255
202 225 255
202 225 255
202 225 255
202 225 255
202 225 255
202 225 255
202 225 255
202 225 255
202 225 255
202 225 255
202 225 255
203 225 255
203 225 255
203 225 255
203 225 255
203 225 255
203 225 255
203 225 255
203 225 255
203 225 255
203 226 255
203 226 255
203 226 255
203 226 255
203 226 255
203 226 255
203 226 255
203 226 255
204 226 255
204 226 255
204 226 255
204 226 255
204 226 255
204 226 255
204 226 255
204 226 255
204 226 255
204 226 255
204 226 255
204 226 255
204 226 255
204 226 255
204 226 255
204 226 255
204 226 255
204 226 255
205 226 255
205 226 255
205 226 255
205 226 255
205 226 255
205 226 255
205 226 255
205 226 255
205 226 255
205 226 255
205 226 255
204 226 255
204 226 255
204 226 255
204 226 255
204 226 255
204 226 255
204 226 255
204 226 255
204 226 255
204 226 255
204 226 255
204 226 255
204 226 255
204 226 255
204 226 255
204 226 255
204 226 255
204 226 255
203 226 255
203 226 255
203 226 255
203 226 255
203 226 255
203 226 255
203 226 255
203 225 255
203 225 255
203 225 255
203 225 255
203 225 255
203 225 255
203 225 255
203 225 255
203 225 255
202 225 255
202 225 255
202 225 255
202 225 255
202 225 255
202 225 255
202 225 255
202 225 255
202 225 255
202 225 255
202 225 255
202 225 255
202 225 255
202 225 255
202 225 255
201 225 255
201 225 255
201 225 255
201 225 255
201 225 255
201 224 255
201 224 255
201 224 255
201 224 255
201 224 255
201 224 255
201 224 255
201 224 255
201 224 255
201 224 255
200 224 255
200 224 255
200 224 255
200 224 255
200 224 255
200 224 255
200 224 255
200 224 255
200 224 255
200 224 255
200 224 255
200 224 255
200 224 255
200 224 255
200 224 255
199 224 255
199 224 255
199 223 255
199 223 255
199 223 255
199 223 255
199 223 255
199 223 255
199 223 255
199 223 255
199 223 255
199 223 255
199 223 255
199 223 255
198 223 255
198 223 255
198 223 255
198 223 255
198 223 255
198 223 255
198 223 255
198 223 255
198 223 255
198 223 255
198 223 255
198 223 255
198 223 255
198 223 255
197 223 255
197 222 255
197 222 255
197 222 255
197 222 255
197 222 255
197 222 255
197 222 255
197 222 255
197 222 255
197 222 255
197 222 255
197 222 255
197 222 255
197 222 255
197 222 255
196 222 255
196 222 255
196 222 255
196 222 255
196 222 255
196 222 255
196 222 255
196 222 255
196 222 255
196 222 255
196 222 255
196 222 255
196 222 255
196 222 255
196 222 255
196 221 255
196 221 255
195 221 255
195 221 255
195 221 255
195 221 255
195 221 255
195 221 255
195 221 255
195 221 255
195 221 255
195 221 255
195 221 255
195 221 255
195 221 255
195 221 255
195 221 255
195 221 255
195 221 255
195 221 255
195 221 255
195 221 255
195 221 255
195 221 255
194 221 255
194 221 255
194 221 255
194 221 255
194 221 255
194 221 255
194 221 255
194 221 255
194 221 255
194 221 255
194 221 255
194 221 255
194 221 255
194 221 255
194 221 255
194 221 255
194 221 255
194 221 255
194 221 255
194 221 255
194 221 255
194 221 255
194 221 255
194 221 255
194 221 255
194 221 255
194 221 255
194 221 255
194 221 255
194 221 255
194 221 255
194 221 255
194 221 255
194 221 255
194 221 255
194 221 255
194 221 255
194 221 255
194 221 255
194 221 255
194 221 255
194 221 255
194 221 255
194 221 255
194 221 255
194 221 255
194 221 255
194 221 255
194 221 255
194 221 255
194 221 255
194 221 255
194 221 255
194 221 255
194 221 255
194 221 255
194 221 255
194 221 255
194 221 255
194 221 255
194 221 255
194 221 255
195 221 255
195 221 255
195 221 255
195 221 255
195 221 255
195 221 255
195 221 255
195 221 255
195 221 255
195 221 255
195 221 255
195 221 255
195 221 255
195 221 255
195 221 255
195 221 255
195 221 255
195 221 255
195 221 255
195 221 255
195 221 255
195 221 255
196 221 255
196 221 255
196 222 255
196 222 255
196 222 255
196 222 255
196 222 255
196 222 255
196 222 255
196 222 255
196 222 255
196 222 255
196 222 255
196 222 255
196 222 255
196 222 255
196 222 255
197 222 255
197 222 255
197 222 255
197 222 255
197 222 255
197 222 255
197 222 255
197 222 255
197 222 255
197 222 255
197 222 255
197 222 255
197 222 255
197 222 255
197 222 255
198 223 255
198 223 255
198 223 255
198 223 255
198 223 255
198 223 255
198 223 255
198 223 255
198 223 255
198 223 255
198 223 255
198 223 255
198 223 255
198 223 255
198 223 255
199 223 255
199 223 255
199 223 255
199 223 255
199 223 255
199 223 255
199 223 255
199 223 255
199 223 255
199 223 255
199 223 255
199 223 255
199 224 255
199 224 255
200 224 255
200 224 255
200 224 255
200 224 255
200 224 255
200 224 255
200 224 255
200 224 255
200 224 255
200 224 255
200 224 255
200 224 255
200 224 255
200 224 255
200 224 255
201 224 255
201 224 255
201 224 255
201 224 255
201 224 255
201 224 255
201 224 255
201 224 255
201 224 255
201 224 255
201 225 255
201 225 255
201 225 255
201 225 255
201 225 255
202 225 255
202 225 255
202 225 255
202 225 255
202 225 255
202 225 255
202 225 255
202 225 255
202 225 255
202 225 255
202 225 255
202 225 255
202 225 255
202 225 255
202 225 255
203 225 255
203 225 255
203 225 255
203 225 255
203 225 255
203 225 255
203 225 255
203 225 255
203 225 255
203 226 255
203 226 255
203 226 255
203 226 255
203 226 255
203 226 255
203 226 255
203 226 255
204 226 255
204 226 255
204 226 255
204 226 255
204 226 255
204 226 255
204 226 255
204 226 255
204 226 255
204 226 255
204 226 255
204 226 255
204 226 255
204 226 255
204 226 255
204 226 255
204 226 255
205 226 255
205 226 255
205 226 255
205 226 255
205 226 255
205 226 255
205 226 255
205 227 255
205 227 255
205 226 255
205 226 255
205 226 255
205 226 255
205 226 255
205 226 255
205 226 255
204 226 255
204 226 255
204 226 255
204 226 255
204 226 255
204 226 255
204 226 255
204 226 255
204 226 255
204 226 255
204 226 255
204 226 255
204 226 255
204 226 255
204 226 255
204 226 255
204 226 255
204 226 255
203 226 255
203 226 255
203 226 255
203 226 255
203 226 255
203 226 255
203 226 255
203 225 255
203 225 255
203 225 255
203 225 255
203 225 255
203 225 255
203 225 255
203 225 255
203 225 255
202 225 255
202 225 255
202 225 255
202 225 255
202 225 255
202 225 255
202 225 255
202 225 255
202 225 255
202 225 255
202 225 255
202 225 255
202 225 255
202 225 255
202 225 255
201 225 255
201 225 255
201 225 255
201 225 255
201 225 255
201 224 255
201 224 255
201 224 255
201 224 255
201 224 255
201 224 255
201 224 255
201 224 255
201 224 255
201 224 255
200 224 255
200 224 255
200 224 255
200 224 255
200 224 255
200 224 255
200 224 255
200 224 255
200 224 255
200 224 255
200 224 255
200 224 255
200 224 255
200 224 255
200 224 255
199 224 255
199 224 255
199 223 255
199 223 255
199 223 255
199 223 255
199 223 255
199 223 255
199 223 255
199 223 255
199 223 255
199 223 255
199 223 255
199 223 255
198 223 255
198 223 255
198 223 255
198 223 255
198 223 255
198 223 255
198 223 255
198 223 255
198 223 255
198 223 255
198 223 255
198 223 255
198 223 255
198 223 255
198 223 255
197 222 255
197 222 255
197 222 255
197 222 255
197 222 255
197 222 255
197 222 255
197 222 255
197 222 255
197 222 255
197 222 255
197 222 255
197 222 255
197 222 255
197 222 255
196 222 255
196 222 255
196 222 255
196 222 255
196 222 255
196 222 255
196 222 255
196 222 255
196 222 255
196 222 255
196 222 255
196 222 255
196 222 255
196 222 255
196 222 255
196 222 255
196 221 255
195 221 255
195 221 255
195 221 255
195 221 255
195 221 255
195 221 255
195 221 255
195 221 255
195 221 255
195 221 255
195 221 255
195 221 255
195 221 255
195 221 255
195 221 255
195 221 255
195 221 255
195 221 255
195 221 255
195 221 255
195 221 255
195 221 255
195 221 255
195 221 255
194 221 255
194 221 255
194 221 255
194 221 255
194 221 255
194 221 255
194 221 255
194 221 255
194 221 255
194 221 255
194 221 255
194 221 255
194 221 255
194 221 255
194 221 255
194 221 255
194 221 255
194 221 255
194 221 255
194 221 255
194 221 255
194 221 255
194 221 255
194 221 255
194 221 255
194 221 255
194 221 255
194 221 255
194 221 255
194 221 255
194 221 255
194 221 255
194 221 255
194 221 255
194 221 255
194 221 255
194 221 255
194 221 255
194 221 255
194 221 255
194 221 255
194 221 255
194 221 255
194 221 255
194 221 255
194 221 255
194 221 255
194 221 255
194 221 255
194 221 255
194 221 255
194 221 255
194 221 255
194 221 255
195 221 255
195 221 255
195 221 255
195 221 255
195 221 255
195 221 255
195 221 255
195 221 255
195 221 255
195 221 255
195 221 255
195 221 255
195 221 255
195 221 255
195 221 255
195 221 255
195 221 255
195 221 255
195 221 255
195 221 255
195 221 255
195 221 255
195 221 255
196 221 255
196 221 255
196 222 255
196 222 255
196 222 255
196 222 255
196 222 255
196 222 255
196 222 255
196 222 255
196 222 255
196 222 255
196 222 255
196 222 255
196 222 255
196 222 255
196 222 255
196 222 255
197 222 255
197 222 255
197 222 255
197 222 255
197 222 255
197 222 255
197 222 255
197 222 255
197 222 255
197 222 255
197 222 255
197 222 255
197 222 255
197 222 255
197 222 255
198 223 255
198 223 255
198 223 255
198 223 255
198 223 255
198 223 255
198 223 255
198 223 255
198 223 255
198 223 255
198 223 255
198 223 255
198 223 255
198 223 255
198 223 255
199 223 255
199 223 255
199 223 255
199 223 255
199 223 255
199 223 255
199 223 255
199 223 255
199 223 255
199 223 255
199 223 255
199 223 255
199 224 255
199 224 255
200 224 255
200 224 255
200 224 255
200 224 255
200 224 255
200 224 255
200 224 255
200 224 255
200 224 255
200 224 255
200 224 255
200 224 255
200 224 255
200 224 255
201 224 255
201 224 255
201 224 255
201 224 255
201 224 255
201 224 255
201 224 255
201 224 255
201 224 255
201 224 255
201 224 255
201 225 255
201 225 255
201 225 255
201 225 255
202 225 255
202 225 255
202 225 255
202 225 255
202 225 255
202 225 255
202 225 255
202 225 255
202 225 255
202 225 255
202 225 255
202 225 255
202 225 255
202 225 255
202 225 255
202 225 255
203 225 255
203 225 255
203 225 255
203 225 255
203 225 255
203 225 255
203 225 255
203 225 255
203 225 255
203 226 255
203 226 255
203 226 255
203 226 255
203 226 255
203 226 255
203 226 255
204 226 255
204 226 255
204 226 255
204 226 255
204 226 255
204 226 255
204 226 255
204 226 255
204 226 255
204 226 255
204 226 255
204 226 255
204 226 255
204 226 255
204 226 255
204 226 255
204 226 255
204 226 255
205 226 255
205 226 255
205 226 255
205 226 255
205 226 255
205 226 255
205 226 255
205 227 255
205 227 255
205 227 255
205 227 255
205 227 255
205 227 255
205 226 255
205 226 255
205 226 255
205 226 255
205 226 255
205 226 255
205 226 255
205 226 255
204 226 255
204 226 255
204 226 255
204 226 255
204 226 255
204 226 255
204 226 255
204 226 255
204 226 255
204 226 255
204 226 255
204 226 255
204 226 255
204 226 255
204 226 255
204 226 255
204 226 255
203 226 255
203 226 255
203 226 255
203 226 255
203 226 255
203 226 255
203 226 255
203 225 255
203 225 255
203 225 255
203 225 255
203 225 255
203 225 255
203 225 255
203 225 255
203 225 255
202 225 255
202 225 255
202 225 255
202 225 255
202 225 255
202 225 255
202 225 255
202 225 255
202 225 255
202 225 255
202 225 255
202 225 255
202 225 255
202 225 255
202 225 255
202 225 255
201 225 255
201 225 255
201 225 255
201 225 255
201 224 255
201 224 255
201 224 255
201 224 255
201 224 255
201 224 255
201 224 255
201 224 255
201 224 255
201 224 255
201 224 255
200 224 255
200 224 255
200 224 255
200 224 255
200 224 255
200 224 255
200 224 255
200 224 255
200 224 255
200 224 255
200 224 255
200 224 255
200 224 255
200 224 255
199 224 255
199 224 255
199 223 255
199 223 255
199 223 255
199 223 255
199 223 255
199 223 255
199 223 255
199 223 255
199 223 255
199 223 255
199 223 255
199 223 255
198 223 255
198 223 255
198 223 255
198 223 255
198 223 255
198 223 255
198 223 255
198 223 255
198 223 255
198 223 255
198 223 255
198 223 255
198 223 255
198 223 255
198 223 255
197 222 255
197 222 255
197 222 255
197 222 255
197 222 255
197 222 255
197 222 255
197 222 255
197 222 255
197 222 255
197 222 255
197 222 255
197 222 255
197 222 255
197 222 255
196 222 255
196 222 255
196 222 255
196 222 255
196 222 255
196 222 255
196 222 255
196 222 255
196 222 255
196 222 255
196 222 255
196 222 255
196 222 255
196 222 255
196 222 255
196 222 255
196 221 255
196 221 255
195 221 255
195 221 255
195 221 255
195 221 255
195 221 255
195 221 255
195 221 255
195 221 255
195 221 255
195 221 255
195 221 255
195 221 255
195 221 255
195 221 255
195 221 255
195 221 255
195 221 255
195 221 255
195 221 255
195 221 255
195 221 255
195 221 255
195 221 255
195 221 255
195 221 255
195 221 255
194 221 255
194 221 255
194 221 255
194 221 255
194 221 255
194 221 255
194 221 255
194 221 255
194 221 255
194 221 255
194 221 255
194 221 255
194 221 255
194 221 255
194 221 255
194 221 255
194 221 255
194 221 255
194 221 255
194 221 255
194 221 255
194 221 255
194 221 255
194 221 255
194 221 255
194 221 255
194 221 255
194 221 255
194 221 255
194 221 255
194 221 255
194 221 255
194 221 255
194 221 255
194 221 255
194 221 255
194 221 255
194 221 255
194 221 255
194 221 255
194 221 255
194 221 255
194 221 255
194 221 255
195 221 255
195 221 255
195 221 255
195 221 255
195 221 255
195 221 255
195 221 255
195 221 255
195 221 255
195 221 255
195 221 255
195 221 255
195 221 255
195 221 255
195 221 255
195 221 255
195 221 255
195 221 255
195 221 255
195 221 255
195 221 255
195 221 255
195 221 255
195 221 255
195 221 255
195 221 255
196 221 255
196 222 255
196 222 255
196 222 255
196 222 255
196 222 255
196 222 255
196 222 255
196 222 255
196 222 255
196 222 255
196 222 255
196 222 255
196 222 255
196 222 255
196 222 255
196 222 255
196 222 255
197 222 255
197 222 255
197 222 255
197 222 255
197 222 255
197 222 255
197 222 255
197 222 255
197 222 255
197 222 255
197 222 255
197 222 255
197 222 255
197 222 255
197 222 255
198 223 255
198 223 255
198 223 255
198 223 255
198 223 255
198 223 255
198 223 255
198 223 255
198 223 255
198 223 255
198 223 255
198 223 255
198 223 255
198 223 255
198 223 255
199 223 255
199 223 255
199 223 255
199 223 255
199 223 255
199 223 255
199 223 255
199 223 255
199 223 255
199 223 255
199 223 255
199 223 255
199 224 255
199 224 255
200 224 255
200 224 255
200 224 255
200 224 255
200 224 255
200 224 255
200 224 255
200 224 255
200 224 255
200 224 255
200 224 255
200 224 255
200 224 255
200 224 255
200 224 255
201 224 255
201 224 255
201 224 255
201 224 255
201 224 255
201 224 255
201 224 255
201 224 255
201 224 255
201 224 255
201 225 255
201 225 255
201 225 255
201 225 255
202 225 255
202 225 255
202 225 255
202 225 255
202 225 255
202 225 255
202 225 255
202 225 255
202 225 255
202 225 255
202 225 255
202 225 255
202 225 255
202 225 255
202 225 255
202 225 255
203 225 255
203 225 255
203 225 255
203 225 255
203 225 255
203 225 255
203 225 255
203 225 255
203 225 255
203 226 255
203 226 255
203 226 255
203 226 255
203 226 255
203 226 255
203 226 255
204 226 255
204 226 255
204 226 255
204 226 255
204 226 255
204 226 255
204 226 255
204 226 255
204 226 255
204 226 255
204 226 255
204 226 255
204 226 255
204 226 255
204 226 255
204 226 255
204 226 255
205 226 255
205 226 255
205 226 255
205 226 255
205 226 255
205 226 255
205 226 255
205 226 255
205 227 255
205 227 255
205 227 255
205 227 255
205 227 255
205 227 255
205 227 255
205 227 255
205 227 255
205 227 255
205 227 255
205 226 255
205 226 255
205 226 255
205 226 255
205 226 255
205 226 255
205 226 255
204 226 255
204 226 255
204 226 255
204 226 255
204 226 255
204 226 255
204 226 255
204 226 255
204 226 255
204 226 255
204 226 255
204 226 255
204 226 255
204 226 255
204 226 255
204 226 255
204 226 255
203 226 255
203 226 255
203 226 255
203 226 255
203 226 255
203 226 255
203 226 255
203 226 255
203 225 255
203 225 255
203 225 255
203 225 255
203 225 255
203 225 255
203 225 255
203 225 255
203 225 255
202 225 255
202 225 255
202 225 255
202 225 255
202 225 255
202 225 255
202 225 255
202 225 255
202 225 255
202 225 255
202 225 255
202 225 255
202 225 255
202 225 255
202 225 255
201 225 255
201 225 255
201 225 255
201 225 255
201 224 255
201 224 255
201 224 255
201 224 255
201 224 255
201 224 255
201 224 255
201 224 255
201 224 255
201 224 255
201 224 255
200 224 255
200 224 255
200 224 255
200 224 255
200 224 255
200 224 255
200 224 255
200 224 255
200 224 255
200 224 255
200 224 255
200 224 255
200 224 255
200 224 255
199 224 255
199 224 255
199 223 255
199 223 255
199 223 255
199 223 255
199 223 255
199 223 255
199 223 255
199 223 255
199 223 255
199 223 255
199 223 255
199 223 255
199 223 255
198 223 255
198 223 255
198 223 255
198 223 255
198 223 255
198 223 255
198 223 255
198 223 255
198 223 255
198 223 255
198 223 255
198 223 255
198 223 255
198 223 255
197 223 255
197 222 255
197 222 255
197 222 255
197 222 255
197 222 255
197 222 255
197 222 255
197 222 255
197 222 255
197 222 255
197 222 255
197 222 255
197 222 255
197 222 255
197 222 255
196 222 255
196 222 255
196 222 255
196 222 255
196 222 255
196 222 255
196 222 255
196 222 255
196 222 255
196 222 255
196 222 255
196 222 255
196 222 255
196 222 255
196 222 255
196 222 255
196 222 255
196 221 255
195 221 255
195 221 255
195 221 255
195 221 255
195 221 255
195 221 255
195 221 255
195 221 255
195 221 255
195 221 255
195 221 255
195 221 255
195 221 255
195 221 255
195 221 255
195 221 255
195 221 255
195 221 255
195 221 255
195 221 255
195 221 255
195 221 255
195 221 255
195 221 255
195 221 255
195 221 255
195 221 255
195 221 255
195 221 255
195 221 255
194 221 255
194 221 255
194 221 255
194 221 255
194 221 255
194 221 255
194 221 255
194 221 255
194 221 255
194 221 255
194 221 255
194 221 255
194 221 255
194 221 255
194 221 255
194 221 255
194 221 255
194 221 255
194 221 255
194 221 255
194 221 255
194 221 255
194 221 255
194 221 255
194 221 255
194 221 255
194 221 255
194 221 255
194 221 255
194 221 255
195 221 255
195 221 255
195 221 255
195 221 255
195 221 255
195 221 255
195 221 255
195 221 255
195 221 255
195 221 255
195 221 255
195 221 255
195 221 255
195 221 255
195 221 255
195 221 255
195 221 255
195 221 255
195 221 255
195 221 255
195 221 255
195 221 255
195 221 255
195 221 255
195 221 255
195 221 255
195 221 255
195 221 255
195 221 255
195 221 255
196 221 255
196 222 255
196 222 255
196 222 255
196 222 255
196 222 255
196 222 255
196 222 255
196 222 255
196 222 255
196 222 255
196 222 255
196 222 255
196 222 255
196 222 255
196 222 255
196 222 255
196 222 255
197 222 255
197 222 255
197 222 255
197 222 255
197 222 255
197 222 255
197 222 255
197 222 255
197 222 255
197 222 255
197 222 255
197 222 255
197 222 255
197 222 255
197 222 255
197 222 255
198 223 255
198 223 255
198 223 255
198 223 255
198 223 255
198 223 255
198 223 255
198 223 255
198 223 255
198 223 255
198 223 255
198 223 255
198 223 255
198 223 255
198 223 255
199 223 255
199 223 255
199 223 255
199 223 255
199 223 255
199 223 255
199 223 255
199 223 255
199 223 255
199 223 255
199 223 255
199 223 255
199 224 255
199 224 255
200 224 255
200 224 255
200 224 255
200 224 255
200 224 255
200 224 255
200 224 255
200 224 255
200 224 255
200 224 255
200 224 255
200 224 255
200 224 255
200 224 255
201 224 255
201 224 255
201 224 255
201 224 255
201 224 255
201 224 255
201 224 255
201 224 255
201 224 255
201 224 255
201 224 255
201 225 255
201 225 255
201 225 255
201 225 255
202 225 255
202 225 255
202 225 255
202 225 255
202 225 255
202 225 255
202 225 255
202 225 255
202 225 255
202 225 255
202 225 255
202 225 255
202 225 255
202 225 255
202 225 255
203 225 255
203 225 255
203 225 255
203 225 255
203 225 255
203 225 255
203 225 255
203 225 255
203 225 255
203 226 255
203 226 255
203 226 255
203 226 255
203 226 255
203 226 255
203 226 255
203 226 255
204 226 255
204 226 255
204 226 255
204 226 255
204 226 255
204 226 255
204 226 255
204 226 255
204 226 255
204 226 255
204 226 255
204 226 255
204 226 255
204 226 255
204 226 255
204 226 255
204 226 255
205 226 255
205 226 255
205 226 255
205 226 255
205 226 255
205 226 255
205 226 255
205 227 255
205 227 255
205 227 255
205 227 255
205 227 255
205 227 255
205 227 255
205 227 255
205 227 255
205 227 255
205 227 255
205 227 255
205 227 255
205 227 255
205 227 255
205 227 255
205 226 255
205 226 255
205 226 255
205 226 255
205 226 255
205 226 255
205 226 255
204 226 255
204 226 255
204 226 255
204 226 255
204 226 255
204 226 255
204 226 255
204 226 255
204 226 255
204 226 255
204 226 255
204 226 255
204 226 255
204 226 255
204 226 255
204 226 255
204 226 255
204 226 255
203 226 255
203 226 255
203 226 255
203 226 255
203 226 255
203 226 255
203 226 255
203 225 255
203 225 255
203 225 255
203 225 255
203 225 255
203 225 255
203 225 255
203 225 255
203 225 255
202 225 255
202 225 255
202 225 255
202 225 255
202 225 255
202 225 255
202 225 255
202 225 255
202 225 255
202 225 255
202 225 255
202 225 255
202 225 255
202 225 255
202 225 255
201 225 255
201 225 255
201 225 255
201 225 255
201 225 255
201 224 255
201 224 255
201 224 255
201 224 255
201 224 255
201 224 255
201 224 255
201 224 255
201 224 255
201 224 255
200 224 255
200 224 255
200 224 255
200 224 255
200 224 255
200 224 255
200 224 255
200 224 255
200 224 255
200 224 255
200 224 255
200 224 255
200 224 255
200 224 255
199 224 255
199 224 255
199 224 255
199 223 255
199 223 255
199 223 255
199 223 255
199 223 255
199 223 255
199 223 255
199 223 255
199 223 255
199 223 255
199 223 255
199 223 255
198 223 255
198 223 255
198 223 255
198 223 255
198 223 255
198 223 255
198 223 255
198 223 255
198 223 255
198 223 255
198 223 255
198 223 255
198 223 255
198 223 255
197 223 255
197 222 255
197 222 255
197 222 255
197 222 255
197 222 255
197 222 255
197 222 255
197 222 255
197 222 255
197 222 255
197 222 255
197 222 255
197 222 255
197 222 255
197 222 255
196 222 255
196 222 255
196 222 255
196 222 255
196 222 255
196 222 255
196 222 255
196 222 255
196 222 255
196 222 255
196 222 255
196 222 255
196 222 255
196 222 255
196 222 255
196 222 255
196 222 255
196 222 255
196 221 255
195 221 255
195 221 255
195 221 255
195 221 255
195 221 255
195 221 255
195 221 255
195 221 255
195 221 255
195 221 255
195 221 255
195 221 255
195 221 255
195 221 255
195 221 255
195 221 255
195 221 255
195 221 255
195 221 255
195 221 255
195 221 255
195 221 255
195 221 255
195 221 255
195 221 255
195 221 255
195 221 255
195 221 255
195 221 255
195 221 255
195 221 255
195 221 255
195 221 255
195 221 255
195 221 255
195 221 255
195 221 255
195 221 255
195 221 255
195 221 255
195 221 255
195 221 255
195 221 255
195 221 255
195 221 255
195 221 255
195 221 255
195 221 255
195 221 255
195 221 255
195 221 255
195 221 255
195 221 255
195 221 255
195 221 255
195 221 255
195 221 255
195 221 255
195 221 255
195 221 255
195 221 255
195 221 255
195 221 255
195 221 255
195 221 255
195 221 255
195 221 255
195 221 255
195 221 255
195 221 255
195 221 255
195 221 255
195 221 255
195 221 255
195 221 255
195 221 255
195 221 255
195 221 255
195 221 255
195 221 255
195 221 255
195 221 255
195 221 255
195 221 255
196 221 255
196 222 255
196 222 255
196 222 255
196 222 255
196 222 255
196 222 255
196 222 255
196 222 255
196 222 255
196 222 255
196 222 255
196 222 255
196 222 255
196 222 255
196 222 255
196 222 255
196 222 255
197 222 255
197 222 255
197 222 255
197 222 255
197 222 255
197 222 255
197 222 255
197 222 255
197 222 255
197 222 255
197 222 255
197 222 255
197 222 255
197 222 255
197 222 255
197 222 255
197 223 255
198 223 255
198 223 255
198 223 255
198 223 255
198 223 255
198 223 255
198 223 255
198 223 255
198 223 255
198 223 255
198 223 255
198 223 255
198 223 255
198 223 255
199 223 255
199 223 255
199 223 255
199 223 255
199 223 255
199 223 255
199 223 255
199 223 255
199 223 255
199 223 255
199 223 255
199 223 255
199 224 255
199 224 255
199 224 255
200 224 255
200 224 255
200 224 255
200 224 255
200 224 255
200 224 255
200 224 255
200 224 255
200 224 255
200 224 255
200 224 255
200 224 255
200 224 255
200 224 255
201 224 255
201 224 255
201 224 255
201 224 255
201 224 255
201 224 255
201 224 255
201 224 255
201 224 255
201 224 255
201 225 255
201 225 255
201 225 255
201 225 255
201 225 255
202 225 255
202 225 255
202 225 255
202 225 255
202 225 255
202 225 255
202 225 255
202 225 255
202 225 255
202 225 255
202 225 255
202 225 255
202 225 255
202 225 255
202 225 255
203 225 255
203 225 255
203 225 255
203 225 255
203 225 255
203 225 255
203 225 255
203 225 255
203 225 255
203 226 255
203 226 255
203 226 255
203 226 255
203 226 255
203 226 255
203 226 255
204 226 255
204 226 255
204 226 255
204 226 255
204 226 255
204 226 255
204 226 255
204 226 255
204 226 255
204 226 255
204 226 255
204 226 255
204 226 255
204 226 255
204 226 255
204 226 255
204 226 255
204 226 255
205 226 255
205 226 255
205 226 255
205 226 255
205 226 255
205 226 255
205 226 255
205 227 255
205 227 255
205 227 255
205 227 255
205 227 255
205 227 255
205 227 255
205 227 255
205 227 255
205 227 255
205 227 255
205 227 255
205 227 255
205 227 255
205 227 255
205 227 255
205 227 255
205 227 255
205 227 255
205 227 255
205 227 255
205 226 255
205 226 255
205 226 255
205 226 255
205 226 255
205 226 255
205 226 255
204 226 255
204 226 255
204 226 255
204 226 255
204 226 255
204 226 255
204 226 255
204 226 255
204 226 255
204 226 255
204 226 255
204 226 255
204 226 255
204 226 255
204 226 255
204 226 255
204 226 255
203 226 255
203 226 255
203 226 255
203 226 255
203 226 255
203 226 255
203 226 255
203 225 255
203 225 255
203 225 255
203 225 255
203 225 255
203 225 255
203 225 255
203 225 255
203 225 255
202 225 255
202 225 255
202 225 255
202 225 255
202 225 255
202 225 255
202 225 255
202 225 255
202 225 255
202 225 255
202 225 255
202 225 255
202 225 255
202 225 255
202 225 255
201 225 255
201 225 255
201 225 255
201 225 255
201 225 255
201 224 255
201 224 255
201 224 255
201 224 255
201 224 255
201 224 255
201 224 255
201 224 255
201 224 255
201 224 255
200 224 255
200 224 255
200 224 255
200 224 255
200 224 255
200 224 255
200 224 255
200 224 255
200 224 255
200 224 255
200 224 255
200 224 255
200 224 255
200 224 255
199 224 255
199 224 255
199 224 255
199 223 255
199 223 255
199 223 255
199 223 255
199 223 255
199 223 255
199 223 255
199 223 255
199 223 255
199 223 255
199 223 255
199 223 255
198 223 255
198 223 255
198 223 255
198 223 255
198 223 255
198 223 255
198 223 255
198 223 255
198 223 255
198 223 255
198 223 255
198 223 255
198 223 255
198 223 255
198 223 255
197 222 255
197 222 255
197 222 255
197 222 255
197 222 255
197 222 255
197 222 255
197 222 255
197 222 255
197 222 255
197 222 255
197 222 255
197 222 255
197 222 255
197 222 255
197 222 255
196 222 255
196 222 255
196 222 255
196 222 255
196 222 255
196 222 255
196 222 255
196 222 255
196 222 255
196 222 255
196 222 255
196 222 255
196 222 255
196 222 255
196 222 255
196 222 255
196 222 255
196 222 255
196 221 255
196 221 255
195 221 255
195 221 255
195 221 255
195 221 255
195 221 255
195 221 255
195 221 255
195 221 255
195 221 255
195 221 255
195 221 255
195 221 255
195 221 255
195 221 255
195 221 255
195 221 255
195 221 255
195 221 255
195 221 255
195 221 255
195 221 255
195 221 255
195 221 255
195 221 255
195 221 255
195 221 255
195 221 255
195 221 255
195 221 255
195 221 255
195 221 255
195 221 255
195 221 255
195 221 255
195 221 255
195 221 255
195 221 255
195 221 255
195 221 255
195 221 255
195 221 255
195 221 255
195 221 255
195 221 255
195 221 255
195 221 255
195 221 255
195 221 255
195 221 255
195 221 255
195 221 255
195 221 255
195 221 255
195 221 255
195 221 255
195 221 255
195 221 255
195 221 255
195 221 255
195 221 255
195 221 255
195 221 255
195 221 255
195 221 255
195 221 255
195 221 255
195 221 255
195 221 255
195 221 255
195 221 255
195 221 255
195 221 255
195 221 255
195 221 255
195 221 255
195 221 255
196 221 255
196 221 255
196 222 255
196 222 255
196 222 255
196 222 255
196 222 255
196 222 255
196 222 255
196 222 255
196 222 255
196 222 255
196 222 255
196 222 255
196 222 255
196 222 255
196 222 255
196 222 255
196 222 255
196 222 255
197 222 255
197 222 255
197 222 255
197 222 255
197 222 255
197 222 255
197 222 255
197 222 255
197 222 255
197 222 255
197 222 255
197 222 255
197 222 255
197 222 255
197 222 255
197 222 255
198 223 255
198 223 255
198 223 255
198 223 255
198 223 255
198 223 255
198 223 255
198 223 255
198 223 255
198 223 255
198 223 255
198 223 255
198 223 255
198 223 255
198 223 255
199 223 255
199 223 255
199 223 255
199 223 255
199 223 255
199 223 255
199 223 255
199 223 255
199 223 255
199 223 255
199 223 255
199 223 255
199 224 255
199 224 255
199 224 255
200 224 255
200 224 255
200 224 255
200 224 255
200 224 255
200 224 255
200 224 255
200 224 255
200 224 255
200 224 255
200 224 255
200 224 255
200 224 255
200 224 255
201 224 255
201 224 255
201 224 255
201 224 255
201 224 255
201 224 255
201 224 255
201 224 255
201 224 255
201 224 255
201 225 255
201 225 255
201 225 255
201 225 255
201 225 255
202 225 255
202 225 255
202 225 255
202 225 255
202 225 255
202 225 255
202 225 255
202 225 255
202 225 255
202 225 255
202 225 255
202 225 255
202 225 255
202 225 255
202 225 255
203 225 255
203 225 255
203 225 255
203 225 255
203 225 255
203 225 255
203 225 255
203 225 255
203 225 255
203 226 255
203 226 255
203 226 255
203 226 255
203 226 255
203 226 255
203 226 255
204 226 255
204 226 255
204 226 255
204 226 255
204 226 255
204 226 255
204 226 255
204 226 255
204 226 255
204 226 255
204 226 255
204 226 255
204 226 255
204 226 255
204 226 255
204 226 255
204 226 255
205 226 255
205 226 255
205 226 255
205 226 255
205 226 255
205 226 255
205 226 255
205 227 255
205 227 255
205 227 255
205 227 255
205 227 255
205 227 255
205 227 255
205 227 255
205 227 255
205 227 255
205 227 255
205 227 255
206 227 255
206 227 255
206 227 255
205 227 255
205 227 255
205 227 255
205 227 255
205 227 255
205 227 255
205 227 255
205 227 255
205 227 255
205 227 255
205 227 255
205 226 255
205 226 255
205 226 255
205 226 255
205 226 255
205 226 255
205 226 255
204 226 255
204 226 255
204 226 255
204 226 255
204 226 255
204 226 255
204 226 255
204 226 255
204 226 255
204 226 255
204 226 255
204 226 255
204 226 255
204 226 255
204 226 255
204 226 255
204 226 255
203 226 255
203 226 255
203 226 255
203 226 255
203 226 255
203 226 255
203 226 255
203 226 255
203 225 255
203 225 255
203 225 255
203 225 255
203 225 255
203 225 255
203 225 255
203 225 255
202 225 255
202 225 255
202 225 255
202 225 255
202 225 255
202 225 255
202 225 255
202 225 255
202 225 255
202 225 255
202 225 255
202 225 255
202 225 255
202 225 255
202 225 255
202 225 255
201 225 255
201 225 255
201 225 255
201 225 255
201 224 255
201 224 255
201 224 255
201 224 255
201 224 255
201 224 255
201 224 255
201 224 255
201 224 255
201 224 255
200 224 255
200 224 255
200 224 255
200 224 255
200 224 255
200 224 255
200 224 255
200 224 255
200 224 255
200 224 255
200 224 255
200 224 255
200 224 255
200 224 255
200 224 255
199 224 255
199 224 255
199 223 255
199 223 255
199 223 255
199 223 255
199 223 255
199 223 255
199 223 255
199 223 255
199 223 255
199 223 255
199 223 255
199 223 255
198 223 255
198 223 255
198 223 255
198 223 255
198 223 255
198 223 255
198 223 255
198 223 255
198 223 255
198 223 255
198 223 255
198 223 255
198 223 255
198 223 255
198 223 255
197 223 255
197 222 255
197 222 255
197 222 255
197 222 255
197 222 255
197 222 255
197 222 255
197 222 255
197 222 255
197 222 255
197 222 255
197 222 255
197 222 255
197 222 255
197 222 255
197 222 255
196 222 255
196 222 255
196 222 255
196 222 255
196 222 255
196 222 255
196 222 255
196 222 255
196 222 255
196 222 255
196 222 255
196 222 255
196 222 255
196 222 255
196 222 255
196 222 255
196 222 255
196 222 255
196 221 255
196 221 255
196 221 255
195 221 255
195 221 255
195 221 255
195 221 255
195 221 255
195 221 255
195 221 255
195 221 255
195 221 255
195 221 255
195 221 255
195 221 255
195 221 255
195 221 255
195 221 255
195 221 255
195 221 255
195 221 255
195 221 255
195 221 255
195 221 255
195 221 255
195 221 255
195 221 255
195 221 255
195 221 255
195 221 255
195 221 255
195 221 255
195 221 255
195 221 255
195 221 255
195 221 255
195 221 255
195 221 255
195 221 255
195 221 255
195 221 255
195 221 255
195 221 255
195 221 255
195 221 255
195 221 255
195 221 255
195 221 255
195 221 255
195 221 255
195 221 255
195 221 255
195 221 255
195 221 255
195 221 255
195 221 255
195 221 255
195 221 255
195 221 255
195 221 255
195 221 255
195 221 255
195 221 255
195 221 255
195 221 255
195 221 255
195 221 255
195 221 255
195 221 255
195 221 255
195 221 255
196 221 255
196 221 255
196 221 255
196 222 255
196 222 255
196 222 255
196 222 255
196 222 255
196 222 255
196 222 255
196 222 255
196 222 255
196 222 255
196 222 255
196 222 255
196 222 255
196 222 255
196 222 255
196 222 255
196 222 255
196 222 255
197 222 255
197 222 255
197 222 255
197 222 255
197 222 255
197 222 255
197 222 255
197 222 255
197 222 255
197 222 255
197 222 255
197 222 255
197 222 255
197 222 255
197 222 255
197 222 255
197 223 255
198 223 255
198 223 255
198 223 255
198 223 255
198 223 255
198 223 255
198 223 255
198 223 255
198 223 255
198 223 255
198 223 255
198 223 255
198 223 255
198 223 255
198 223 255
199 223 255
199 223 255
199 223 255
199 223 255
199 223 255
199 223 255
199 223 255
199 223 255
199 223 255
199 223 255
199 223 255
199 223 255
199 224 255
199 224 255
200 224 255
200 224 255
200 224 255
200 224 255
200 224 255
200 224 255
200 224 255
200 224 255
200 224 255
200 224 255
200 224 255
200 224 255
200 224 255
200 224 255
200 224 255
201 224 255
201 224 255
201 224 255
201 224 255
201 224 255
201 224 255
201 224 255
201 224 255
201 224 255
201 224 255
201 225 255
201 225 255
201 225 255
201 225 255
202 225 255
202 225 255
202 225 255
202 225 255
202 225 255
202 225 255
202 225 255
202 225 255
202 225 255
202 225 255
202 225 255
202 225 255
202 225 255
202 225 255
202 225 255
202 225 255
203 225 255
203 225 255
203 225 255
203 225 255
203 225 255
203 225 255
203 225 255
203 225 255
203 226 255
203 226 255
203 226 255
203 226 255
203 226 255
203 226 255
203 226 255
203 226 255
204 226 255
204 226 255
204 226 255
204 226 255
204 226 255
204 226 255
204 226 255
204 226 255
204 226 255
204 226 255
204 226 255
204 226 255
204 226 255
204 226 255
204 226 255
204 226 255
204 226 255
205 226 255
205 226 255
205 226 255
205 226 255
205 226 255
205 226 255
205 226 255
205 227 255
205 227 255
205 227 255
205 227 255
205 227 255
205 227 255
205 227 255
205 227 255
205 227 255
205 227 255
205 227 255
206 227 255
206 227 255
206 227 255
206 227 255
206 227 255
206 227 255
206 227 255
206 227 255
205 227 255
205 227 255
205 227 255
205 227 255
205 227 255
205 227 255
205 227 255
205 227 255
205 227 255
205 227 255
205 227 255
205 226 255
205 226 255
205 226 255
205 226 255
205 226 255
205 226 255
205 226 255
205 226 255
204 226 255
204 226 255
204 226 255
204 226 255
204 226 255
204 226 255
204 226 255
204 226 255
204 226 255
204 226 255
204 226 255
204 226 255
204 226 255
204 226 255
204 226 255
204 226 255
204 226 255
203 226 255
203 226 255
203 226 255
203 226 255
203 226 255
203 226 255
203 226 255
203 225 255
203 225 255
203 225 255
203 225 255
203 225 255
203 225 255
203 225 255
203 225 255
203 225 255
202 225 255
202 225 255
202 225 255
202 225 255
202 225 255
202 225 255
202 225 255
202 225 255
202 225 255
202 225 255
202 225 255
202 225 255
202 225 255
202 225 255
202 225 255
201 225 255
201 225 255
201 225 255
201 225 255
201 224 255
201 224 255
201 224 255
201 224 255
201 224 255
201 224 255
201 224 255
201 224 255
201 224 255
201 224 255
201 224 255
200 224 255
200 224 255
200 224 255
200 224 255
200 224 255
200 224 255
200 224 255
200 224 255
200 224 255
200 224 255
200 224 255
200 224 255
200 224 255
200 224 255
199 224 255
199 224 255
199 223 255
199 223 255
199 223 255
199 223 255
199 223 255
199 223 255
199 223 255
199 223 255
199 223 255
199 223 255
199 223 255
199 223 255
198 223 255
198 223 255
198 223 255
198 223 255
198 223 255
198 223 255
198 223 255
198 223 255
198 223 255
198 223 255
198 223 255
198 223 255
198 223 255
198 223 255
198 223 255
198 223 255
197 222 255
197 222 255
197 222 255
197 222 255
197 222 255
197 222 255
197 222 255
197 222 255
197 222 255
197 222 255
197 222 255
197 222 255
197 222 255
197 222 255
197 222 255
197 222 255
197 222 255
196 222 255
196 222 255
196 222 255
196 222 255
196 222 255
196 222 255
196 222 255
196 222 255
196 222 255
196 222 255
196 222 255
196 222 255
196 222 255
196 222 255
196 222 255
196 222 255
196 222 255
196 222 255
196 222 255
196 222 255
196 221 255
196 221 255
195 221 255
195 221 255
195 221 255
195 221 255
195 221 255
195 221 255
195 221 255
195 221 255
195 221 255
195 221 255
195 221 255
195 221 255
195 221 255
195 221 255
195 221 255
195 221 255
195 221 255
195 221 255
195 221 255
195 221 255
195 221 255
195 221 255
195 221 255
195 221 255
195 221 255
195 221 255
195 221 255
195 221 255
195 221 255
195 221 255
195 221 255
195 221 255
195 221 255
195 221 255
195 221 255
195 221 255
195 221 255
195 221 255
195 221 255
195 221 255
195 221 255
195 221 255
195 221 255
195 221 255
195 221 255
195 221 255
195 221 255
195 221 255
195 221 255
195 221 255
195 221 255
195 221 255
195 221 255
195 221 255
195 221 255
195 221 255
195 221 255
195 221 255
195 221 255
195 221 255
196 221 255
196 221 255
196 222 255
196 222 255
196 222 255
196 222 255
196 222 255
196 222 255
196 222 255
196 222 255
196 222 255
196 222 255
196 222 255
196 222 255
196 222 255
196 222 255
196 222 255
196 222 255
196 222 255
196 222 255
196 222 255
196 222 255
197 222 255
197 222 255
197 222 255
197 222 255
197 222 255
197 222 255
197 222 255
197 222 255
197 222 255
197 222 255
197 222 255
197 222 255
197 222 255
197 222 255
197 222 255
197 222 255
197 222 255
198 223 255
198 223 255
198 223 255
198 223 255
198 223 255
198 223 255
198 223 255
198 223 255
198 223 255
198 223 255
198 223 255
198 223 255
198 223 255
198 223 255
198 223 255
198 223 255
199 223 255
199 223 255
199 223 255
199 223 255
199 223 255
199 223 255
199 223 255
199 223 255
199 223 255
199 223 255
199 223 255
199 223 255
199 224 255
199 224 255
200 224 255
200 224 255
200 224 255
200 224 255
200 224 255
200 224 255
200 224 255
200 224 255
200 224 255
200 224 255
200 224 255
200 224 255
200 224 255
200 224 255
200 224 255
201 224 255
201 224 255
201 224 255
201 224 255
201 224 255
201 224 255
201 224 255
201 224 255
201 224 255
201 224 255
201 225 255
201 225 255
201 225 255
201 225 255
202 225 255
202 225 255
202 225 255
202 225 255
202 225 255
202 225 255
202 225 255
202 225 255
202 225 255
202 225 255
202 225 255
202 225 255
202 225 255
202 225 255
202 225 255
203 225 255
203 225 255
203 225 255
203 225 255
203 225 255
203 225 255
203 225 255
203 225 255
203 225 255
203 226 255
203 226 255
203 226 255
203 226 255
203 226 255
203 226 255
203 226 255
204 226 255
204 226 255
204 226 255
204 226 255
204 226 255
204 226 255
204 226 255
204 226 255
204 226 255
204 226 255
204 226 255
204 226 255
204 226 255
204 226 255
204 226 255
204 226 255
204 226 255
205 226 255
205 226 255
205 226 255
205 226 255
205 226 255
205 226 255
205 226 255
205 227 255
205 227 255
205 227 255
205 227 255
205 227 255
205 227 255
205 227 255
205 227 255
205 227 255
205 227 255
205 227 255
206 227 255
206 227 255
206 227 255
206 227 255
206 227 255
206 227 255
206 227 255
206 227 255
206 227 255
206 227 255
206 227 255
206 227 255
206 227 255
206 227 255
205 227 255
205 227 255
205 227 255
205 227 255
205 227 255
205 227 255
205 227 255
205 227 255
205 227 255
205 227 255
205 227 255
205 226 255
205 226 255
205 226 255
205 226 255
205 226 255
205 226 255
205 226 255
204 226 255
204 226 255
204 226 255
204 226 255
204 226 255
204 226 255
204 226 255
204 226 255
204 226 255
204 226 255
204 226 255
204 226 255
204 226 255
204 226 255
204 226 255
204 226 255
204 226 255
203 226 255
203 226 255
203 226 255
203 226 255
203 226 255
203 226 255
203 226 255
203 225 255
203 225 255
203 225 255
203 225 255
203 225 255
203 225 255
203 225 255
203 225 255
203 225 255
202 225 255
202 225 255
202 225 255
202 225 255
202 225 255
202 225 255
202 225 255
202 225 255
202 225 255
202 225 255
202 225 255
202 225 255
202 225 255
202 225 255
202 225 255
201 225 255
201 225 255
201 225 255
201 225 255
201 224 255
201 224 255
201 224 255
201 224 255
201 224 255
201 224 255
201 224 255
201 224 255
201 224 255
201 224 255
201 224 255
200 224 255
200 224 255
200 224 255
200 224 255
200 224 255
200 224 255
200 224 255
200 224 255
200 224 255
200 224 255
200 224 255
200 224 255
200 224 255
200 224 255
199 224 255
199 224 255
199 223 255
199 223 255
199 223 255
199 223 255
199 223 255
199 223 255
199 223 255
199 223 255
199 223 255
199 223 255
199 223 255
199 223 255
199 223 255
198 223 255
198 223 255
198 223 255
198 223 255
198 223 255
198 223 255
198 223 255
198 223 255
198 223 255
198 223 255
198 223 255
198 223 255
198 223 255
198 223 255
198 223 255
197 223 255
197 222 255
197 222 255
197 222 255
197 222 255
197 222 255
197 222 255
197 222 255
197 222 255
197 222 255
197 222 255
197 222 255
197 222 255
197 222 255
197 222 255
197 222 255
197 222 255
197 222 255
196 222 255
196 222 255
196 222 255
196 222 255
196 222 255
196 222 255
196 222 255
196 222 255
196 222 255
196 222 255
196 222 255
196 222 255
196 222 255
196 222 255
196 222 255
196 222 255
196 222 255
196 222 255
196 222 255
196 222 255
196 222 255
196 221 255
196 221 255
196 221 255
195 221 255
195 221 255
195 221 255
195 221 255
195 221 255
195 221 255
195 221 255
195 221 255
195 221 255
195 221 255
195 221 255
195 221 255
195 221 255
195 221 255
195 221 255
195 221 255
195 221 255
195 221 255
195 221 255
195 221 255
195 221 255
195 221 255
195 221 255
195 221 255
195 221 255
195 221 255
195 221 255
195 221 255
195 221 255
195 221 255
195 221 255
195 221 255
195 221 255
195 221 255
195 221 255
195 221 255
195 221 255
195 221 255
195 221 255
195 221 255
195 221 255
195 221 255
195 221 255
195 221 255
195 221 255
195 221 255
195 221 255
195 221 255
195 221 255
195 221 255
196 221 255
196 221 255
196 221 255
196 222 255
196 222 255
196 222 255
196 222 255
196 222 255
196 222 255
196 222 255
196 222 255
196 222 255
196 222 255
196 222 255
196 222 255
196 222 255
196 222 255
196 222 255
196 222 255
196 222 255
196 222 255
196 222 255
196 222 255
196 222 255
197 222 255
197 222 255
197 222 255
197 222 255
197 222 255
197 222 255
197 222 255
197 222 255
197 222 255
197 222 255
197 222 255
197 222 255
197 222 255
197 222 255
197 222 255
197 222 255
197 222 255
197 223 255
198 223 255
198 223 255
198 223 255
198 223 255
198 223 255
198 223 255
198 223 255
198 223 255
198 223 255
198 223 255
198 223 255
198 223 255
198 223 255
198 223 255
198 223 255
199 223 255
199 223 255
199 223 255
199 223 255
199 223 255
199 223 255
199 223 255
199 223 255
199 223 255
199 223 255
199 223 255
199 223 255
199 223 255
199 224 255
199 224 255
200 224 255
200 224 255
200 224 255
200 224 255
200 224 255
200 224 255
200 224 255
200 224 255
200 224 255
200 224 255
200 224 255
200 224 255
200 224 255
200 224 255
201 224 255
201 224 255
201 224 255
201 224 255
201 224 255
201 224 255
201 224 255
201 224 255
201 224 255
201 224 255
201 224 255
201 225 255
201 225 255
201 225 255
201 225 255
202 225 255
202 225 255
202 225 255
202 225 255
202 225 255
202 225 255
202 225 255
202 225 255
202 225 255
202 225 255
202 225 255
202 225 255
202 225 255
202 225 255
202 225 255
203 225 255
203 225 255
203 225 255
203 225 255
203 225 255
203 225 255
203 225 255
203 225 255
203 225 255
203 226 255
203 226 255
203 226 255
203 226 255
203 226 255
203 226 255
203 226 255
204 226 255
204 226 255
204 226 255
204 226 255
204 226 255
204 226 255
204 226 255
204 226 255
204 226 255
204 226 255
204 226 255
204 226 255
204 226 255
204 226 255
204 226 255
204 226 255
204 226 255
205 226 255
205 226 255
205 226 255
205 226 255
205 226 255
205 226 255
205 226 255
205 227 255
205 227 255
205 227 255
205 227 255
205 227 255
205 227 255
205 227 255
205 227 255
205 227 255
205 227 255
205 227 255
206 227 255
206 227 255
206 227 255
206 227 255
206 227 255
206 227 255
206 227 255
206 227 255
206 227 255
206 227 255
206 227 255
206 227 255
206 227 255
206 227 255
206 227 255
206 227 255
206 227 255
206 227 255
206 227 255
205 227 255
205 227 255
205 227 255
205 227 255
205 227 255
205 227 255
205 227 255
205 227 255
205 227 255
205 227 255
205 227 255
205 226 255
205 226 255
205 226 255
205 226 255
205 226 255
205 226 255
205 226 255
204 226 255
204 226 255
204 226 255
204 226 255
204 226 255
204 226 255
204 226 255
204 226 255
204 226 255
204 226 255
204 226 255
204 226 255
204 226 255
204 226 255
204 226 255
204 226 255
204 226 255
203 226 255
203 226 255
203 226 255
203 226 255
203 226 255
203 226 255
203 226 255
203 225 255
203 225 255
203 225 255
203 225 255
203 225 255
203 225 255
203 225 255
203 225 255
202 225 255
202 225 255
202 225 255
202 225 255
202 225 255
202 225 255
202 225 255
202 225 255
202 225 255
202 225 255
202 225 255
202 225 255
202 225 255
202 225 255
202 225 255
201 225 255
201 225 255
201 225 255
201 225 255
201 225 255
201 224 255
201 224 255
201 224 255
201 224 255
201 224 255
201 224 255
201 224 255
201 224 255
201 224 255
201 224 255
200 224 255
200 224 255
200 224 255
200 224 255
200 224 255
200 224 255
200 224 255
200 224 255
200 224 255
200 224 255
200 224 255
200 224 255
200 224 255
200 224 255
200 224 255
199 224 255
199 224 255
199 223 255
199 223 255
199 223 255
199 223 255
199 223 255
199 223 255
199 223 255
199 223 255
199 223 255
199 223 255
199 223 255
199 223 255
198 223 255
198 223 255
198 223 255
198 223 255
198 223 255
198 223 255
198 223 255
198 223 255
198 223 255
198 223 255
198 223 255
198 223 255
198 223 255
198 223 255
198 223 255
198 223 255
197 222 255
197 222 255
197 222 255
197 222 255
197 222 255
197 222 255
197 222 255
197 222 255
197 222 255
197 222 255
197 222 255
197 222 255
197 222 255
197 222 255
197 222 255
197 222 255
197 222 255
197 222 255
196 222 255
196 222 255
196 222 255
196 222 255
196 222 255
196 222 255
196 222 255
196 222 255
196 222 255
196 222 255
196 222 255
196 222 255
196 222 255
196 222 255
196 222 255
196 222 255
196 222 255
196 222 255
196 222 255
196 222 255
196 222 255
196 222 255
196 222 255
196 221 255
196 221 255
196 221 255
196 221 255
195 221 255
195 221 255
195 221 255
195 221 255
195 221 255
195 221 255
195 221 255
195 221 255
195 221 255
195 221 255
195 221 255
195 221 255
195 221 255
195 221 255
195 221 255
195 221 255
195 221 255
195 221 255
195 221 255
195 221 255
195 221 255
195 221 255
195 221 255
195 221 255
195 221 255
195 221 255
195 221 255
195 221 255
195 221 255
195 221 255
195 221 255
195 221 255
195 221 255
195 221 255
195 221 255
195 221 255
195 221 255
195 221 255
196 221 255
196 221 255
196 221 255
196 222 255
196 222 255
196 222 255
196 222 255
196 222 255
196 222 255
196 222 255
196 222 255
196 222 255
196 222 255
196 222 255
196 222 255
196 222 255
196 222 255
196 222 255
196 222 255
196 222 255
196 222 255
196 222 255
196 222 255
196 222 255
196 222 255
196 222 255
196 222 255
197 222 255
197 222 255
197 222 255
197 222 255
197 222 255
197 222 255
197 222 255
197 222 255
197 222 255
197 222 255
197 222 255
197 222 255
197 222 255
197 222 255
197 222 255
197 222 255
197 222 255
197 222 255
198 223 255
198 223 255
198 223 255
198 223 255
198 223 255
198 223 255
198 223 255
198 223 255
198 223 255
198 223 255
198 223 255
198 223 255
198 223 255
198 223 255
198 223 255
198 223 255
199 223 255
199 223 255
199 223 255
199 223 255
199 223 255
199 223 255
199 223 255
199 223 255
199 223 255
199 223 255
199 223 255
199 223 255
199 224 255
199 224 255
199 224 255
200 224 255
200 224 255
200 224 255
200 224 255
200 224 255
200 224 255
200 224 255
200 224 255
200 224 255
200 224 255
200 224 255
200 224 255
200 224 255
200 224 255
201 224 255
201 224 255
201 224 255
201 224 255
201 224 255
201 224 255
201 224 255
201 224 255
201 224 255
201 224 255
201 225 255
201 225 255
201 225 255
201 225 255
201 225 255
202 225 255
202 225 255
202 225 255
202 225 255
202 225 255
202 225 255
202 225 255
202 225 255
202 225 255
202 225 255
202 225 255
202 225 255
202 225 255
202 225 255
202 225 255
203 225 255
203 225 255
203 225 255
203 225 255
203 225 255
203 225 255
203 225 255
203 225 255
203 226 255
203 226 255
203 226 255
203 226 255
203 226 255
203 226 255
203 226 255
204 226 255
204 226 255
204 226 255
204 226 255
204 226 255
204 226 255
204 226 255
204 226 255
204 226 255
204 226 255
204 226 255
204 226 255
204 226 255
204 226 255
204 226 255
204 226 255
204 226 255
205 226 255
205 226 255
205 226 255
205 226 255
205 226 255
205 226 255
205 226 255
205 227 255
205 227 255
205 227 255
205 227 255
205 227 255
205 227 255
205 227 255
205 227 255
205 227 255
205 227 255
205 227 255
206 227 255
206 227 255
206 227 255
206 227 255
206 227 255
206 227 255
206 227 255
206 227 255
206 227 255
206 227 255
206 227 255
206 227 255
206 227 255
206 227 255
206 227 255
206 227 255
206 227 255
206 227 255
206 227 255
206 227 255
206 227 255
206 227 255
206 227 255
206 227 255
205 227 255
205 227 255
205 227 255
205 227 255
205 227 255
205 227 255
205 227 255
205 227 255
205 227 255
205 227 255
205 227 255
205 226 255
205 226 255
205 226 255
205 226 255
205 226 255
205 226 255
205 226 255
204 226 255
204 226 255
204 226 255
204 226 255
204 226 255
204 226 255
204 226 255
204 226 255
204 226 255
204 226 255
204 226 255
204 226 255
204 226 255
204 226 255
204 226 255
204 226 255
204 226 255
203 226 255
203 226 255
203 226 255
203 226 255
203 226 255
203 226 255
203 226 255
203 225 255
203 225 255
203 225 255
203 225 255
203 225 255
203 225 255
203 225 255
203 225 255
203 225 255
202 225 255
202 225 255
202 225 255
202 225 255
202 225 255
202 225 255
202 225 255
202 225 255
202 225 255
202 225 255
202 225 255
202 225 255
202 225 255
202 225 255
202 225 255
201 225 255
201 225 255
201 225 255
201 225 255
201 224 255
201 224 255
201 224 255
201 224 255
201 224 255
201 224 255
201 224 255
201 224 255
201 224 255
201 224 255
200 224 255
200 224 255
200 224 255
200 224 255
200 224 255
200 224 255
200 224 255
200 224 255
200 224 255
200 224 255
200 224 255
200 224 255
200 224 255
200 224 255
200 224 255
199 224 255
199 224 255
199 223 255
199 223 255
199 223 255
199 223 255
199 223 255
199 223 255
199 223 255
199 223 255
199 223 255
199 223 255
199 223 255
199 223 255
199 223 255
198 223 255
198 223 255
198 223 255
198 223 255
198 223 255
198 223 255
198 223 255
198 223 255
198 223 255
198 223 255
198 223 255
198 223 255
198 223 255
198 223 255
198 223 255
197 223 255
197 222 255
197 222 255
197 222 255
197 222 255
197 222 255
197 222 255
197 222 255
197 222 255
197 222 255
197 222 255
197 222 255
197 222 255
197 222 255
197 222 255
197 222 255
197 222 255
197 222 255
197 222 255
196 222 255
196 222 255
196 222 255
196 222 255
196 222 255
196 222 255
196 222 255
196 222 255
196 222 255
196 222 255
196 222 255
196 222 255
196 222 255
196 222 255
196 222 255
196 222 255
196 222 255
196 222 255
196 222 255
196 222 255
196 222 255
196 222 255
196 222 255
196 222 255
196 222 255
196 222 255
196 222 255
196 221 255
196 221 255
196 221 255
196 221 255
196 221 255
196 221 255
195 221 255
195 221 255
195 221 255
195 221 255
195 221 255
195 221 255
195 221 255
195 221 255
195 221 255
195 221 255
195 221 255
195 221 255
195 221 255
195 221 255
195 221 255
195 221 255
195 221 255
195 221 255
195 221 255
195 221 255
196 221 255
196 221 255
196 221 255
196 221 255
196 221 255
196 221 255
196 222 255
196 222 255
196 222 255
196 222 255
196 222 255
196 222 255
196 222 255
196 222 255
196 222 255
196 222 255
196 222 255
196 222 255
196 222 255
196 222 255
196 222 255
196 222 255
196 222 255
196 222 255
196 222 255
196 222 255
196 222 255
196 222 255
196 222 255
196 222 255
196 222 255
196 222 255
196 222 255
197 222 255
197 222 255
197 222 255
197 222 255
197 222 255
197 222 255
197 222 255
197 222 255
197 222 255
197 222 255
197 222 255
197 222 255
197 222 255
197 222 255
197 222 255
197 222 255
197 222 255
197 222 255
197 223 255
198 223 255
198 223 255
198 223 255
198 223 255
198 223 255
198 223 255
198 223 255
198 223 255
198 223 255
198 223 255
198 223 255
198 223 255
198 223 255
198 223 255
198 223 255
198 223 255
199 223 255
199 223 255
199 223 255
199 223 255
199 223 255
199 223 255
199 223 255
199 223 255
199 223 255
199 223 255
199 223 255
199 223 255
199 224 255
199 224 255
200 224 255
200 224 255
200 224 255
200 224 255
200 224 255
200 224 255
200 224 255
200 224 255
200 224 255
200 224 255
200 224 255
200 224 255
200 224 255
200 224 255
200 224 255
201 224 255
201 224 255
201 224 255
201 224 255
201 224 255
201 224 255
201 224 255
201 224 255
201 224 255
201 224 255
201 225 255
201 225 255
201 225 255
201 225 255
202 225 255
202 225 255
202 225 255
202 225 255
202 225 255
202 225 255
202 225 255
202 225 255
202 225 255
202 225 255
202 225 255
202 225 255
202 225 255
202 225 255
202 225 255
203 225 255
203 225 255
203 225 255
203 225 255
203 225 255
203 225 255
203 225 255
203 225 255
203 225 255
203 226 255
203 226 255
203 226 255
203 226 255
203 226 255
203 226 255
203 226 255
204 226 255
204 226 255
204 226 255
204 226 255
204 226 255
204 226 255
204 226 255
204 226 255
204 226 255
204 226 255
204 226 255
204 226 255
204 226 255
204 226 255
204 226 255
204 226 255
204 226 255
205 226 255
205 226 255
205 226 255
205 226 255
205 226 255
205 226 255
205 226 255
205 227 255
205 227 255
205 227 255
205 227 255
205 227 255
205 227 255
205 227 255
205 227 255
205 227 255
205 227 255
205 227 255
206 227 255
206 227 255
206 227 255
206 227 255
206 227 255
206 227 255
206 227 255
206 227 255
206 227 255
206 227 255
206 227 255
206 227 255
206 227 255
206 227 255
206 227 255
206 227 255
206 227 255
206 227 255
206 227 255
206 227 255
206 227 255
206 227 255
206 227 255
206 227 255
206 227 255
206 227 255
206 227 255
206 227 255
206 227 255
205 227 255
205 227 255
205 227 255
205 227 255
205 227 255
205 227 255
205 227 255
205 227 255
205 227 255
205 227 255
205 227 255
205 226 255
205 226 255
205 226 255
205 226 255
205 226 255
205 226 255
205 226 255
204 226 255
204 226 255
204 226 255
204 226 255
204 226 255
204 226 255
204 226 255
204 226 255
204 226 255
204 226 255
204 226 255
204 226 255
204 226 255
204 226 255
204 226 255
204 226 255
203 226 255
203 226 255
203 226 255
203 226 255
203 226 255
203 226 255
203 226 255
203 225 255
203 225 255
203 225 255
203 225 255
203 225 255
203 225 255
203 225 255
203 225 255
203 225 255
202 225 255
202 225 255
202 225 255
202 225 255
202 225 255
202 225 255
202 225 255
202 225 255
202 225 255
202 225 255
202 225 255
202 225 255
202 225 255
202 225 255
202 225 255
201 225 255
201 225 255
201 225 255
201 225 255
201 224 255
201 224 255
201 224 255
201 224 255
201 224 255
201 224 255
201 224 255
201 224 255
201 224 255
201 224 255
200 224 255
200 224 255
200 224 255
200 224 255
200 224 255
200 224 255
200 224 255
200 224 255
200 224 255
200 224 255
200 224 255
200 224 255
200 224 255
200 224 255
200 224 255
199 224 255
199 224 255
199 223 255
199 223 255
199 223 255
199 223 255
199 223 255
199 223 255
199 223 255
199 223 255
199 223 255
199 223 255
199 223 255
199 223 255
199 223 255
198 223 255
198 223 255
198 223 255
198 223 255
198 223 255
198 223 255
198 223 255
198 223 255
198 223 255
198 223 255
198 223 255
198 223 255
198 223 255
198 223 255
198 223 255
198 223 255
197 223 255
197 222 255
197 222 255
197 222 255
197 222 255
197 222 255
197 222 255
197 222 255
197 222 255
197 222 255
197 222 255
197 222 255
197 222 255
197 222 255
197 222 255
197 222 255
197 222 255
197 222 255
197 222 255
197 222 255
196 222 255
196 222 255
196 222 255
196 222 255
196 222 255
196 222 255
196 222 255
196 222 255
196 222 255
196 222 255
196 222 255
196 222 255
196 222 255
196 222 255
196 222 255
196 222 255
196 222 255
196 222 255
196 222 255
196 222 255
196 222 255
196 222 255
196 222 255
196 222 255
196 222 255
196 222 255
196 222 255
196 222 255
196 222 255
196 222 255
196 222 255
196 222 255
196 222 255
196 222 255
196 222 255
196 222 255
196 222 255
196 222 255
196 222 255
196 222 255
196 222 255
196 222 255
196 222 255
196 222 255
196 222 255
196 222 255
196 222 255
196 222 255
196 222 255
196 222 255
196 222 255
196 222 255
196 222 255
196 222 255
196 222 255
196 222 255
196 222 255
196 222 255
196 222 255
196 222 255
196 222 255
196 222 255
196 222 255
196 222 255
196 222 255
196 222 255
196 222 255
196 222 255
196 222 255
196 222 255
196 222 255
196 222 255
196 222 255
196 222 255
196 222 255
196 222 255
196 222 255
196 222 255
197 222 255
197 222 255
197 222 255
197 222 255
197 222 255
197 222 255
197 222 255
197 222 255
197 222 255
197 222 255
197 222 255
197 222 255
197 222 255
197 222 255
197 222 255
197 222 255
197 222 255
197 222 255
197 222 255
197 223 255
198 223 255
198 223 255
198 223 255
198 223 255
198 223 255
198 223 255
198 223 255
198 223 255
198 223 255
198 223 255
198 223 255
198 223 255
198 223 255
198 223 255
198 223 255
198 223 255
199 223 255
199 223 255
199 223 255
199 223 255
199 223 255
199 223 255
199 223 255
199 223 255
199 223 255
199 223 255
199 223 255
199 223 255
199 224 255
199 224 255
199 224 255
200 224 255
200 224 255
200 224 255
200 224 255
200 224 255
200 224 255
200 224 255
200 224 255
200 224 255
200 224 255
200 224 255
200 224 255
200 224 255
200 224 255
200 224 255
201 224 255
201 224 255
201 224 255
201 224 255
201 224 255
201 224 255
201 224 255
201 224 255
201 224 255
201 224 255
201 225 255
201 225 255
201 225 255
201 225 255
202 225 255
202 225 255
202 225 255
202 225 255
202 225 255
202 225 255
202 225 255
202 225 255
202 225 255
202 225 255
202 225 255
202 225 255
202 225 255
202 225 255
202 225 255
203 225 255
203 225 255
203 225 255
203 225 255
203 225 255
203 225 255
203 225 255
203 225 255
203 225 255
203 226 255
203 226 255
203 226 255
203 226 255
203 226 255
203 226 255
203 226 255
204 226 255
204 226 255
204 226 255
204 226 255
204 226 255
204 226 255
204 226 255
204 226 255
204 226 255
204 226 255
204 226 255
204 226 255
204 226 255
204 226 255
204 226 255
204 226 255
205 226 255
205 226 255
205 226 255
205 226 255
205 226 255
205 226 255
205 226 255
205 227 255
205 227 255
205 227 255
205 227 255
205 227 255
205 227 255
205 227 255
205 227 255
205 227 255
205 227 255
205 227 255
206 227 255
206 227 255
206 227 255
206 227 255
206 227 255
206 227 255
206 227 255
206 227 255
206 227 255
206 227 255
206 227 255
206 227 255
206 227 255
206 227 255
206 227 255
206 227 255
206 227 255
206 227 255
206 227 255
206 227 255
206 227 255
206 227 255
206 227 255
206 227 255
206 227 255
206 227 255
206 227 255
206 227 255
206 227 255
206 227 255
206 227 255
206 227 255
206 227 255
206 227 255
205 227 255
205 227 255
205 227 255
205 227 255
205 227 255
205 227 255
205 227 255
205 227 255
205 227 255
205 227 255
205 227 255
205 226 255
205 226 255
205 226 255
205 226 255
205 226 255
205 226 255
205 226 255
204 226 255
204 226 255
204 226 255
204 226 255
204 226 255
204 226 255
204 226 255
204 226 255
204 226 255
204 226 255
204 226 255
204 226 255
204 226 255
204 226 255
204 226 255
204 226 255
204 226 255
203 226 255
203 226 255
203 226 255
203 226 255
203 226 255
203 226 255
203 226 255
203 225 255
203 225 255
203 225 255
203 225 255
203 225 255
203 225 255
203 225 255
203 225 255
202 225 255
202 225 255
202 225 255
202 225 255
202 225 255
202 225 255
202 225 255
202 225 255
202 225 255
202 225 255
202 225 255
202 225 255
202 225 255
202 225 255
202 225 255
201 225 255
201 225 255
201 225 255
201 225 255
201 225 255
201 224 255
201 224 255
201 224 255
201 224 255
201 224 255
201 224 255
201 224 255
201 224 255
201 224 255
201 224 255
200 224 255
200 224 255
200 224 255
200 224 255
200 224 255
200 224 255
200 224 255
200 224 255
200 224 255
200 224 255
200 224 255
200 224 255
200 224 255
200 224 255
199 224 255
199 224 255
199 224 255
199 223 255
199 223 255
199 223 255
199 223 255
199 223 255
199 223 255
199 223 255
199 223 255
199 223 255
199 223 255
199 223 255
199 223 255
199 223 255
198 223 255
198 223 255
198 223 255
198 223 255
198 223 255
198 223 255
198 223 255
198 223 255
198 223 255
198 223 255
198 223 255
198 223 255
198 223 255
198 223 255
198 223 255
198 223 255
197 223 255
197 222 255
197 222 255
197 222 255
197 222 255
197 222 255
197 222 255
197 222 255
197 222 255
197 222 255
197 222 255
197 222 255
197 222 255
197 222 255
197 222 255
197 222 255
197 222 255
197 222 255
197 222 255
197 222 255
196 222 255
196 222 255
196 222 255
196 222 255
196 222 255
196 222 255
196 222 255
196 222 255
196 222 255
196 222 255
196 222 255
196 222 255
196 222 255
196 222 255
196 222 255
196 222 255
196 222 255
196 222 255
196 222 255
196 222 255
196 222 255
196 222 255
196 222 255
196 222 255
196 222 255
196 222 255
196 222 255
196 222 255
196 222 255
196 222 255
196 222 255
196 222 255
196 222 255
196 222 255
196 222 255
196 222 255
196 222 255
196 222 255
196 222 255
196 222 255
196 222 255
196 222 255
196 222 255
196 222 255
196 222 255
196 222 255
196 222 255
196 222 255
196 222 255
196 222 255
196 222 255
196 222 255
196 222 255
196 222 255
196 222 255
196 222 255
196 222 255
196 222 255
196 222 255
196 222 255
196 222 255
196 222 255
196 222 255
196 222 255
196 222 255
196 222 255
196 222 255
196 222 255
196 222 255
196 222 255
196 222 255
196 222 255
197 222 255
197 222 255
197 222 255
197 222 255
197 222 255
197 222 255
197 222 255
197 222 255
197 222 255
197 222 255
197 222 255
197 222 255
197 222 255
197 222 255
197 222 255
197 222 255
197 222 255
197 222 255
197 222 255
197 223 255
198 223 255
198 223 255
198 223 255
198 223 255
198 223 255
198 223 255
198 223 255
198 223 255
198 223 255
198 223 255
198 223 255
198 223 255
198 223 255
198 223 255
198 223 255
198 223 255
199 223 255
199 223 255
199 223 255
199 223 255
199 223 255
199 223 255
199 223 255
199 223 255
199 223 255
199 223 255
199 223 255
199 223 255
199 223 255
199 224 255
199 224 255
200 224 255
200 224 255
200 224 255
200 224 255
200 224 255
200 224 255
200 224 255
200 224 255
200 224 255
200 224 255
200 224 255
200 224 255
200 224 255
200 224 255
200 224 255
201 224 255
201 224 255
201 224 255
201 224 255
201 224 255
201 224 255
201 224 255
201 224 255
201 224 255
201 224 255
201 225 255
201 225 255
201 225 255
201 225 255
201 225 255
202 225 255
202 225 255
202 225 255
202 225 255
202 225 255
202 225 255
202 225 255
202 225 255
202 225 255
202 225 255
202 225 255
202 225 255
202 225 255
202 225 255
202 225 255
203 225 255
203 225 255
203 225 255
203 225 255
203 225 255
203 225 255
203 225 255
203 225 255
203 226 255
203 226 255
203 226 255
203 226 255
203 226 255
203 226 255
203 226 255
204 226 255
204 226 255
204 226 255
204 226 255
204 226 255
204 226 255
204 226 255
204 226 255
204 226 255
204 226 255
204 226 255
204 226 255
204 226 255
204 226 255
204 226 255
204 226 255
204 226 255
205 226 255
205 226 255
205 226 255
205 226 255
205 226 255
205 226 255
205 226 255
205 227 255
205 227 255
205 227 255
205 227 255
205 227 255
205 227 255
205 227 255
205 227 255
205 227 255
205 227 255
205 227 255
206 227 255
206 227 255
206 227 255
206 227 255
206 227 255
206 227 255
206 227 255
206 227 255
206 227 255
206 227 255
206 227 255
206 227 255
206 227 255
206 227 255
206 227 255
206 227 255
206 227 255
206 227 255
207 227 255
207 227 255
206 227 255
206 227 255
206 227 255
206 227 255
206 227 255
206 227 255
206 227 255
206 227 255
206 227 255
206 227 255
206 227 255
206 227 255
206 227 255
206 227 255
206 227 255
206 227 255
206 227 255
206 227 255
206 227 255
205 227 255
205 227 255
205 227 255
205 227 255
205 227 255
205 227 255
205 227 255
205 227 255
205 227 255
205 227 255
205 227 255
205 226 255
205 226 255
205 226 255
205 226 255
205 226 255
205 226 255
205 226 255
204 226 255
204 226 255
204 226 255
204 226 255
204 226 255
204 226 255
204 226 255
204 226 255
204 226 255
204 226 255
204 226 255
204 226 255
204 226 255
204 226 255
204 226 255
204 226 255
203 226 255
203 226 255
203 226 255
203 226 255
203 226 255
203 226 255
203 226 255
203 225 255
203 225 255
203 225 255
203 225 255
203 225 255
203 225 255
203 225 255
203 225 255
203 225 255
202 225 255
202 225 255
202 225 255
202 225 255
202 225 255
202 225 255
202 225 255
202 225 255
202 225 255
202 225 255
202 225 255
202 225 255
202 225 255
202 225 255
201 225 255
201 225 255
201 225 255
201 225 255
201 225 255
201 224 255
201 224 255
201 224 255
201 224 255
201 224 255
201 224 255
201 224 255
201 224 255
201 224 255
201 224 255
200 224 255
200 224 255
200 224 255
200 224 255
200 224 255
200 224 255
200 224 255
200 224 255
200 224 255
200 224 255
200 224 255
200 224 255
200 224 255
200 224 255
200 224 255
199 224 255
199 224 255
199 223 255
199 223 255
199 223 255
199 223 255
199 223 255
199 223 255
199 223 255
199 223 255
199 223 255
199 223 255
199 223 255
199 223 255
199 223 255
198 223 255
198 223 255
198 223 255
198 223 255
198 223 255
198 223 255
198 223 255
198 223 255
198 223 255
198 223 255
198 223 255
198 223 255
198 223 255
198 223 255
198 223 255
198 223 255
198 223 255
197 223 255
197 222 255
197 222 255
197 222 255
197 222 255
197 222 255
197 222 255
197 222 255
197 222 255
197 222 255
197 222 255
197 222 255
197 222 255
197 222 255
197 222 255
197 222 255
197 222 255
197 222 255
197 222 255
197 222 255
197 222 255
197 222 255
196 222 255
196 222 255
196 222 255
196 222 255
196 222 255
196 222 255
196 222 255
196 222 255
196 222 255
196 222 255
196 222 255
196 222 255
196 222 255
196 222 255
196 222 255
196 222 255
196 222 255
196 222 255
196 222 255
196 222 255
196 222 255
196 222 255
196 222 255
196 222 255
196 222 255
196 222 255
196 222 255
196 222 255
196 222 255
196 222 255
196 222 255
196 222 255
196 222 255
196 222 255
196 222 255
196 222 255
196 222 255
196 222 255
196 222 255
196 222 255
196 222 255
196 222 255
196 222 255
196 222 255
196 222 255
196 222 255
196 222 255
196 222 255
196 222 255
196 222 255
196 222 255
196 222 255
196 222 255
196 222 255
196 222 255
196 222 255
196 222 255
196 222 255
196 222 255
196 222 255
196 222 255
196 222 255
197 222 255
197 222 255
197 222 255
197 222 255
197 222 255
197 222 255
197 222 255
197 222 255
197 222 255
197 222 255
197 222 255
197 222 255
197 222 255
197 222 255
197 222 255
197 222 255
197 222 255
197 222 255
197 222 255
197 222 255
197 222 255
197 223 255
198 223 255
198 223 255
198 223 255
198 223 255
198 223 255
198 223 255
198 223 255
198 223 255
198 223 255
198 223 255
198 223 255
198 223 255
198 223 255
198 223 255
198 223 255
198 223 255
198 223 255
199 223 255
199 223 255
199 223 255
199 223 255
199 223 255
199 223 255
199 223 255
199 223 255
199 223 255
199 223 255
199 223 255
199 223 255
199 223 255
199 224 255
199 224 255
200 224 255
200 224 255
200 224 255
200 224 255
200 224 255
200 224 255
200 224 255
200 224 255
200 224 255
200 224 255
200 224 255
200 224 255
200 224 255
200 224 255
200 224 255
201 224 255
201 224 255
201 224 255
201 224 255
201 224 255
201 224 255
201 224 255
201 224 255
201 224 255
201 224 255
201 225 255
201 225 255
201 225 255
201 225 255
202 225 255
202 225 255
202 225 255
202 225 255
202 225 255
202 225 255
202 225 255
202 225 255
202 225 255
202 225 255
202 225 255
202 225 255
202 225 255
202 225 255
202 225 255
203 225 255
203 225 255
203 225 255
203 225 255
203 225 255
203 225 255
203 225 255
203 225 255
203 225 255
203 226 255
203 226 255
203 226 255
203 226 255
203 226 255
203 226 255
203 226 255
204 226 255
204 226 255
204 226 255
204 226 255
204 226 255
204 226 255
204 226 255
204 226 255
204 226 255
204 226 255
204 226 255
204 226 255
204 226 255
204 226 255
204 226 255
204 226 255
205 226 255
205 226 255
205 226 255
205 226 255
205 226 255
205 226 255
205 226 255
205 227 255
205 227 255
205 227 255
205 227 255
205 227 255
205 227 255
205 227 255
205 227 255
205 227 255
205 227 255
205 227 255
206 227 255
206 227 255
206 227 255
206 227 255
206 227 255
206 227 255
206 227 255
206 227 255
206 227 255
206 227 255
206 227 255
206 227 255
206 227 255
206 227 255
206 227 255
206 227 255
206 227 255
206 227 255
206 227 255
207 227 255
207 227 255
207 227 255
207 227 255
207 227 255
207 227 255
207 227 255
206 227 255
206 227 255
206 227 255
206 227 255
206 227 255
206 227 255
206 227 255
206 227 255
206 227 255
206 227 255
206 227 255
206 227 255
206 227 255
206 227 255
206 227 255
206 227 255
206 227 255
206 227 255
206 227 255
205 227 255
205 227 255
205 227 255
205 227 255
205 227 255
205 227 255
205 227 255
205 227 255
205 227 255
205 227 255
205 226 255
205 226 255
205 226 255
205 226 255
205 226 255
205 226 255
205 226 255
204 226 255
204 226 255
204 226 255
204 226 255
204 226 255
204 226 255
204 226 255
204 226 255
204 226 255
204 226 255
204 226 255
204 226 255
204 226 255
204 226 255
204 226 255
204 226 255
204 226 255
203 226 255
203 226 255
203 226 255
203 226 255
203 226 255
203 226 255
203 225 255
203 225 255
203 225 255
203 225 255
203 225 255
203 225 255
203 225 255
203 225 255
203 225 255
202 225 255
202 225 255
202 225 255
202 225 255
202 225 255
202 225 255
202 225 255
202 225 255
202 225 255
202 225 255
202 225 255
202 225 255
202 225 255
202 225 255
202 225 255
201 225 255
201 225 255
201 225 255
201 225 255
201 224 255
201 224 255
201 224 255
201 224 255
201 224 255
201 224 255
201 224 255
201 224 255
201 224 255
201 224 255
201 224 255
200 224 255
200 224 255
200 224 255
200 224 255
200 224 255
200 224 255
200 224 255
200 224 255
200 224 255
200 224 255
200 224 255
200 224 255
200 224 255
200 224 255
199 224 255
199 224 255
199 224 255
199 223 255
199 223 255
199 223 255
199 223 255
199 223 255
199 223 255
199 223 255
199 223 255
199 223 255
199 223 255
199 223 255
199 223 255
199 223 255
198 223 255
198 223 255
198 223 255
198 223 255
198 223 255
198 223 255
198 223 255
198 223 255
198 223 255
198 223 255
198 223 255
198 223 255
198 223 255
198 223 255
198 223 255
198 223 255
198 223 255
197 223 255
197 222 255
197 222 255
197 222 255
197 222 255
197 222 255
197 222 255
197 222 255
197 222 255
197 222 255
197 222 255
197 222 255
197 222 255
197 222 255
197 222 255
197 222 255
197 222 255
197 222 255
197 222 255
197 222 255
197 222 255
197 222 255
197 222 255
197 222 255
196 222 255
196 222 255
196 222 255
196 222 255
196 222 255
196 222 255
196 222 255
196 222 255
196 222 255
196 222 255
196 222 255
196 222 255
196 222 255
196 222 255
196 222 255
196 222 255
196 222 255
196 222 255
196 222 255
196 222 255
196 222 255
196 222 255
196 222 255
196 222 255
196 222 255
196 222 255
196 222 255
196 222 255
196 222 255
196 222 255
196 222 255
196 222 255
196 222 255
196 222 255
196 222 255
196 222 255
196 222 255
196 222 255
196 222 255
196 222 255
196 222 255
196 222 255
196 222 255
196 222 255
196 222 255
196 222 255
196 222 255
196 222 255
196 222 255
196 222 255
196 222 255
196 222 255
197 222 255
197 222 255
197 222 255
197 222 255
197 222 255
197 222 255
197 222 255
197 222 255
197 222 255
197 222 255
197 222 255
197 222 255
197 222 255
197 222 255
197 222 255
197 222 255
197 222 255
197 222 255
197 222 255
197 222 255
197 222 255
197 222 255
197 222 255
197 223 255
198 223 255
198 223 255
198 223 255
198 223 255
198 223 255
198 223 255
198 223 255
198 223 255
198 223 255
198 223 255
198 223 255
198 223 255
198 223 255
198 223 255
198 223 255
198 223 255
198 223 255
199 223 255
199 223 255
199 223 255
199 223 255
199 223 255
199 223 255
199 223 255
199 223 255
199 223 255
199 223 255
199 223 255
199 223 255
199 223 255
199 224 255
199 224 255
199 224 255
200 224 255
200 224 255
200 224 255
200 224 255
200 224 255
200 224 255
200 224 255
200 224 255
200 224 255
200 224 255
200 224 255
200 224 255
200 224 255
200 224 255
201 224 255
201 224 255
201 224 255
201 224 255
201 224 255
201 224 255
201 224 255
201 224 255
201 224 255
201 224 255
201 224 255
201 225 255
201 225 255
201 225 255
201 225 255
202 225 255
202 225 255
202 225 255
202 225 255
202 225 255
202 225 255
202 225 255
202 225 255
202 225 255
202 225 255
202 225 255
202 225 255
202 225 255
202 225 255
202 225 255
203 225 255
203 225 255
203 225 255
203 225 255
203 225 255
203 225 255
203 225 255
203 225 255
203 225 255
203 226 255
203 226 255
203 226 255
203 226 255
203 226 255
203 226 255
203 226 255
204 226 255
204 226 255
204 226 255
204 226 255
204 226 255
204 226 255
204 226 255
204 226 255
204 226 255
204 226 255
204 226 255
204 226 255
204 226 255
204 226 255
204 226 255
204 226 255
205 226 255
205 226 255
205 226 255
205 226 255
205 226 255
205 226 255
205 226 255
205 227 255
205 227 255
205 227 255
205 227 255
205 227 255
205 227 255
205 227 255
205 227 255
205 227 255
205 227 255
206 227 255
206 227 255
206 227 255
206 227 255
206 227 255
206 227 255
206 227 255
206 227 255
206 227 255
206 227 255
206 227 255
206 227 255
206 227 255
206 227 255
206 227 255
206 227 255
206 227 255
206 227 255
206 227 255
206 227 255
207 227 255
207 227 255
207 227 255
207 227 255
207 228 255
207 228 255
207 227 255
207 227 255
207 227 255
207 227 255
207 227 255
206 227 255
206 227 255
206 227 255
206 227 255
206 227 255
206 227 255
206 227 255
206 227 255
206 227 255
206 227 255
206 227 255
206 227 255
206 227 255
206 227 255
206 227 255
206 227 255
206 227 255
206 227 255
206 227 255
205 227 255
205 227 255
205 227 255
205 227 255
205 227 255
205 227 255
205 227 255
205 227 255
205 227 255
205 227 255
205 227 255
205 226 255
205 226 255
205 226 255
205 226 255
205 226 255
205 226 255
205 226 255
204 226 255
204 226 255
204 226 255
204 226 255
204 226 255
204 226 255
204 226 255
204 226 255
204 226 255
204 226 255
204 226 255
204 226 255
204 226 255
204 226 255
204 226 255
204 226 255
203 226 255
203 226 255
203 226 255
203 226 255
203 226 255
203 226 255
203 226 255
203 225 255
203 225 255
203 225 255
203 225 255
203 225 255
203 225 255
203 225 255
203 225 255
203 225 255
202 225 255
202 225 255
202 225 255
202 225 255
202 225 255
202 225 255
202 225 255
202 225 255
202 225 255
202 225 255
202 225 255
202 225 255
202 225 255
202 225 255
202 225 255
201 225 255
201 225 255
201 225 255
201 225 255
201 224 255
201 224 255
201 224 255
201 224 255
201 224 255
201 224 255
201 224 255
201 224 255
201 224 255
201 224 255
200 224 255
200 224 255
200 224 255
200 224 255
200 224 255
200 224 255
200 224 255
200 224 255
200 224 255
200 224 255
200 224 255
200 224 255
200 224 255
200 224 255
200 224 255
199 224 255
199 224 255
199 223 255
199 223 255
199 223 255
199 223 255
199 223 255
199 223 255
199 223 255
199 223 255
199 223 255
199 223 255
199 223 255
199 223 255
199 223 255
199 223 255
198 223 255
198 223 255
198 223 255
198 223 255
198 223 255
198 223 255
198 223 255
198 223 255
198 223 255
198 223 255
198 223 255
198 223 255
198 223 255
198 223 255
198 223 255
198 223 255
198 223 255
198 223 255
197 222 255
197 222 255
197 222 255
197 222 255
197 222 255
197 222 255
197 222 255
197 222 255
197 222 255
197 222 255
197 222 255
197 222 255
197 222 255
197 222 255
197 222 255
197 222 255
197 222 255
197 222 255
197 222 255
197 222 255
197 222 255
197 222 255
197 222 255
197 222 255
197 222 255
197 222 255
196 222 255
196 222 255
196 222 255
196 222 255
196 222 255
196 222 255
196 222 255
196 222 255
196 222 255
196 222 255
196 222 255
196 222 255
196 222 255
196 222 255
196 222 255
196 222 255
196 222 255
196 222 255
196 222 255
196 222 255
196 222 255
196 222 255
196 222 255
196 222 255
196 222 255
196 222 255
196 222 255
196 222 255
196 222 255
196 222 255
196 222 255
196 222 255
196 222 255
196 222 255
196 222 255
196 222 255
196 222 255
196 222 255
196 222 255
196 222 255
197 222 255
197 222 255
197 222 255
197 222 255
197 222 255
197 222 255
197 222 255
197 222 255
197 222 255
197 222 255
197 222 255
197 222 255
197 222 255
197 222 255
197 222 255
197 222 255
197 222 255
197 222 255
197 222 255
197 222 255
197 222 255
197 222 255
197 222 255
197 222 255
197 222 255
197 222 255
198 223 255
198 223 255
198 223 255
198 223 255
198 223 255
198 223 255
198 223 255
198 223 255
198 223 255
198 223 255
198 223 255
198 223 255
198 223 255
198 223 255
198 223 255
198 223 255
198 223 255
198 223 255
199 223 255
199 223 255
199 223 255
199 223 255
199 223 255
199 223 255
199 223 255
199 223 255
199 223 255
199 223 255
199 223 255
199 223 255
199 223 255
199 223 255
199 224 255
199 224 255
200 224 255
200 224 255
200 224 255
200 224 255
200 224 255
200 224 255
200 224 255
200 224 255
200 224 255
200 224 255
200 224 255
200 224 255
200 224 255
200 224 255
200 224 255
201 224 255
201 224 255
201 224 255
201 224 255
201 224 255
201 224 255
201 224 255
201 224 255
201 224 255
201 224 255
201 225 255
201 225 255
201 225 255
201 225 255
201 225 255
202 225 255
202 225 255
202 225 255
202 225 255
202 225 255
202 225 255
202 225 255
202 225 255
202 225 255
202 225 255
202 225 255
202 225 255
202 225 255
202 225 255
202 225 255
203 225 255
203 225 255
203 225 255
203 225 255
203 225 255
203 225 255
203 225 255
203 225 255
203 226 255
203 226 255
203 226 255
203 226 255
203 226 255
203 226 255
203 226 255
204 226 255
204 226 255
204 226 255
204 226 255
204 226 255
204 226 255
204 226 255
204 226 255
204 226 255
204 226 255
204 226 255
204 226 255
204 226 255
204 226 255
204 226 255
204 226 255
205 226 255
205 226 255
205 226 255
205 226 255
205 226 255
205 226 255
205 226 255
205 227 255
205 227 255
205 227 255
205 227 255
205 227 255
205 227 255
205 227 255
205 227 255
205 227 255
205 227 255
205 227 255
206 227 255
206 227 255
206 227 255
206 227 255
206 227 255
206 227 255
206 227 255
206 227 255
206 227 255
206 227 255
206 227 255
206 227 255
206 227 255
206 227 255
206 227 255
206 227 255
206 227 255
206 227 255
206 227 255
207 227 255
207 227 255
207 227 255
207 227 255
207 228 255
207 228 255
207 228 255
207 228 255
207 228 255
207 228 255
207 228 255
207 228 255
207 227 255
207 227 255
207 227 255
207 227 255
207 227 255
206 227 255
206 227 255
206 227 255
206 227 255
206 227 255
206 227 255
206 227 255
206 227 255
206 227 255
206 227 255
206 227 255
206 227 255
206 227 255
206 227 255
206 227 255
206 227 255
206 227 255
206 227 255
206 227 255
205 227 255
205 227 255
205 227 255
205 227 255
205 227 255
205 227 255
205 227 255
205 227 255
205 227 255
205 227 255
205 227 255
205 226 255
205 226 255
205 226 255
205 226 255
205 226 255
205 226 255
204 226 255
204 226 255
204 226 255
204 226 255
204 226 255
204 226 255
204 226 255
204 226 255
204 226 255
204 226 255
204 226 255
204 226 255
204 226 255
204 226 255
204 226 255
204 226 255
204 226 255
203 226 255
203 226 255
203 226 255
203 226 255
203 226 255
203 226 255
203 226 255
203 225 255
203 225 255
203 225 255
203 225 255
203 225 255
203 225 255
203 225 255
203 225 255
202 225 255
202 225 255
202 225 255
202 225 255
202 225 255
202 225 255
202 225 255
202 225 255
202 225 255
202 225 255
202 225 255
202 225 255
202 225 255
202 225 255
202 225 255
201 225 255
201 225 255
201 225 255
201 225 255
201 224 255
201 224 255
201 224 255
201 224 255
201 224 255
201 224 255
201 224 255
201 224 255
201 224 255
201 224 255
200 224 255
200 224 255
200 224 255
200 224 255
200 224 255
200 224 255
200 224 255
200 224 255
200 224 255
200 224 255
200 224 255
200 224 255
200 224 255
200 224 255
200 224 255
200 224 255
199 224 255
199 224 255
199 223 255
199 223 255
199 223 255
199 223 255
199 223 255
199 223 255
199 223 255
199 223 255
199 223 255
199 223 255
199 223 255
199 223 255
199 223 255
199 223 255
198 223 255
198 223 255
198 223 255
198 223 255
198 223 255
198 223 255
198 223 255
198 223 255
198 223 255
198 223 255
198 223 255
198 223 255
198 223 255
198 223 255
198 223 255
198 223 255
198 223 255
198 223 255
197 223 255
197 222 255
197 222 255
197 222 255
197 222 255
197 222 255
197 222 255
197 222 255
197 222 255
197 222 255
197 222 255
197 222 255
197 222 255
197 222 255
197 222 255
197 222 255
197 222 255
197 222 255
197 222 255
197 222 255
197 222 255
197 222 255
197 222 255
197 222 255
197 222 255
197 222 255
197 222 255
197 222 255
197 222 255
197 222 255
197 222 255
197 222 255
196 222 255
196 222 255
196 222 255
196 222 255
196 222 255
196 222 255
196 222 255
196 222 255
196 222 255
196 222 255
196 222 255
196 222 255
196 222 255
196 222 255
196 222 255
196 222 255
196 222 255
196 222 255
196 222 255
196 222 255
196 222 255
196 222 255
197 222 255
197 222 255
197 222 255
197 222 255
197 222 255
197 222 255
197 222 255
197 222 255
197 222 255
197 222 255
197 222 255
197 222 255
197 222 255
197 222 255
197 222 255
197 222 255
197 222 255
197 222 255
197 222 255
197 222 255
197 222 255
197 222 255
197 222 255
197 222 255
197 222 255
197 222 255
197 222 255
197 222 255
197 222 255
197 222 255
197 222 255
197 223 255
198 223 255
198 223 255
198 223 255
198 223 255
198 223 255
198 223 255
198 223 255
198 223 255
198 223 255
198 223 255
198 223 255
198 223 255
198 223 255
198 223 255
198 223 255
198 223 255
198 223 255
198 223 255
198 223 255
199 223 255
199 223 255
199 223 255
199 223 255
199 223 255
199 223 255
199 223 255
199 223 255
199 223 255
199 223 255
199 223 255
199 223 255
199 223 255
199 224 255
199 224 255
200 224 255
200 224 255
200 224 255
200 224 255
200 224 255
200 224 255
200 224 255
200 224 255
200 224 255
200 224 255
200 224 255
200 224 255
200 224 255
200 224 255
200 224 255
200 224 255
201 224 255
201 224 255
201 224 255
201 224 255
201 224 255
201 224 255
201 224 255
201 224 255
201 224 255
201 224 255
201 225 255
201 225 255
201 225 255
201 225 255
202 225 255
202 225 255
202 225 255
202 225 255
202 225 255
202 225 255
202 225 255
202 225 255
202 225 255
202 225 255
202 225 255
202 225 255
202 225 255
202 225 255
202 225 255
203 225 255
203 225 255
203 225 255
203 225 255
203 225 255
203 225 255
203 225 255
203 225 255
203 226 255
203 226 255
203 226 255
203 226 255
203 226 255
203 226 255
203 226 255
204 226 255
204 226 255
204 226 255
204 226 255
204 226 255
204 226 255
204 226 255
204 226 255
204 226 255
204 226 255
204 226 255
204 226 255
204 226 255
204 226 255
204 226 255
204 226 255
204 226 255
205 226 255
205 226 255
205 226 255
205 226 255
205 226 255
205 226 255
205 227 255
205 227 255
205 227 255
205 227 255
205 227 255
205 227 255
205 227 255
205 227 255
205 227 255
205 227 255
205 227 255
206 227 255
206 227 255
206 227 255
206 227 255
206 227 255
206 227 255
206 227 255
206 227 255
206 227 255
206 227 255
206 227 255
206 227 255
206 227 255
206 227 255
206 227 255
206 227 255
206 227 255
206 227 255
206 227 255
207 227 255
207 227 255
207 227 255
207 227 255
207 227 255
207 228 255
207 228 255
207 228 255
207 228 255
207 228 255
207 228 255
207 228 255
207 228 255
207 228 255
207 228 255
207 228 255
207 228 255
207 228 255
207 227 255
207 227 255
207 227 255
207 227 255
207 227 255
206 227 255
206 227 255
206 227 255
206 227 255
206 227 255
206 227 255
206 227 255
206 227 255
206 227 255
206 227 255
206 227 255
206 227 255
206 227 255
206 227 255
206 227 255
206 227 255
206 227 255
206 227 255
206 227 255
205 227 255
205 227 255
205 227 255
205 227 255
205 227 255
205 227 255
205 227 255
205 227 255
205 227 255
205 227 255
205 226 255
205 226 255
205 226 255
205 226 255
205 226 255
205 226 255
205 226 255
204 226 255
204 226 255
204 226 255
204 226 255
204 226 255
204 226 255
204 226 255
204 226 255
204 226 255
204 226 255
204 226 255
204 226 255
204 226 255
204 226 255
204 226 255
204 226 255
203 226 255
203 226 255
203 226 255
203 226 255
203 226 255
203 226 255
203 226 255
203 225 255
203 225 255
203 225 255
203 225 255
203 225 255
203 225 255
203 225 255
203 225 255
202 225 255
202 225 255
202 225 255
202 225 255
202 225 255
202 225 255
202 225 255
202 225 255
202 225 255
202 225 255
202 225 255
202 225 255
202 225 255
202 225 255
202 225 255
201 225 255
201 225 255
201 225 255
201 225 255
201 225 255
201 224 255
201 224 255
201 224 255
201 224 255
201 224 255
201 224 255
201 224 255
201 224 255
201 224 255
201 224 255
200 224 255
200 224 255
200 224 255
200 224 255
200 224 255
200 224 255
200 224 255
200 224 255
200 224 255
200 224 255
200 224 255
200 224 255
200 224 255
200 224 255
200 224 255
199 224 255
199 224 255
199 224 255
199 223 255
199 223 255
199 223 255
199 223 255
199 223 255
199 223 255
199 223 255
199 223 255
199 223 255
199 223 255
199 223 255
199 223 255
199 223 255
198 223 255
198 223 255
198 223 255
198 223 255
198 223 255
198 223 255
198 223 255
198 223 255
198 223 255
198 223 255
198 223 255
198 223 255
198 223 255
198 223 255
198 223 255
198 223 255
198 223 255
198 223 255
198 223 255
198 223 255
197 223 255
197 222 255
197 222 255
197 222 255
197 222 255
197 222 255
197 222 255
197 222 255
197 222 255
197 222 255
197 222 255
197 222 255
197 222 255
197 222 255
197 222 255
197 222 255
197 222 255
197 222 255
197 222 255
197 222 255
197 222 255
197 222 255
197 222 255
197 222 255
197 222 255
197 222 255
197 222 255
197 222 255
197 222 255
197 222 255
197 222 255
197 222 255
197 222 255
197 222 255
197 222 255
197 222 255
197 222 255
197 222 255
197 222 255
197 222 255
197 222 255
197 222 255
197 222 255
197 222 255
197 222 255
197 222 255
197 222 255
197 222 255
197 222 255
197 222 255
197 222 255
197 222 255
197 222 255
197 222 255
197 222 255
197 222 255
197 222 255
197 222 255
197 222 255
197 222 255
197 222 255
197 222 255
197 222 255
197 222 255
197 222 255
197 222 255
197 222 255
197 222 255
197 222 255
197 222 255
197 222 255
197 222 255
197 222 255
197 222 255
197 222 255
197 222 255
197 222 255
197 223 255
198 223 255
198 223 255
198 223 255
198 223 255
198 223 255
198 223 255
198 223 255
198 223 255
198 223 255
198 223 255
198 223 255
198 223 255
198 223 255
198 223 255
198 223 255
198 223 255
198 223 255
198 223 255
198 223 255
198 223 255
199 223 255
199 223 255
199 223 255
199 223 255
199 223 255
199 223 255
199 223 255
199 223 255
199 223 255
199 223 255
199 223 255
199 223 255
199 223 255
199 224 255
199 224 255
199 224 255
200 224 255
200 224 255
200 224 255
200 224 255
200 224 255
200 224 255
200 224 255
200 224 255
200 224 255
200 224 255
200 224 255
200 224 255
200 224 255
200 224 255
200 224 255
201 224 255
201 224 255
201 224 255
201 224 255
201 224 255
201 224 255
201 224 255
201 224 255
201 224 255
201 224 255
201 225 255
201 225 255
201 225 255
201 225 255
201 225 255
202 225 255
202 225 255
202 225 255
202 225 255
202 225 255
202 225 255
202 225 255
202 225 255
202 225 255
202 225 255
202 225 255
202 225 255
202 225 255
202 225 255
202 225 255
203 225 255
203 225 255
203 225 255
203 225 255
203 225 255
203 225 255
203 225 255
203 225 255
203 226 255
203 226 255
203 226 255
203 226 255
203 226 255
203 226 255
203 226 255
204 226 255
204 226 255
204 226 255
204 226 255
204 226 255
204 226 255
204 226 255
204 226 255
204 226 255
204 226 255
204 226 255
204 226 255
204 226 255
204 226 255
204 226 255
204 226 255
205 226 255
205 226 255
205 226 255
205 226 255
205 226 255
205 226 255
205 226 255
205 227 255
205 227 255
205 227 255
205 227 255
205 227 255
205 227 255
205 227 255
205 227 255
205 227 255
205 227 255
206 227 255
206 227 255
206 227 255
206 227 255
206 227 255
206 227 255
206 227 255
206 227 255
206 227 255
206 227 255
206 227 255
206 227 255
206 227 255
206 227 255
206 227 255
206 227 255
206 227 255
206 227 255
206 227 255
207 227 255
207 227 255
207 227 255
207 227 255
207 227 255
207 228 255
207 228 255
207 228 255
207 228 255
207 228 255
207 228 255
207 228 255
207 228 255
207 228 255
207 228 255
207 228 255
207 228 255
207 228 255
207 228 255
207 228 255
207 228 255
207 228 255
207 228 255
207 228 255
207 227 255
207 227 255
207 227 255
207 227 255
207 227 255
206 227 255
206 227 255
206 227 255
206 227 255
206 227 255
206 227 255
206 227 255
206 227 255
206 227 255
206 227 255
206 227 255
206 227 255
206 227 255
206 227 255
206 227 255
206 227 255
206 227 255
206 227 255
205 227 255
205 227 255
205 227 255
205 227 255
205 227 255
205 227 255
205 227 255
205 227 255
205 227 255
205 227 255
205 227 255
205 226 255
205 226 255
205 226 255
205 226 255
205 226 255
205 226 255
205 226 255
204 226 255
204 226 255
204 226 255
204 226 255
204 226 255
204 226 255
204 226 255
204 226 255
204 226 255
204 226 255
204 226 255
204 226 255
204 226 255
204 226 255
204 226 255
204 226 255
203 226 255
203 226 255
203 226 255
203 226 255
203 226 255
203 226 255
203 225 255
203 225 255
203 225 255
203 225 255
203 225 255
203 225 255
203 225 255
203 225 255
203 225 255
202 225 255
202 225 255
202 225 255
202 225 255
202 225 255
202 225 255
202 225 255
202 225 255
202 225 255
202 225 255
202 225 255
202 225 255
202 225 255
202 225 255
202 225 255
201 225 255
201 225 255
201 225 255
201 225 255
201 224 255
201 224 255
201 224 255
201 224 255
201 224 255
201 224 255
201 224 255
201 224 255
201 224 255
201 224 255
200 224 255
200 224 255
200 224 255
200 224 255
200 224 255
200 224 255
200 224 255
200 224 255
200 224 255
200 224 255
200 224 255
200 224 255
200 224 255
200 224 255
200 224 255
200 224 255
199 224 255
199 224 255
199 223 255
199 223 255
199 223 255
199 223 255
199 223 255
199 223 255
199 223 255
199 223 255
199 223 255
199 223 255
199 223 255
199 223 255
199 223 255
199 223 255
198 223 255
198 223 255
198 223 255
198 223 255
198 223 255
198 223 255
198 223 255
198 223 255
198 223 255
198 223 255
198 223 255
198 223 255
198 223 255
198 223 255
198 223 255
198 223 255
198 223 255
198 223 255
198 223 255
198 223 255
198 223 255
197 223 255
197 222 255
197 222 255
197 222 255
197 222 255
197 222 255
197 222 255
197 222 255
197 222 255
197 222 255
197 222 255
197 222 255
197 222 255
197 222 255
197 222 255
197 222 255
197 222 255
197 222 255
197 222 255
197 222 255
197 222 255
197 222 255
197 222 255
197 222 255
197 222 255
197 222 255
197 222 255
197 222 255
197 222 255
197 222 255
197 222 255
197 222 255
197 222 255
197 222 255
197 222 255
197 222 255
197 222 255
197 222 255
197 222 255
197 222 255
197 222 255
197 222 255
197 222 255
197 222 255
197 222 255
197 222 255
197 222 255
197 222 255
197 222 255
197 222 255
197 222 255
197 222 255
197 222 255
197 222 255
197 222 255
197 222 255
197 222 255
197 222 255
197 222 255
197 222 255
197 222 255
197 222 255
197 222 255
197 222 255
197 222 255
197 222 255
197 222 255
197 222 255
197 222 255
197 223 255
198 223 255
198 223 255
198 223 255
198 223 255
198 223 255
198 223 255
198 223 255
198 223 255
198 223 255
198 223 255
198 223 255
198 223 255
198 223 255
198 223 255
198 223 255
198 223 255
198 223 255
198 223 255
198 223 255
198 223 255
199 223 255
199 223 255
199 223 255
199 223 255
199 223 255
199 223 255
199 223 255
199 223 255
199 223 255
199 223 255
199 223 255
199 223 255
199 223 255
199 223 255
199 223 255
199 224 255
199 224 255
200 224 255
200 224 255
200 224 255
200 224 255
200 224 255
200 224 255
200 224 255
200 224 255
200 224 255
200 224 255
200 224 255
200 224 255
200 224 255
200 224 255
200 224 255
201 224 255
201 224 255
201 224 255
201 224 255
201 224 255
201 224 255
201 224 255
201 224 255
201 224 255
201 224 255
201 224 255
201 225 255
201 225 255
201 225 255
201 225 255
202 225 255
202 225 255
202 225 255
202 225 255
202 225 255
202 225 255
202 225 255
202 225 255
202 225 255
202 225 255
202 225 255
202 225 255
202 225 255
202 225 255
202 225 255
203 225 255
203 225 255
203 225 255
203 225 255
203 225 255
203 225 255
203 225 255
203 225 255
203 225 255
203 226 255
203 226 255
203 226 255
203 226 255
203 226 255
203 226 255
204 226 255
204 226 255
204 226 255
204 226 255
204 226 255
204 226 255
204 226 255
204 226 255
204 226 255
204 226 255
204 226 255
204 226 255
204 226 255
204 226 255
204 226 255
204 226 255
204 226 255
205 226 255
205 226 255
205 226 255
205 226 255
205 226 255
205 226 255
205 227 255
205 227 255
205 227 255
205 227 255
205 227 255
205 227 255
205 227 255
205 227 255
205 227 255
205 227 255
205 227 255
206 227 255
206 227 255
206 227 255
206 227 255
206 227 255
206 227 255
206 227 255
206 227 255
206 227 255
206 227 255
206 227 255
206 227 255
206 227 255
206 227 255
206 227 255
206 227 255
206 227 255
206 227 255
207 227 255
207 227 255
207 227 255
207 227 255
207 227 255
207 228 255
207 228 255
207 228 255
207 228 255
207 228 255
207 228 255
207 228 255
207 228 255
207 228 255
207 228 255
207 228 255
207 228 255
207 228 255
207 228 255
207 228 255
207 228 255
207 228 255
207 228 255
207 228 255
207 228 255
207 228 255
207 228 255
207 228 255
207 228 255
207 228 255
207 227 255
207 227 255
207 227 255
207 227 255
206 227 255
206 227 255
206 227 255
206 227 255
206 227 255
206 227 255
206 227 255
206 227 255
206 227 255
206 227 255
206 227 255
206 227 255
206 227 255
206 227 255
206 227 255
206 227 255
206 227 255
206 227 255
206 227 255
205 227 255
205 227 255
205 227 255
205 227 255
205 227 255
205 227 255
205 227 255
205 227 255
205 227 255
205 227 255
205 226 255
205 226 255
205 226 255
205 226 255
205 226 255
205 226 255
205 226 255
204 226 255
204 226 255
204 226 255
204 226 255
204 226 255
204 226 255
204 226 255
204 226 255
204 226 255
204 226 255
204 226 255
204 226 255
204 226 255
204 226 255
204 226 255
204 226 255
203 226 255
203 226 255
203 226 255
203 226 255
203 226 255
203 226 255
203 226 255
203 225 255
203 225 255
203 225 255
203 225 255
203 225 255
203 225 255
203 225 255
203 225 255
202 225 255
202 225 255
202 225 255
202 225 255
202 225 255
202 225 255
202 225 255
202 225 255
202 225 255
202 225 255
202 225 255
202 225 255
202 225 255
202 225 255
202 225 255
201 225 255
201 225 255
201 225 255
201 225 255
201 225 255
201 224 255
201 224 255
201 224 255
201 224 255
201 224 255
201 224 255
201 224 255
201 224 255
201 224 255
201 224 255
200 224 255
200 224 255
200 224 255
200 224 255
200 224 255
200 224 255
200 224 255
200 224 255
200 224 255
200 224 255
200 224 255
200 224 255
200 224 255
200 224 255
200 224 255
200 224 255
199 224 255
199 224 255
199 223 255
199 223 255
199 223 255
199 223 255
199 223 255
199 223 255
199 223 255
199 223 255
199 223 255
199 223 255
199 223 255
199 223 255
199 223 255
199 223 255
199 223 255
198 223 255
198 223 255
198 223 255
198 223 255
198 223 255
198 223 255
198 223 255
198 223 255
198 223 255
198 223 255
198 223 255
198 223 255
198 223 255
198 223 255
198 223 255
198 223 255
198 223 255
198 223 255
198 223 255
198 223 255
198 223 255
198 223 255
197 223 255
197 222 255
197 222 255
197 222 255
197 222 255
197 222 255
197 222 255
197 222 255
197 222 255
197 222 255
197 222 255
197 222 255
197 222 255
197 222 255
197 222 255
197 222 255
197 222 255
197 222 255
197 222 255
197 222 255
197 222 255
197 222 255
197 222 255
197 222 255
197 222 255
197 222 255
197 222 255
197 222 255
197 222 255
197 222 255
197 222 255
197 222 255
197 222 255
197 222 255
197 222 255
197 222 255
197 222 255
197 222 255
197 222 255
197 222 255
197 222 255
197 222 255
197 222 255
197 222 255
197 222 255
197 222 255
197 222 255
197 222 255
197 222 255
197 222 255
197 222 255
197 222 255
197 222 255
197 222 255
197 222 255
197 222 255
197 222 255
197 222 255
197 222 255
197 223 255
198 223 255
198 223 255
198 223 255
198 223 255
198 223 255
198 223 255
198 223 255
198 223 255
198 223 255
198 223 255
198 223 255
198 223 255
198 223 255
198 223 255
198 223 255
198 223 255
198 223 255
198 223 255
198 223 255
198 223 255
198 223 255
198 223 255
199 223 255
199 223 255
199 223 255
199 223 255
199 223 255
199 223 255
199 223 255
199 223 255
199 223 255
199 223 255
199 223 255
199 223 255
199 223 255
199 223 255
199 223 255
199 224 255
199 224 255
200 224 255
200 224 255
200 224 255
200 224 255
200 224 255
200 224 255
200 224 255
200 224 255
200 224 255
200 224 255
200 224 255
200 224 255
200 224 255
200 224 255
200 224 255
200 224 255
201 224 255
201 224 255
201 224 255
201 224 255
201 224 255
201 224 255
201 224 255
201 224 255
201 224 255
201 224 255
201 225 255
201 225 255
201 225 255
201 225 255
201 225 255
202 225 255
202 225 255
202 225 255
202 225 255
202 225 255
202 225 255
202 225 255
202 225 255
202 225 255
202 225 255
202 225 255
202 225 255
202 225 255
202 225 255
202 225 255
203 225 255
203 225 255
203 225 255
203 225 255
203 225 255
203 225 255
203 225 255
203 225 255
203 226 255
203 226 255
203 226 255
203 226 255
203 226 255
203 226 255
203 226 255
204 226 255
204 226 255
204 226 255
204 226 255
204 226 255
204 226 255
204 226 255
204 226 255
204 226 255
204 226 255
204 226 255
204 226 255
204 226 255
204 226 255
204 226 255
204 226 255
205 226 255
205 226 255
205 226 255
205 226 255
205 226 255
205 226 255
205 226 255
205 227 255
205 227 255
205 227 255
205 227 255
205 227 255
205 227 255
205 227 255
205 227 255
205 227 255
205 227 255
206 227 255
206 227 255
206 227 255
206 227 255
206 227 255
206 227 255
206 227 255
206 227 255
206 227 255
206 227 255
206 227 255
206 227 255
206 227 255
206 227 255
206 227 255
206 227 255
206 227 255
206 227 255
206 227 255
207 227 255
207 227 255
207 227 255
207 227 255
207 228 255
207 228 255
207 228 255
207 228 255
207 228 255
207 228 255
207 228 255
207 228 255
207 228 255
207 228 255
207 228 255
207 228 255
207 228 255
207 228 255
208 228 255
207 228 255
207 228 255
207 228 255
207 228 255
207 228 255
207 228 255
207 228 255
207 228 255
207 228 255
207 228 255
207 228 255
207 228 255
207 228 255
207 228 255
207 228 255
207 228 255
207 227 255
207 227 255
207 227 255
207 227 255
206 227 255
206 227 255
206 227 255
206 227 255
206 227 255
206 227 255
206 227 255
206 227 255
206 227 255
206 227 255
206 227 255
206 227 255
206 227 255
206 227 255
206 227 255
206 227 255
206 227 255
206 227 255
206 227 255
205 227 255
205 227 255
205 227 255
205 227 255
205 227 255
205 227 255
205 227 255
205 227 255
205 227 255
205 227 255
205 226 255
205 226 255
205 226 255
205 226 255
205 226 255
205 226 255
205 226 255
204 226 255
204 226 255
204 226 255
204 226 255
204 226 255
204 226 255
204 226 255
204 226 255
204 226 255
204 226 255
204 226 255
204 226 255
204 226 255
204 226 255
204 226 255
204 226 255
203 226 255
203 226 255
203 226 255
203 226 255
203 226 255
203 226 255
203 226 255
203 225 255
203 225 255
203 225 255
203 225 255
203 225 255
203 225 255
203 225 255
203 225 255
202 225 255
202 225 255
202 225 255
202 225 255
202 225 255
202 225 255
202 225 255
202 225 255
202 225 255
202 225 255
202 225 255
202 225 255
202 225 255
202 225 255
202 225 255
201 225 255
201 225 255
201 225 255
201 225 255
201 224 255
201 224 255
201 224 255
201 224 255
201 224 255
201 224 255
201 224 255
201 224 255
201 224 255
201 224 255
201 224 255
200 224 255
200 224 255
200 224 255
200 224 255
200 224 255
200 224 255
200 224 255
200 224 255
200 224 255
200 224 255
200 224 255
200 224 255
200 224 255
200 224 255
200 224 255
200 224 255
199 224 255
199 224 255
199 223 255
199 223 255
199 223 255
199 223 255
199 223 255
199 223 255
199 223 255
199 223 255
199 223 255
199 223 255
199 223 255
199 223 255
199 223 255
199 223 255
199 223 255
198 223 255
198 223 255
198 223 255
198 223 255
198 223 255
198 223 255
198 223 255
198 223 255
198 223 255
198 223 255
198 223 255
198 223 255
198 223 255
198 223 255
198 223 255
198 223 255
198 223 255
198 223 255
198 223 255
198 223 255
198 223 255
198 223 255
198 223 255
198 223 255
197 223 255
197 222 255
197 222 255
197 222 255
197 222 255
197 222 255
197 222 255
197 222 255
197 222 255
197 222 255
197 222 255
197 222 255
197 222 255
197 222 255
197 222 255
197 222 255
197 222 255
197 222 255
197 222 255
197 222 255
197 222 255
197 222 255
197 222 255
197 222 255
197 222 255
197 222 255
197 222 255
197 222 255
197 222 255
197 222 255
197 222 255
197 222 255
197 222 255
197 222 255
197 222 255
197 222 255
197 222 255
197 222 255
197 222 255
197 222 255
197 222 255
197 222 255
197 222 255
197 222 255
197 222 255
197 222 255
197 222 255
197 222 255
197 222 255
197 223 255
198 223 255
198 223 255
198 223 255
198 223 255
198 223 255
198 223 255
198 223 255
198 223 255
198 223 255
198 223 255
198 223 255
198 223 255
198 223 255
198 223 255
198 223 255
198 223 255
198 223 255
198 223 255
198 223 255
198 223 255
198 223 255
198 223 255
198 223 255
198 223 255
199 223 255
199 223 255
199 223 255
199 223 255
199 223 255
199 223 255
199 223 255
199 223 255
199 223 255
199 223 255
199 223 255
199 223 255
199 223 255
199 223 255
199 223 255
199 224 255
199 224 255
199 224 255
200 224 255
200 224 255
200 224 255
200 224 255
200 224 255
200 224 255
200 224 255
200 224 255
200 224 255
200 224 255
200 224 255
200 224 255
200 224 255
200 224 255
200 224 255
201 224 255
201 224 255
201 224 255
201 224 255
201 224 255
201 224 255
201 224 255
201 224 255
201 224 255
201 224 255
201 224 255
201 225 255
201 225 255
201 225 255
201 225 255
202 225 255
202 225 255
202 225 255
202 225 255
202 225 255
202 225 255
202 225 255
202 225 255
202 225 255
202 225 255
202 225 255
202 225 255
202 225 255
202 225 255
202 225 255
203 225 255
203 225 255
203 225 255
203 225 255
203 225 255
203 225 255
203 225 255
203 225 255
203 226 255
203 226 255
203 226 255
203 226 255
203 226 255
203 226 255
203 226 255
204 226 255
204 226 255
204 226 255
204 226 255
204 226 255
204 226 255
204 226 255
204 226 255
204 226 255
204 226 255
204 226 255
204 226 255
204 226 255
204 226 255
204 226 255
204 226 255
205 226 255
205 226 255
205 226 255
205 226 255
205 226 255
205 226 255
205 226 255
205 227 255
205 227 255
205 227 255
205 227 255
205 227 255
205 227 255
205 227 255
205 227 255
205 227 255
205 227 255
206 227 255
206 227 255
206 227 255
206 227 255
206 227 255
206 227 255
206 227 255
206 227 255
206 227 255
206 227 255
206 227 255
206 227 255
206 227 255
206 227 255
206 227 255
206 227 255
206 227 255
206 227 255
206 227 255
207 227 255
207 227 255
207 227 255
207 227 255
207 227 255
207 228 255
207 228 255
207 228 255
207 228 255
207 228 255
207 228 255
207 228 255
207 228 255
207 228 255
207 228 255
207 228 255
207 228 255
207 228 255
207 228 255
207 228 255
208 228 255
208 228 255
208 228 255
208 228 255
208 228 255
207 228 255
207 228 255
207 228 255
207 228 255
207 228 255
207 228 255
207 228 255
207 228 255
207 228 255
207 228 255
207 228 255
207 228 255
207 228 255
207 228 255
207 228 255
207 227 255
207 227 255
207 227 255
207 227 255
207 227 255
206 227 255
206 227 255
206 227 255
206 227 255
206 227 255
206 227 255
206 227 255
206 227 255
206 227 255
206 227 255
206 227 255
206 227 255
206 227 255
206 227 255
206 227 255
206 227 255
206 227 255
206 227 255
205 227 255
205 227 255
205 227 255
205 227 255
205 227 255
205 227 255
205 227 255
205 227 255
205 227 255
205 227 255
205 227 255
205 226 255
205 226 255
205 226 255
205 226 255
205 226 255
205 226 255
204 226 255
204 226 255
204 226 255
204 226 255
204 226 255
204 226 255
204 226 255
204 226 255
204 226 255
204 226 255
204 226 255
204 226 255
204 226 255
204 226 255
204 226 255
204 226 255
203 226 255
203 226 255
203 226 255
203 226 255
203 226 255
203 226 255
203 226 255
203 225 255
203 225 255
203 225 255
203 225 255
203 225 255
203 225 255
203 225 255
203 225 255
202 225 255
202 225 255
202 225 255
202 225 255
202 225 255
202 225 255
202 225 255
202 225 255
202 225 255
202 225 255
202 225 255
202 225 255
202 225 255
202 225 255
202 225 255
202 225 255
201 225 255
201 225 255
201 225 255
201 225 255
201 224 255
201 224 255
201 224 255
201 224 255
201 224 255
201 224 255
201 224 255
201 224 255
201 224 255
201 224 255
201 224 255
200 224 255
200 224 255
200 224 255
200 224 255
200 224 255
200 224 255
200 224 255
200 224 255
200 224 255
200 224 255
200 224 255
200 224 255
200 224 255
200 224 255
200 224 255
199 224 255
199 224 255
199 224 255
199 223 255
199 223 255
199 223 255
199 223 255
199 223 255
199 223 255
199 223 255
199 223 255
199 223 255
199 223 255
199 223 255
199 223 255
199 223 255
199 223 255
199 223 255
199 223 255
198 223 255
198 223 255
198 223 255
198 223 255
198 223 255
198 223 255
198 223 255
198 223 255
198 223 255
198 223 255
198 223 255
198 223 255
198 223 255
198 223 255
198 223 255
198 223 255
198 223 255
198 223 255
198 223 255
198 223 255
198 223 255
198 223 255
198 223 255
198 223 255
198 223 255
198 223 255
198 223 255
198 223 255
197 223 255
197 222 255
197 222 255
197 222 255
197 222 255
197 222 255
197 222 255
197 222 255
197 222 255
197 222 255
197 222 255
197 222 255
197 222 255
197 222 255
197 222 255
197 222 255
197 222 255
197 222 255
197 222 255
197 222 255
197 222 255
197 222 255
197 222 255
197 222 255
197 222 255
197 222 255
197 222 255
197 222 255
197 222 255
197 222 255
197 222 255
197 222 255
197 222 255
197 223 255
197 223 255
198 223 255
198 223 255
198 223 255
198 223 255
198 223 255
198 223 255
198 223 255
198 223 255
198 223 255
198 223 255
198 223 255
198 223 255
198 223 255
198 223 255
198 223 255
198 223 255
198 223 255
198 223 255
198 223 255
198 223 255
198 223 255
198 223 255
198 223 255
198 223 255
198 223 255
198 223 255
198 223 255
199 223 255
199 223 255
199 223 255
199 223 255
199 223 255
199 223 255
199 223 255
199 223 255
199 223 255
199 223 255
199 223 255
199 223 255
199 223 255
199 223 255
199 223 255
199 223 255
199 224 255
199 224 255
199 224 255
200 224 255
200 224 255
200 224 255
200 224 255
200 224 255
200 224 255
200 224 255
200 224 255
200 224 255
200 224 255
200 224 255
200 224 255
200 224 255
200 224 255
200 224 255
201 224 255
201 224 255
201 224 255
201 224 255
201 224 255
201 224 255
201 224 255
201 224 255
201 224 255
201 224 255
201 224 255
201 225 255
201 225 255
201 225 255
201 225 255
202 225 255
202 225 255
202 225 255
202 225 255
202 225 255
202 225 255
202 225 255
202 225 255
202 225 255
202 225 255
202 225 255
202 225 255
202 225 255
202 225 255
202 225 255
203 225 255
203 225 255
203 225 255
203 225 255
203 225 255
203 225 255
203 225 255
203 225 255
203 225 255
203 226 255
203 226 255
203 226 255
203 226 255
203 226 255
203 226 255
203 226 255
204 226 255
204 226 255
204 226 255
204 226 255
204 226 255
204 226 255
204 226 255
204 226 255
204 226 255
204 226 255
204 226 255
204 226 255
204 226 255
204 226 255
204 226 255
204 226 255
205 226 255
205 226 255
205 226 255
205 226 255
205 226 255
205 226 255
205 227 255
205 227 255
205 227 255
205 227 255
205 227 255
205 227 255
205 227 255
205 227 255
205 227 255
205 227 255
206 227 255
206 227 255
206 227 255
206 227 255
206 227 255
206 227 255
206 227 255
206 227 255
206 227 255
206 227 255
206 227 255
206 227 255
206 227 255
206 227 255
206 227 255
206 227 255
206 227 255
206 227 255
206 227 255
207 227 255
207 227 255
207 227 255
207 227 255
207 227 255
207 228 255
207 228 255
207 228 255
207 228 255
207 228 255
207 228 255
207 228 255
207 228 255
207 228 255
207 228 255
207 228 255
207 228 255
207 228 255
207 228 255
207 228 255
208 228 255
208 228 255
208 228 255
208 228 255
208 228 255
208 228 255
208 228 255
208 228 255
208 228 255
208 228 255
208 228 255
207 228 255
207 228 255
207 228 255
207 228 255
207 228 255
207 228 255
207 228 255
207 228 255
207 228 255
207 228 255
207 228 255
207 228 255
207 228 255
207 228 255
207 228 255
207 228 255
207 227 255
207 227 255
207 227 255
207 227 255
206 227 255
206 227 255
206 227 255
206 227 255
206 227 255
206 227 255
206 227 255
206 227 255
206 227 255
206 227 255
206 227 255
206 227 255
206 227 255
206 227 255
206 227 255
206 227 255
206 227 255
206 227 255
205 227 255
205 227 255
205 227 255
205 227 255
205 227 255
205 227 255
205 227 255
205 227 255
205 227 255
205 227 255
205 226 255
205 226 255
205 226 255
205 226 255
205 226 255
205 226 255
205 226 255
204 226 255
204 226 255
204 226 255
204 226 255
204 226 255
204 226 255
204 226 255
204 226 255
204 226 255
204 226 255
204 226 255
204 226 255
204 226 255
204 226 255
204 226 255
204 226 255
203 226 255
203 226 255
203 226 255
203 226 255
203 226 255
203 226 255
203 226 255
203 225 255
203 225 255
203 225 255
203 225 255
203 225 255
203 225 255
203 225 255
203 225 255
202 225 255
202 225 255
202 225 255
202 225 255
202 225 255
202 225 255
202 225 255
202 225 255
202 225 255
202 225 255
202 225 255
202 225 255
202 225 255
202 225 255
202 225 255
201 225 255
201 225 255
201 225 255
201 225 255
201 225 255
201 224 255
201 224 255
201 224 255
201 224 255
201 224 255
201 224 255
201 224 255
201 224 255
201 224 255
201 224 255
200 224 255
200 224 255
200 224 255
200 224 255
200 224 255
200 224 255
200 224 255
200 224 255
200 224 255
200 224 255
200 224 255
200 224 255
200 224 255
200 224 255
200 224 255
200 224 255
199 224 255
199 224 255
199 224 255
199 223 255
199 223 255
199 223 255
199 223 255
199 223 255
199 223 255
199 223 255
199 223 255
199 223 255
199 223 255
199 223 255
199 223 255
199 223 255
199 223 255
199 223 255
199 223 255
199 223 255
198 223 255
198 223 255
198 223 255
198 223 255
198 223 255
198 223 255
198 223 255
198 223 255
198 223 255
198 223 255
198 223 255
198 223 255
198 223 255
198 223 255
198 223 255
198 223 255
198 223 255
198 223 255
198 223 255
198 223 255
198 223 255
198 223 255
198 223 255
198 223 255
198 223 255
198 223 255
198 223 255
198 223 255
198 223 255
198 223 255
198 223 255
198 223 255
198 223 255
198 223 255
198 223 255
198 223 255
198 223 255
198 223 255
197 223 255
197 223 255
198 223 255
197 223 255
198 223 255
198 223 255
197 223 255
198 223 255
198 223 255
198 223 255
198 223 255
198 223 255
198 223 255
198 223 255
198 223 255
198 223 255
198 223 255
198 223 255
198 223 255
198 223 255
198 223 255
198 223 255
198 223 255
198 223 255
198 223 255
198 223 255
198 223 255
198 223 255
198 223 255
198 223 255
198 223 255
198 223 255
198 223 255
198 223 255
198 223 255
198 223 255
198 223 255
198 223 255
198 223 255
198 223 255
198 223 255
198 223 255
198 223 255
198 223 255
199 223 255
199 223 255
199 223 255
199 223 255
199 223 255
199 223 255
199 223 255
199 223 255
199 223 255
199 223 255
199 223 255
199 223 255
199 223 255
199 223 255
199 223 255
199 223 255
199 223 255
199 224 255
199 224 255
200 224 255
200 224 255
200 224 255
200 224 255
200 224 255
200 224 255
200 224 255
200 224 255
200 224 255
200 224 255
200 224 255
200 224 255
200 224 255
200 224 255
200 224 255
200 224 255
200 224 255
201 224 255
201 224 255
201 224 255
201 224 255
201 224 255
201 224 255
201 224 255
201 224 255
201 224 255
201 224 255
201 225 255
201 225 255
201 225 255
201 225 255
201 225 255
202 225 255
202 225 255
202 225 255
202 225 255
202 225 255
202 225 255
202 225 255
202 225 255
202 225 255
202 225 255
202 225 255
202 225 255
202 225 255
202 225 255
202 225 255
203 225 255
203 225 255
203 225 255
203 225 255
203 225 255
203 225 255
203 225 255
203 225 255
203 226 255
203 226 255
203 226 255
203 226 255
203 226 255
203 226 255
203 226 255
204 226 255
204 226 255
204 226 255
204 226 255
204 226 255
204 226 255
204 226 255
204 226 255
204 226 255
204 226 255
204 226 255
204 226 255
204 226 255
204 226 255
204 226 255
204 226 255
205 226 255
205 226 255
205 226 255
205 226 255
205 226 255
205 226 255
205 226 255
205 227 255
205 227 255
205 227 255
205 227 255
205 227 255
205 227 255
205 227 255
205 227 255
205 227 255
205 227 255
206 227 255
206 227 255
206 227 255
206 227 255
206 227 255
206 227 255
206 227 255
206 227 255
206 227 255
206 227 255
206 227 255
206 227 255
206 227 255
206 227 255
206 227 255
206 227 255
206 227 255
206 227 255
207 227 255
207 227 255
207 227 255
207 227 255
207 227 255
207 228 255
207 228 255
207 228 255
207 228 255
207 228 255
207 228 255
207 228 255
207 228 255
207 228 255
207 228 255
207 228 255
207 228 255
207 228 255
207 228 255
207 228 255
208 228 255
208 228 255
208 228 255
208 228 255
208 228 255
208 228 255
208 228 255
208 228 255
208 228 255
208 228 255
208 228 255
208 228 255
208 228 255
208 228 255
208 228 255
208 228 255
208 228 255
207 228 255
207 228 255
207 228 255
207 228 255
207 228 255
207 228 255
207 228 255
207 228 255
207 228 255
207 228 255
207 228 255
207 228 255
207 228 255
207 228 255
207 228 255
207 227 255
207 227 255
207 227 255
207 227 255
207 227 255
206 227 255
206 227 255
206 227 255
206 227 255
206 227 255
206 227 255
206 227 255
206 227 255
206 227 255
206 227 255
206 227 255
206 227 255
206 227 255
206 227 255
206 227 255
206 227 255
206 227 255
206 227 255
205 227 255
205 227 255
205 227 255
205 227 255
205 227 255
205 227 255
205 227 255
205 227 255
205 227 255
205 227 255
205 226 255
205 226 255
205 226 255
205 226 255
205 226 255
205 226 255
205 226 255
204 226 255
204 226 255
204 226 255
204 226 255
204 226 255
204 226 255
204 226 255
204 226 255
204 226 255
204 226 255
204 226 255
204 226 255
204 226 255
204 226 255
204 226 255
204 226 255
203 226 255
203 226 255
203 226 255
203 226 255
203 226 255
203 226 255
203 225 255
203 225 255
203 225 255
203 225 255
203 225 255
203 225 255
203 225 255
203 225 255
203 225 255
202 225 255
202 225 255
202 225 255
202 225 255
202 225 255
202 225 255
202 225 255
202 225 255
202 225 255
202 225 255
202 225 255
202 225 255
202 225 255
202 225 255
202 225 255
201 225 255
201 225 255
201 225 255
201 225 255
201 224 255
201 224 255
201 224 255
201 224 255
201 224 255
201 224 255
201 224 255
201 224 255
201 224 255
201 224 255
201 224 255
200 224 255
200 224 255
200 224 255
200 224 255
200 224 255
200 224 255
200 224 255
200 224 255
200 224 255
200 224 255
200 224 255
200 224 255
200 224 255
200 224 255
200 224 255
200 224 255
200 224 255
199 224 255
199 224 255
199 224 255
199 223 255
199 223 255
199 223 255
199 223 255
199 223 255
199 223 255
199 223 255
199 223 255
199 223 255
199 223 255
199 223 255
199 223 255
199 223 255
199 223 255
199 223 255
199 223 255
199 223 255
198 223 255
198 223 255
198 223 255
198 223 255
198 223 255
198 223 255
198 223 255
198 223 255
198 223 255
198 223 255
198 223 255
198 223 255
198 223 255
198 223 255
198 223 255
198 223 255
198 223 255
198 223 255
198 223 255
198 223 255
198 223 255
198 223 255
198 223 255
198 223 255
198 223 255
198 223 255
198 223 255
198 223 255
198 223 255
198 223 255
198 223 255
198 223 255
198 223 255
198 223 255
198 223 255
198 223 255
198 223 255
198 223 255
198 223 255
198 223 255
198 223 255
198 223 255
198 223 255
198 223 255
198 223 255
198 223 255
198 223 255
198 223 255
198 223 255
198 223 255
198 223 255
198 223 255
198 223 255
198 223 255
198 223 255
198 223 255
198 223 255
198 223 255
198 223 255
198 223 255
198 223 255
198 223 255
198 223 255
198 223 255
198 223 255
198 223 255
198 223 255
198 223 255
198 223 255
198 223 255
198 223 255
198 223 255
198 223 255
198 223 255
199 223 255
199 223 255
199 223 255
199 223 255
199 223 255
199 223 255
199 223 255
199 223 255
199 223 255
199 223 255
199 223 255
199 223 255
199 223 255
199 223 255
199 223 255
199 223 255
199 223 255
199 224 255
199 224 255
199 224 255
200 224 255
200 224 255
200 224 255
200 224 255
200 224 255
200 224 255
200 224 255
200 224 255
200 224 255
200 224 255
200 224 255
200 224 255
200 224 255
200 224 255
200 224 255
200 224 255
200 224 255
201 224 255
201 224 255
201 224 255
201 224 255
201 224 255
201 224 255
201 224 255
201 224 255
201 224 255
201 224 255
201 224 255
201 225 255
201 225 255
201 225 255
201 225 255
202 225 255
202 225 255
202 225 255
202 225 255
202 225 255
202 225 255
202 225 255
202 225 255
202 225 255
202 225 255
202 225 255
202 225 255
202 225 255
202 225 255
202 225 255
203 225 255
203 225 255
203 225 255
203 225 255
203 225 255
203 225 255
203 225 255
203 225 255
203 225 255
203 226 255
203 226 255
203 226 255
203 226 255
203 226 255
203 226 255
204 226 255
204 226 255
204 226 255
204 226 255
204 226 255
204 226 255
204 226 255
204 226 255
204 226 255
204 226 255
204 226 255
204 226 255
204 226 255
204 226 255
204 226 255
204 226 255
205 226 255
205 226 255
205 226 255
205 226 255
205 226 255
205 226 255
205 226 255
205 227 255
205 227 255
205 227 255
205 227 255
205 227 255
205 227 255
205 227 255
205 227 255
205 227 255
205 227 255
206 227 255
206 227 255
206 227 255
206 227 255
206 227 255
206 227 255
206 227 255
206 227 255
206 227 255
206 227 255
206 227 255
206 227 255
206 227 255
206 227 255
206 227 255
206 227 255
206 227 255
206 227 255
207 227 255
207 227 255
207 227 255
207 227 255
207 227 255
207 228 255
207 228 255
207 228 255
207 228 255
207 228 255
207 228 255
207 228 255
207 228 255
207 228 255
207 228 255
207 228 255
207 228 255
207 228 255
207 228 255
207 228 255
208 228 255
208 228 255
208 228 255
208 228 255
208 228 255
208 228 255
208 228 255
208 228 255
208 228 255
208 228 255
208 228 255
208 228 255
208 228 255
208 228 255
208 228 255
208 228 255
208 228 255
208 228 255
208 228 255
208 228 255
208 228 255
208 228 255
208 228 255
207 228 255
207 228 255
207 228 255
207 228 255
207 228 255
207 228 255
207 228 255
207 228 255
207 228 255
207 228 255
207 228 255
207 228 255
207 228 255
207 228 255
207 228 255
207 227 255
207 227 255
207 227 255
207 227 255
207 227 255
206 227 255
206 227 255
206 227 255
206 227 255
206 227 255
206 227 255
206 227 255
206 227 255
206 227 255
206 227 255
206 227 255
206 227 255
206 227 255
206 227 255
206 227 255
206 227 255
206 227 255
206 227 255
205 227 255
205 227 255
205 227 255
205 227 255
205 227 255
205 227 255
205 227 255
205 227 255
205 227 255
205 227 255
205 226 255
205 226 255
205 226 255
205 226 255
205 226 255
205 226 255
204 226 255
204 226 255
204 226 255
204 226 255
204 226 255
204 226 255
204 226 255
204 226 255
204 226 255
204 226 255
204 226 255
204 226 255
204 226 255
204 226 255
204 226 255
204 226 255
203 226 255
203 226 255
203 226 255
203 226 255
203 226 255
203 226 255
203 226 255
203 225 255
203 225 255
203 225 255
203 225 255
203 225 255
203 225 255
203 225 255
203 225 255
202 225 255
202 225 255
202 225 255
202 225 255
202 225 255
202 225 255
202 225 255
202 225 255
202 225 255
202 225 255
202 225 255
202 225 255
202 225 255
202 225 255
202 225 255
202 225 255
201 225 255
201 225 255
201 225 255
201 225 255
201 224 255
201 224 255
201 224 255
201 224 255
201 224 255
201 224 255
201 224 255
201 224 255
201 224 255
201 224 255
201 224 255
200 224 255
200 224 255
200 224 255
200 224 255
200 224 255
200 224 255
200 224 255
200 224 255
200 224 255
200 224 255
200 224 255
200 224 255
200 224 255
200 224 255
200 224 255
200 224 255
200 224 255
199 224 255
199 224 255
199 224 255
199 223 255
199 223 255
199 223 255
199 223 255
199 223 255
199 223 255
199 223 255
199 223 255
199 223 255
199 223 255
199 223 255
199 223 255
199 223 255
199 223 255
199 223 255
199 223 255
199 223 255
199 223 255
199 223 255
198 223 255
198 223 255
198 223 255
198 223 255
198 223 255
198 223 255
198 223 255
198 223 255
198 223 255
198 223 255
198 223 255
198 223 255
198 223 255
198 223 255
198 223 255
198 223 255
198 223 255
198 223 255
198 223 255
198 223 255
198 223 255
198 223 255
198 223 255
198 223 255
198 223 255
198 223 255
198 223 255
198 223 255
198 223 255
198 223 255
198 223 255
198 223 255
198 223 255
198 223 255
198 223 255
198 223 255
198 223 255
198 223 255
198 223 255
198 223 255
198 223 255
198 223 255
198 223 255
198 223 255
198 223 255
198 223 255
198 223 255
198 223 255
198 223 255
198 223 255
198 223 255
198 223 255
198 223 255
198 223 255
198 223 255
198 223 255
198 223 255
198 223 255
198 223 255
198 223 255
198 223 255
198 223 255
198 223 255
198 223 255
199 223 255
199 223 255
199 223 255
199 223 255
199 223 255
199 223 255
199 223 255
199 223 255
199 223 255
199 223 255
199 223 255
199 223 255
199 223 255
199 223 255
199 223 255
199 223 255
199 223 255
199 223 255
199 223 255
199 224 255
199 224 255
199 224 255
200 224 255
200 224 255
200 224 255
200 224 255
200 224 255
200 224 255
200 224 255
200 224 255
200 224 255
200 224 255
200 224 255
200 224 255
200 224 255
200 224 255
200 224 255
200 224 255
200 224 255
201 224 255
201 224 255
201 224 255
201 224 255
201 224 255
201 224 255
201 224 255
201 224 255
201 224 255
201 224 255
201 224 255
201 225 255
201 225 255
201 225 255
201 225 255
202 225 255
202 225 255
202 225 255
202 225 255
202 225 255
202 225 255
202 225 255
202 225 255
202 225 255
202 225 255
202 225 255
202 225 255
202 225 255
202 225 255
202 225 255
203 225 255
203 225 255
203 225 255
203 225 255
203 225 255
203 225 255
203 225 255
203 225 255
203 225 255
203 226 255
203 226 255
203 226 255
203 226 255
203 226 255
203 226 255
203 226 255
204 226 255
204 226 255
204 226 255
204 226 255
204 226 255
204 226 255
204 226 255
204 226 255
204 226 255
204 226 255
204 226 255
204 226 255
204 226 255
204 226 255
204 226 255
204 226 255
205 226 255
205 226 255
205 226 255
205 226 255
205 226 255
205 226 255
205 227 255
205 227 255
205 227 255
205 227 255
205 227 255
205 227 255
205 227 255
205 227 255
205 227 255
205 227 255
206 227 255
206 227 255
206 227 255
206 227 255
206 227 255
206 227 255
206 227 255
206 227 255
206 227 255
206 227 255
206 227 255
206 227 255
206 227 255
206 227 255
206 227 255
206 227 255
206 227 255
206 227 255
207 227 255
207 227 255
207 227 255
207 227 255
207 227 255
207 228 255
207 228 255
207 228 255
207 228 255
207 228 255
207 228 255
207 228 255
207 228 255
207 228 255
207 228 255
207 228 255
207 228 255
207 228 255
207 228 255
207 228 255
208 228 255
208 228 255
208 228 255
208 228 255
208 228 255
208 228 255
208 228 255
208 228 255
208 228 255
208 228 255
208 228 255
208 228 255
208 228 255
208 228 255
208 228 255
208 228 255
208 228 255
208 228 255
208 228 255
208 228 255
208 228 255
208 228 255
208 228 255
208 228 255
208 228 255
208 228 255
208 228 255
208 228 255
208 228 255
207 228 255
207 228 255
207 228 255
207 228 255
207 228 255
207 228 255
207 228 255
207 228 255
207 228 255
207 228 255
207 228 255
207 228 255
207 228 255
207 228 255
207 228 255
207 227 255
207 227 255
207 227 255
207 227 255
207 227 255
206 227 255
206 227 255
206 227 255
206 227 255
206 227 255
206 227 255
206 227 255
206 227 255
206 227 255
206 227 255
206 227 255
206 227 255
206 227 255
206 227 255
206 227 255
206 227 255
206 227 255
205 227 255
205 227 255
205 227 255
205 227 255
205 227 255
205 227 255
205 227 255
205 227 255
205 227 255
205 227 255
205 227 255
205 226 255
205 226 255
205 226 255
205 226 255
205 226 255
205 226 255
204 226 255
204 226 255
204 226 255
204 226 255
204 226 255
204 226 255
204 226 255
204 226 255
204 226 255
204 226 255
204 226 255
204 226 255
204 226 255
204 226 255
204 226 255
204 226 255
203 226 255
203 226 255
203 226 255
203 226 255
203 226 255
203 226 255
203 226 255
203 225 255
203 225 255
203 225 255
203 225 255
203 225 255
203 225 255
203 225 255
203 225 255
202 225 255
202 225 255
202 225 255
202 225 255
202 225 255
202 225 255
202 225 255
202 225 255
202 225 255
202 225 255
202 225 255
202 225 255
202 225 255
202 225 255
202 225 255
201 225 255
201 225 255
201 225 255
201 225 255
201 225 255
201 224 255
201 224 255
201 224 255
201 224 255
201 224 255
201 224 255
201 224 255
201 224 255
201 224 255
201 224 255
201 224 255
200 224 255
200 224 255
200 224 255
200 224 255
200 224 255
200 224 255
200 224 255
200 224 255
200 224 255
200 224 255
200 224 255
200 224 255
200 224 255
200 224 255
200 224 255
200 224 255
200 224 255
200 224 255
199 224 255
199 224 255
199 224 255
199 223 255
199 223 255
199 223 255
199 223 255
199 223 255
199 223 255
199 223 255
199 223 255
199 223 255
199 223 255
199 223 255
199 223 255
199 223 255
199 223 255
199 223 255
199 223 255
199 223 255
199 223 255
199 223 255
199 223 255
198 223 255
198 223 255
198 223 255
198 223 255
198 223 255
198 223 255
198 223 255
198 223 255
198 223 255
198 223 255
198 223 255
198 223 255
198 223 255
198 223 255
198 223 255
198 223 255
198 223 255
198 223 255
198 223 255
198 223 255
198 223 255
198 223 255
198 223 255
198 223 255
198 223 255
198 223 255
198 223 255
198 223 255
198 223 255
198 223 255
198 223 255
198 223 255
198 223 255
198 223 255
198 223 255
198 223 255
198 223 255
198 223 255
198 223 255
198 223 255
198 223 255
198 223 255
198 223 255
198 223 255
198 223 255
198 223 255
198 223 255
198 223 255
198 223 255
198 223 255
198 223 255
198 223 255
198 223 255
198 223 255
199 223 255
199 223 255
199 223 255
199 223 255
199 223 255
199 223 255
199 223 255
199 223 255
199 223 255
199 223 255
199 223 255
199 223 255
199 223 255
199 223 255
199 223 255
199 223 255
199 223 255
199 223 255
199 223 255
199 223 255
199 224 255
199 224 255
199 224 255
200 224 255
200 224 255
200 224 255
200 224 255
200 224 255
200 224 255
200 224 255
200 224 255
200 224 255
200 224 255
200 224 255
200 224 255
200 224 255
200 224 255
200 224 255
200 224 255
200 224 255
200 224 255
201 224 255
201 224 255
201 224 255
201 224 255
201 224 255
201 224 255
201 224 255
201 224 255
201 224 255
201 224 255
201 224 255
201 225 255
201 225 255
201 225 255
201 225 255
201 225 255
202 225 255
202 225 255
202 225 255
202 225 255
202 225 255
202 225 255
202 225 255
202 225 255
202 225 255
202 225 255
202 225 255
202 225 255
202 225 255
202 225 255
202 225 255
203 225 255
203 225 255
203 225 255
203 225 255
203 225 255
203 225 255
203 225 255
203 225 255
203 226 255
203 226 255
203 226 255
203 226 255
203 226 255
203 226 255
203 226 255
204 226 255
204 226 255
204 226 255
204 226 255
204 226 255
204 226 255
204 226 255
204 226 255
204 226 255
204 226 255
204 226 255
204 226 255
204 226 255
204 226 255
204 226 255
204 226 255
205 226 255
205 226 255
205 226 255
205 226 255
205 226 255
205 226 255
205 227 255
205 227 255
205 227 255
205 227 255
205 227 255
205 227 255
205 227 255
205 227 255
205 227 255
205 227 255
206 227 255
206 227 255
206 227 255
206 227 255
206 227 255
206 227 255
206 227 255
206 227 255
206 227 255
206 227 255
206 227 255
206 227 255
206 227 255
206 227 255
206 227 255
206 227 255
206 227 255
206 227 255
207 227 255
207 227 255
207 227 255
207 227 255
207 227 255
207 228 255
207 228 255
207 228 255
207 228 255
207 228 255
207 228 255
207 228 255
207 228 255
207 228 255
207 228 255
207 228 255
207 228 255
207 228 255
207 228 255
207 228 255
208 228 255
208 228 255
208 228 255
208 228 255
208 228 255
208 228 255
208 228 255
208 228 255
208 228 255
208 228 255
208 228 255
208 228 255
208 228 255
208 228 255
208 228 255
208 228 255
208 228 255
208 228 255
208 228 255
208 228 255
208 228 255
208 228 255
208 228 255
208 228 255
208 228 255
208 228 255
208 228 255
208 228 255
208 228 255
208 228 255
208 228 255
208 228 255
208 228 255
208 228 255
208 228 255
207 228 255
207 228 255
207 228 255
207 228 255
207 228 255
207 228 255
207 228 255
207 228 255
207 228 255
207 228 255
207 228 255
207 228 255
207 228 255
207 228 255
207 228 255
207 227 255
207 227 255
207 227 255
207 227 255
207 227 255
206 227 255
206 227 255
206 227 255
206 227 255
206 227 255
206 227 255
206 227 255
206 227 255
206 227 255
206 227 255
206 227 255
206 227 255
206 227 255
206 227 255
206 227 255
206 227 255
206 227 255
205 227 255
205 227 255
205 227 255
205 227 255
205 227 255
205 227 255
205 227 255
205 227 255
205 227 255
205 227 255
205 226 255
205 226 255
205 226 255
205 226 255
205 226 255
205 226 255
205 226 255
204 226 255
204 226 255
204 226 255
204 226 255
204 226 255
204 226 255
204 226 255
204 226 255
204 226 255
204 226 255
204 226 255
204 226 255
204 226 255
204 226 255
204 226 255
204 226 255
203 226 255
203 226 255
203 226 255
203 226 255
203 226 255
203 226 255
203 225 255
203 225 255
203 225 255
203 225 255
203 225 255
203 225 255
203 225 255
203 225 255
203 225 255
202 225 255
202 225 255
202 225 255
202 225 255
202 225 255
202 225 255
202 225 255
202 225 255
202 225 255
202 225 255
202 225 255
202 225 255
202 225 255
202 225 255
202 225 255
201 225 255
201 225 255
201 225 255
201 225 255
201 225 255
201 224 255
201 224 255
201 224 255
201 224 255
201 224 255
201 224 255
201 224 255
201 224 255
201 224 255
201 224 255
201 224 255
200 224 255
200 224 255
200 224 255
200 224 255
200 224 255
200 224 255
200 224 255
200 224 255
200 224 255
200 224 255
200 224 255
200 224 255
200 224 255
200 224 255
200 224 255
200 224 255
200 224 255
200 224 255
199 224 255
199 224 255
199 224 255
199 224 255
199 223 255
199 223 255
199 223 255
199 223 255
199 223 255
199 223 255
199 223 255
199 223 255
199 223 255
199 223 255
199 223 255
199 223 255
199 223 255
199 223 255
199 223 255
199 223 255
199 223 255
199 223 255
199 223 255
199 223 255
199 223 255
199 223 255
199 223 255
198 223 255
198 223 255
198 223 255
198 223 255
198 223 255
198 223 255
198 223 255
198 223 255
198 223 255
198 223 255
198 223 255
198 223 255
198 223 255
198 223 255
198 223 255
198 223 255
198 223 255
198 223 255
198 223 255
198 223 255
198 223 255
198 223 255
198 223 255
198 223 255
198 223 255
198 223 255
198 223 255
198 223 255
198 223 255
198 223 255
198 223 255
198 223 255
198 223 255
198 223 255
198 223 255
198 223 255
198 223 255
198 223 255
198 223 255
198 223 255
199 223 255
199 223 255
199 223 255
199 223 255
199 223 255
199 223 255
199 223 255
199 223 255
199 223 255
199 223 255
199 223 255
199 223 255
199 223 255
199 223 255
199 223 255
199 223 255
199 223 255
199 223 255
199 223 255
199 223 255
199 223 255
199 223 255
199 223 255
199 224 255
199 224 255
199 224 255
199 224 255
200 224 255
200 224 255
200 224 255
200 224 255
200 224 255
200 224 255
200 224 255
200 224 255
200 224 255
200 224 255
200 224 255
200 224 255
200 224 255
200 224 255
200 224 255
200 224 255
200 224 255
200 224 255
201 224 255
201 224 255
201 224 255
201 224 255
201 224 255
201 224 255
201 224 255
201 224 255
201 224 255
201 224 255
201 224 255
201 225 255
201 225 255
201 225 255
201 225 255
201 225 255
202 225 255
202 225 255
202 225 255
202 225 255
202 225 255
202 225 255
202 225 255
202 225 255
202 225 255
202 225 255
202 225 255
202 225 255
202 225 255
202 225 255
202 225 255
203 225 255
203 225 255
203 225 255
203 225 255
203 225 255
203 225 255
203 225 255
203 225 255
203 225 255
203 226 255
203 226 255
203 226 255
203 226 255
203 226 255
203 226 255
204 226 255
204 226 255
204 226 255
204 226 255
204 226 255
204 226 255
204 226 255
204 226 255
204 226 255
204 226 255
204 226 255
204 226 255
204 226 255
204 226 255
204 226 255
204 226 255
205 226 255
205 226 255
205 226 255
205 226 255
205 226 255
205 226 255
205 226 255
205 227 255
205 227 255
205 227 255
205 227 255
205 227 255
205 227 255
205 227 255
205 227 255
205 227 255
205 227 255
206 227 255
206 227 255
206 227 255
206 227 255
206 227 255
206 227 255
206 227 255
206 227 255
206 227 255
206 227 255
206 227 255
206 227 255
206 227 255
206 227 255
206 227 255
206 227 255
206 227 255
207 227 255
207 227 255
207 227 255
207 227 255
207 227 255
207 228 255
207 228 255
207 228 255
207 228 255
207 228 255
207 228 255
207 228 255
207 228 255
207 228 255
207 228 255
207 228 255
207 228 255
207 228 255
207 228 255
207 228 255
208 228 255
208 228 255
208 228 255
208 228 255
208 228 255
208 228 255
208 228 255
208 228 255
208 228 255
208 228 255
208 228 255
208 228 255
208 228 255
208 228 255
208 228 255
208 228 255
208 228 255
208 228 255
208 228 255
209 228 255
208 228 255
208 228 255
208 228 255
208 228 255
208 228 255
208 228 255
208 228 255
208 228 255
208 228 255
208 228 255
208 228 255
208 228 255
208 228 255
208 228 255
208 228 255
208 228 255
208 228 255
208 228 255
208 228 255
208 228 255
208 228 255
207 228 255
207 228 255
207 228 255
207 228 255
207 228 255
207 228 255
207 228 255
207 228 255
207 228 255
207 228 255
207 228 255
207 228 255
207 228 255
207 228 255
207 228 255
207 227 255
207 227 255
207 227 255
207 227 255
207 227 255
206 227 255
206 227 255
206 227 255
206 227 255
206 227 255
206 227 255
206 227 255
206 227 255
206 227 255
206 227 255
206 227 255
206 227 255
206 227 255
206 227 255
206 227 255
206 227 255
206 227 255
205 227 255
205 227 255
205 227 255
205 227 255
205 227 255
205 227 255
205 227 255
205 227 255
205 227 255
205 227 255
205 226 255
205 226 255
205 226 255
205 226 255
205 226 255
205 226 255
205 226 255
204 226 255
204 226 255
204 226 255
204 226 255
204 226 255
204 226 255
204 226 255
204 226 255
204 226 255
204 226 255
204 226 255
204 226 255
204 226 255
204 226 255
204 226 255
203 226 255
203 226 255
203 226 255
203 226 255
203 226 255
203 226 255
203 226 255
203 225 255
203 225 255
203 225 255
203 225 255
203 225 255
203 225 255
203 225 255
203 225 255
203 225 255
202 225 255
202 225 255
202 225 255
202 225 255
202 225 255
202 225 255
202 225 255
202 225 255
202 225 255
202 225 255
202 225 255
202 225 255
202 225 255
202 225 255
202 225 255
201 225 255
201 225 255
201 225 255
201 225 255
201 225 255
201 224 255
201 224 255
201 224 255
201 224 255
201 224 255
201 224 255
201 224 255
201 224 255
201 224 255
201 224 255
201 224 255
200 224 255
200 224 255
200 224 255
200 224 255
200 224 255
200 224 255
200 224 255
200 224 255
200 224 255
200 224 255
200 224 255
200 224 255
200 224 255
200 224 255
200 224 255
200 224 255
200 224 255
200 224 255
200 224 255
200 224 255
199 224 255
199 224 255
199 224 255
199 223 255
199 223 255
199 223 255
199 223 255
199 223 255
199 223 255
199 223 255
199 223 255
199 223 255
199 223 255
199 223 255
199 223 255
199 223 255
199 223 255
199 223 255
199 223 255
199 223 255
199 223 255
199 223 255
199 223 255
199 223 255
199 223 255
199 223 255
199 223 255
199 223 255
199 223 255
199 223 255
199 223 255
199 223 255
198 223 255
198 223 255
198 223 255
198 223 255
198 223 255
198 223 255
198 223 255
198 223 255
198 223 255
198 223 255
198 223 255
198 223 255
198 223 255
198 223 255
198 223 255
198 223 255
198 223 255
198 223 255
198 223 255
199 223 255
199 223 255
199 223 255
199 223 255
199 223 255
199 223 255
199 223 255
199 223 255
199 223 255
199 223 255
199 223 255
199 223 255
199 223 255
199 223 255
199 223 255
199 223 255
199 223 255
199 223 255
199 223 255
199 223 255
199 223 255
199 223 255
199 223 255
199 223 255
199 223 255
199 223 255
199 223 255
199 223 255
199 223 255
199 223 255
199 224 255
199 224 255
199 224 255
199 224 255
200 224 255
200 224 255
200 224 255
200 224 255
200 224 255
200 224 255
200 224 255
200 224 255
200 224 255
200 224 255
200 224 255
200 224 255
200 224 255
200 224 255
200 224 255
200 224 255
200 224 255
200 224 255
200 224 255
201 224 255
201 224 255
201 224 255
201 224 255
201 224 255
201 224 255
201 224 255
201 224 255
201 224 255
201 224 255
201 224 255
201 225 255
201 225 255
201 225 255
201 225 255
201 225 255
202 225 255
202 225 255
202 225 255
202 225 255
202 225 255
202 225 255
202 225 255
202 225 255
202 225 255
202 225 255
202 225 255
202 225 255
202 225 255
202 225 255
202 225 255
203 225 255
203 225 255
203 225 255
203 225 255
203 225 255
203 225 255
203 225 255
203 225 255
203 225 255
203 226 255
203 226 255
203 226 255
203 226 255
203 226 255
203 226 255
203 226 255
204 226 255
204 226 255
204 226 255
204 226 255
204 226 255
204 226 255
204 226 255
204 226 255
204 226 255
204 226 255
204 226 255
204 226 255
204 226 255
204 226 255
204 226 255
205 226 255
205 226 255
205 226 255
205 226 255
205 226 255
205 226 255
205 226 255
205 227 255
205 227 255
205 227 255
205 227 255
205 227 255
205 227 255
205 227 255
205 227 255
205 227 255
205 227 255
206 227 255
206 227 255
206 227 255
206 227 255
206 227 255
206 227 255
206 227 255
206 227 255
206 227 255
206 227 255
206 227 255
206 227 255
206 227 255
206 227 255
206 227 255
206 227 255
206 227 255
207 227 255
207 227 255
207 227 255
207 227 255
207 227 255
207 228 255
207 228 255
207 228 255
207 228 255
207 228 255
207 228 255
207 228 255
207 228 255
207 228 255
207 228 255
207 228 255
207 228 255
207 228 255
207 228 255
207 228 255
208 228 255
208 228 255
208 228 255
208 228 255
208 228 255
208 228 255
208 228 255
208 228 255
208 228 255
208 228 255
208 228 255
208 228 255
208 228 255
208 228 255
208 228 255
208 228 255
208 228 255
208 228 255
208 228 255
208 228 255
208 228 255
209 228 255
209 229 255
209 229 255
209 228 255
209 228 255
208 228 255
208 228 255
208 228 255
208 228 255
208 228 255
208 228 255
208 228 255
208 228 255
208 228 255
208 228 255
208 228 255
208 228 255
208 228 255
208 228 255
208 228 255
208 228 255
208 228 255
208 228 255
208 228 255
208 228 255
208 228 255
207 228 255
207 228 255
207 228 255
207 228 255
207 228 255
207 228 255
207 228 255
207 228 255
207 228 255
207 228 255
207 228 255
207 228 255
207 228 255
207 228 255
207 228 255
207 227 255
207 227 255
207 227 255
207 227 255
207 227 255
206 227 255
206 227 255
206 227 255
206 227 255
206 227 255
206 227 255
206 227 255
206 227 255
206 227 255
206 227 255
206 227 255
206 227 255
206 227 255
206 227 255
206 227 255
206 227 255
206 227 255
205 227 255
205 227 255
205 227 255
205 227 255
205 227 255
205 227 255
205 227 255
205 227 255
205 227 255
205 227 255
205 226 255
205 226 255
205 226 255
205 226 255
205 226 255
205 226 255
205 226 255
204 226 255
204 226 255
204 226 255
204 226 255
204 226 255
204 226 255
204 226 255
204 226 255
204 226 255
204 226 255
204 226 255
204 226 255
204 226 255
204 226 255
204 226 255
203 226 255
203 226 255
203 226 255
203 226 255
203 226 255
203 226 255
203 226 255
203 225 255
203 225 255
203 225 255
203 225 255
203 225 255
203 225 255
203 225 255
203 225 255
203 225 255
202 225 255
202 225 255
202 225 255
202 225 255
202 225 255
202 225 255
202 225 255
202 225 255
202 225 255
202 225 255
202 225 255
202 225 255
202 225 255
202 225 255
202 225 255
201 225 255
201 225 255
201 225 255
201 225 255
201 225 255
201 224 255
201 224 255
201 224 255
201 224 255
201 224 255
201 224 255
201 224 255
201 224 255
201 224 255
201 224 255
201 224 255
201 224 255
200 224 255
200 224 255
200 224 255
200 224 255
200 224 255
200 224 255
200 224 255
200 224 255
200 224 255
200 224 255
200 224 255
200 224 255
200 224 255
200 224 255
200 224 255
200 224 255
200 224 255
200 224 255
200 224 255
200 224 255
199 224 255
199 224 255
199 224 255
199 224 255
199 223 255
199 223 255
199 223 255
199 223 255
199 223 255
199 223 255
199 223 255
199 223 255
199 223 255
199 223 255
199 223 255
199 223 255
199 223 255
199 223 255
199 223 255
199 223 255
199 223 255
199 223 255
199 223 255
199 223 255
199 223 255
199 223 255
199 223 255
199 223 255
199 223 255
199 223 255
199 223 255
199 223 255
199 223 255
199 223 255
199 223 255
199 223 255
199 223 255
199 223 255
199 223 255
199 223 255
199 223 255
199 223 255
199 223 255
199 223 255
199 223 255
199 223 255
199 223 255
199 223 255
199 223 255
199 223 255
199 223 255
199 223 255
199 223 255
199 223 255
199 223 255
199 223 255
199 223 255
199 223 255
199 223 255
199 223 255
199 223 255
199 223 255
199 223 255
199 223 255
199 223 255
199 223 255
199 223 255
199 223 255
199 223 255
199 223 255
199 223 255
199 223 255
199 224 255
199 224 255
199 224 255
199 224 255
200 224 255
200 224 255
200 224 255
200 224 255
200 224 255
200 224 255
200 224 255
200 224 255
200 224 255
200 224 255
200 224 255
200 224 255
200 224 255
200 224 255
200 224 255
200 224 255
200 224 255
200 224 255
200 224 255
200 224 255
201 224 255
201 224 255
201 224 255
201 224 255
201 224 255
201 224 255
201 224 255
201 224 255
201 224 255
201 224 255
201 224 255
201 224 255
201 225 255
201 225 255
201 225 255
201 225 255
201 225 255
202 225 255
202 225 255
202 225 255
202 225 255
202 225 255
202 225 255
202 225 255
202 225 255
202 225 255
202 225 255
202 225 255
202 225 255
202 225 255
202 225 255
202 225 255
203 225 255
203 225 255
203 225 255
203 225 255
203 225 255
203 225 255
203 225 255
203 225 255
203 225 255
203 226 255
203 226 255
203 226 255
203 226 255
203 226 255
203 226 255
203 226 255
204 226 255
204 226 255
204 226 255
204 226 255
204 226 255
204 226 255
204 226 255
204 226 255
204 226 255
204 226 255
204 226 255
204 226 255
204 226 255
204 226 255
204 226 255
204 226 255
205 226 255
205 226 255
205 226 255
205 226 255
205 226 255
205 226 255
205 227 255
205 227 255
205 227 255
205 227 255
205 227 255
205 227 255
205 227 255
205 227 255
205 227 255
205 227 255
206 227 255
206 227 255
206 227 255
206 227 255
206 227 255
206 227 255
206 227 255
206 227 255
206 227 255
206 227 255
206 227 255
206 227 255
206 227 255
206 227 255
206 227 255
206 227 255
206 227 255
207 227 255
207 227 255
207 227 255
207 227 255
207 227 255
207 228 255
207 228 255
207 228 255
207 228 255
207 228 255
207 228 255
207 228 255
207 228 255
207 228 255
207 228 255
207 228 255
207 228 255
207 228 255
207 228 255
207 228 255
208 228 255
208 228 255
208 228 255
208 228 255
208 228 255
208 228 255
208 228 255
208 228 255
208 228 255
208 228 255
208 228 255
208 228 255
208 228 255
208 228 255
208 228 255
208 228 255
208 228 255
208 228 255
208 228 255
208 228 255
208 228 255
209 228 255
209 228 255
209 229 255
209 229 255
209 229 255
209 229 255
209 229 255
209 229 255
209 229 255
209 229 255
209 228 255
208 228 255
208 228 255
208 228 255
208 228 255
208 228 255
208 228 255
208 228 255
208 228 255
208 228 255
208 228 255
208 228 255
208 228 255
208 228 255
208 228 255
208 228 255
208 228 255
208 228 255
208 228 255
208 228 255
208 228 255
208 228 255
207 228 255
207 228 255
207 228 255
207 228 255
207 228 255
207 228 255
207 228 255
207 228 255
207 228 255
207 228 255
207 228 255
207 228 255
207 228 255
207 228 255
207 228 255
207 227 255
207 227 255
207 227 255
207 227 255
206 227 255
206 227 255
206 227 255
206 227 255
206 227 255
206 227 255
206 227 255
206 227 255
206 227 255
206 227 255
206 227 255
206 227 255
206 227 255
206 227 255
206 227 255
206 227 255
206 227 255
206 227 255
205 227 255
205 227 255
205 227 255
205 227 255
205 227 255
205 227 255
205 227 255
205 227 255
205 227 255
205 227 255
205 226 255
205 226 255
205 226 255
205 226 255
205 226 255
205 226 255
204 226 255
204 226 255
204 226 255
204 226 255
204 226 255
204 226 255
204 226 255
204 226 255
204 226 255
204 226 255
204 226 255
204 226 255
204 226 255
204 226 255
204 226 255
204 226 255
203 226 255
203 226 255
203 226 255
203 226 255
203 226 255
203 226 255
203 226 255
203 225 255
203 225 255
203 225 255
203 225 255
203 225 255
203 225 255
203 225 255
203 225 255
203 225 255
202 225 255
202 225 255
202 225 255
202 225 255
202 225 255
202 225 255
202 225 255
202 225 255
202 225 255
202 225 255
202 225 255
202 225 255
202 225 255
202 225 255
202 225 255
201 225 255
201 225 255
201 225 255
201 225 255
201 225 255
201 224 255
201 224 255
201 224 255
201 224 255
201 224 255
201 224 255
201 224 255
201 224 255
201 224 255
201 224 255
201 224 255
201 224 255
200 224 255
200 224 255
200 224 255
200 224 255
200 224 255
200 224 255
200 224 255
200 224 255
200 224 255
200 224 255
200 224 255
200 224 255
200 224 255
200 224 255
200 224 255
200 224 255
200 224 255
200 224 255
200 224 255
200 224 255
200 224 255
200 224 255
199 224 255
199 224 255
199 224 255
199 224 255
199 223 255
199 223 255
199 223 255
199 223 255
199 223 255
199 223 255
199 223 255
199 223 255
199 223 255
199 223 255
199 223 255
199 223 255
199 223 255
199 223 255
199 223 255
199 223 255
199 223 255
199 223 255
199 223 255
199 223 255
199 223 255
199 223 255
199 223 255
199 223 255
199 223 255
199 223 255
199 223 255
199 223 255
199 223 255
199 223 255
199 223 255
199 223 255
199 223 255
199 223 255
199 223 255
199 223 255
199 223 255
199 223 255
199 223 255
199 223 255
199 223 255
199 223 255
199 223 255
199 223 255
199 223 255
199 223 255
199 223 255
199 223 255
199 223 255
199 223 255
199 223 255
199 223 255
199 223 255
199 223 255
199 223 255
199 223 255
199 223 255
199 223 255
199 224 255
199 224 255
199 224 255
199 224 255
200 224 255
200 224 255
200 224 255
200 224 255
200 224 255
200 224 255
200 224 255
200 224 255
200 224 255
200 224 255
200 224 255
200 224 255
200 224 255
200 224 255
200 224 255
200 224 255
200 224 255
200 224 255
200 224 255
200 224 255
200 224 255
200 224 255
201 224 255
201 224 255
201 224 255
201 224 255
201 224 255
201 224 255
201 224 255
201 224 255
201 224 255
201 224 255
201 224 255
201 224 255
201 225 255
201 225 255
201 225 255
201 225 255
201 225 255
202 225 255
202 225 255
202 225 255
202 225 255
202 225 255
202 225 255
202 225 255
202 225 255
202 225 255
202 225 255
202 225 255
202 225 255
202 225 255
202 225 255
202 225 255
202 225 255
203 225 255
203 225 255
203 225 255
203 225 255
203 225 255
203 225 255
203 225 255
203 225 255
203 226 255
203 226 255
203 226 255
203 226 255
203 226 255
203 226 255
203 226 255
204 226 255
204 226 255
204 226 255
204 226 255
204 226 255
204 226 255
204 226 255
204 226 255
204 226 255
204 226 255
204 226 255
204 226 255
204 226 255
204 226 255
204 226 255
204 226 255
205 226 255
205 226 255
205 226 255
205 226 255
205 226 255
205 226 255
205 227 255
205 227 255
205 227 255
205 227 255
205 227 255
205 227 255
205 227 255
205 227 255
205 227 255
205 227 255
206 227 255
206 227 255
206 227 255
206 227 255
206 227 255
206 227 255
206 227 255
206 227 255
206 227 255
206 227 255
206 227 255
206 227 255
206 227 255
206 227 255
206 227 255
206 227 255
206 227 255
207 227 255
207 227 255
207 227 255
207 227 255
207 227 255
207 228 255
207 228 255
207 228 255
207 228 255
207 228 255
207 228 255
207 228 255
207 228 255
207 228 255
207 228 255
207 228 255
207 228 255
207 228 255
207 228 255
207 228 255
208 228 255
208 228 255
208 228 255
208 228 255
208 228 255
208 228 255
208 228 255
208 228 255
208 228 255
208 228 255
208 228 255
208 228 255
208 228 255
208 228 255
208 228 255
208 228 255
208 228 255
208 228 255
208 228 255
208 228 255
208 228 255
209 228 255
209 229 255
209 229 255
209 229 255
209 229 255
209 229 255
209 229 255
209 229 255
209 229 255
209 229 255
209 229 255
209 229 255
209 229 255
209 229 255
209 229 255
209 229 255
209 228 255
209 228 255
208 228 255
208 228 255
208 228 255
208 228 255
208 228 255
208 228 255
208 228 255
208 228 255
208 228 255
208 228 255
208 228 255
208 228 255
208 228 255
208 228 255
208 228 255
208 228 255
208 228 255
208 228 255
208 228 255
208 228 255
208 228 255
207 228 255
207 228 255
207 228 255
207 228 255
207 228 255
207 228 255
207 228 255
207 228 255
207 228 255
207 228 255
207 228 255
207 228 255
207 228 255
207 228 255
207 227 255
207 227 255
207 227 255
207 227 255
206 227 255
206 227 255
206 227 255
206 227 255
206 227 255
206 227 255
206 227 255
206 227 255
206 227 255
206 227 255
206 227 255
206 227 255
206 227 255
206 227 255
206 227 255
206 227 255
206 227 255
206 227 255
205 227 255
205 227 255
205 227 255
205 227 255
205 227 255
205 227 255
205 227 255
205 227 255
205 227 255
205 227 255
205 226 255
205 226 255
205 226 255
205 226 255
205 226 255
205 226 255
204 226 255
204 226 255
204 226 255
204 226 255
204 226 255
204 226 255
204 226 255
204 226 255
204 226 255
204 226 255
204 226 255
204 226 255
204 226 255
204 226 255
204 226 255
204 226 255
203 226 255
203 226 255
203 226 255
203 226 255
203 226 255
203 226 255
203 226 255
203 225 255
203 225 255
203 225 255
203 225 255
203 225 255
203 225 255
203 225 255
203 225 255
202 225 255
202 225 255
202 225 255
202 225 255
202 225 255
202 225 255
202 225 255
202 225 255
202 225 255
202 225 255
202 225 255
202 225 255
202 225 255
202 225 255
202 225 255
202 225 255
201 225 255
201 225 255
201 225 255
201 225 255
201 225 255
201 224 255
201 224 255
201 224 255
201 224 255
201 224 255
201 224 255
201 224 255
201 224 255
201 224 255
201 224 255
201 224 255
201 224 255
201 224 255
200 224 255
200 224 255
200 224 255
200 224 255
200 224 255
200 224 255
200 224 255
200 224 255
200 224 255
200 224 255
200 224 255
200 224 255
200 224 255
200 224 255
200 224 255
200 224 255
200 224 255
200 224 255
200 224 255
200 224 255
200 224 255
200 224 255
200 224 255
199 224 255
199 224 255
199 224 255
199 224 255
199 224 255
199 224 255
199 223 255
199 223 255
199 223 255
199 223 255
199 223 255
199 223 255
199 223 255
199 223 255
199 223 255
199 223 255
199 223 255
199 223 255
199 223 255
199 223 255
199 223 255
199 223 255
199 223 255
199 223 255
199 223 255
199 223 255
199 223 255
199 223 255
199 223 255
199 223 255
199 223 255
199 223 255
199 223 255
199 223 255
199 223 255
199 223 255
199 223 255
199 223 255
199 223 255
199 223 255
199 223 255
199 223 255
199 223 255
199 223 255
199 223 255
199 223 255
199 223 255
199 223 255
199 223 255
199 223 255
199 224 255
199 224 255
199 224 255
199 224 255
199 224 255
200 224 255
200 224 255
200 224 255
200 224 255
200 224 255
200 224 255
200 224 255
200 224 255
200 224 255
200 224 255
200 224 255
200 224 255
200 224 255
200 224 255
200 224 255
200 224 255
200 224 255
200 224 255
200 224 255
200 224 255
200 224 255
200 224 255
200 224 255
200 224 255
201 224 255
201 224 255
201 224 255
201 224 255
201 224 255
201 224 255
201 224 255
201 224 255
201 224 255
201 224 255
201 224 255
201 224 255
201 225 255
201 225 255
201 225 255
201 225 255
201 225 255
202 225 255
202 225 255
202 225 255
202 225 255
202 225 255
202 225 255
202 225 255
202 225 255
202 225 255
202 225 255
202 225 255
202 225 255
202 225 255
202 225 255
202 225 255
202 225 255
202 225 255
203 225 255
203 225 255
203 225 255
203 225 255
203 225 255
203 225 255
203 225 255
203 225 255
203 226 255
203 226 255
203 226 255
203 226 255
203 226 255
203 226 255
203 226 255
204 226 255
204 226 255
204 226 255
204 226 255
204 226 255
204 226 255
204 226 255
204 226 255
204 226 255
204 226 255
204 226 255
204 226 255
204 226 255
204 226 255
204 226 255
204 226 255
205 226 255
205 226 255
205 226 255
205 226 255
205 226 255
205 226 255
205 227 255
205 227 255
205 227 255
205 227 255
205 227 255
205 227 255
205 227 255
205 227 255
205 227 255
205 227 255
206 227 255
206 227 255
206 227 255
206 227 255
206 227 255
206 227 255
206 227 255
206 227 255
206 227 255
206 227 255
206 227 255
206 227 255
206 227 255
206 227 255
206 227 255
206 227 255
206 227 255
206 227 255
207 227 255
207 227 255
207 227 255
207 227 255
207 228 255
207 228 255
207 228 255
207 228 255
207 228 255
207 228 255
207 228 255
207 228 255
207 228 255
207 228 255
207 228 255
207 228 255
207 228 255
207 228 255
208 228 255
208 228 255
208 228 255
208 228 255
208 228 255
208 228 255
208 228 255
208 228 255
208 228 255
208 228 255
208 228 255
208 228 255
208 228 255
208 228 255
208 228 255
208 228 255
208 228 255
208 228 255
208 228 255
208 228 255
208 228 255
209 228 255
209 228 255
209 229 255
209 229 255
209 229 255
209 229 255
209 229 255
209 229 255
209 229 255
209 229 255
209 229 255
209 229 255
209 229 255
209 229 255
209 229 255
209 229 255
209 229 255
209 229 255
209 229 255
209 229 255
209 229 255
209 229 255
209 229 255
209 228 255
209 228 255
208 228 255
208 228 255
208 228 255
208 228 255
208 228 255
208 228 255
208 228 255
208 228 255
208 228 255
208 228 255
208 228 255
208 228 255
208 228 255
208 228 255
208 228 255
208 228 255
208 228 255
208 228 255
208 228 255
208 228 255
208 228 255
207 228 255
207 228 255
207 228 255
207 228 255
207 228 255
207 228 255
207 228 255
207 228 255
207 228 255
207 228 255
207 228 255
207 228 255
207 228 255
207 228 255
207 227 255
207 227 255
207 227 255
207 227 255
207 227 255
206 227 255
206 227 255
206 227 255
206 227 255
206 227 255
206 227 255
206 227 255
206 227 255
206 227 255
206 227 255
206 227 255
206 227 255
206 227 255
206 227 255
206 227 255
206 227 255
206 227 255
205 227 255
205 227 255
205 227 255
205 227 255
205 227 255
205 227 255
205 227 255
205 227 255
205 227 255
205 227 255
205 226 255
205 226 255
205 226 255
205 226 255
205 226 255
205 226 255
204 226 255
204 226 255
204 226 255
204 226 255
204 226 255
204 226 255
204 226 255
204 226 255
204 226 255
204 226 255
204 226 255
204 226 255
204 226 255
204 226 255
204 226 255
204 226 255
203 226 255
203 226 255
203 226 255
203 226 255
203 226 255
203 226 255
203 226 255
203 225 255
203 225 255
203 225 255
203 225 255
203 225 255
203 225 255
203 225 255
203 225 255
202 225 255
202 225 255
202 225 255
202 225 255
202 225 255
202 225 255
202 225 255
202 225 255
202 225 255
202 225 255
202 225 255
202 225 255
202 225 255
202 225 255
202 225 255
202 225 255
202 225 255
201 225 255
201 225 255
201 225 255
201 225 255
201 225 255
201 224 255
201 224 255
201 224 255
201 224 255
201 224 255
201 224 255
201 224 255
201 224 255
201 224 255
201 224 255
201 224 255
201 224 255
201 224 255
200 224 255
200 224 255
200 224 255
200 224 255
200 224 255
200 224 255
200 224 255
200 224 255
200 224 255
200 224 255
200 224 255
200 224 255
200 224 255
200 224 255
200 224 255
200 224 255
200 224 255
200 224 255
200 224 255
200 224 255
200 224 255
200 224 255
200 224 255
200 224 255
200 224 255
200 224 255
200 224 255
199 224 255
199 224 255
199 224 255
199 224 255
199 224 255
199 224 255
199 224 255
199 224 255
199 223 255
199 223 255
199 223 255
199 223 255
199 223 255
199 223 255
199 223 255
199 223 255
199 223 255
199 223 255
199 223 255
199 223 255
199 223 255
199 223 255
199 223 255
199 223 255
199 223 255
199 223 255
199 223 255
199 223 255
199 223 255
199 223 255
199 223 255
199 223 255
199 224 255
199 224 255
199 224 255
199 224 255
199 224 255
199 224 255
199 224 255
199 224 255
200 224 255
200 224 255
200 224 255
200 224 255
200 224 255
200 224 255
200 224 255
200 224 255
200 224 255
200 224 255
200 224 255
200 224 255
200 224 255
200 224 255
200 224 255
200 224 255
200 224 255
200 224 255
200 224 255
200 224 255
200 224 255
200 224 255
200 224 255
200 224 255
200 224 255
200 224 255
200 224 255
201 224 255
201 224 255
201 224 255
201 224 255
201 224 255
201 224 255
201 224 255
201 224 255
201 224 255
201 224 255
201 224 255
201 224 255
201 224 255
201 225 255
201 225 255
201 225 255
201 225 255
201 225 255
202 225 255
202 225 255
202 225 255
202 225 255
202 225 255
202 225 255
202 225 255
202 225 255
202 225 255
202 225 255
202 225 255
202 225 255
202 225 255
202 225 255
202 225 255
202 225 255
202 225 255
203 225 255
203 225 255
203 225 255
203 225 255
203 225 255
203 225 255
203 225 255
203 225 255
203 226 255
203 226 255
203 226 255
203 226 255
203 226 255
203 226 255
203 226 255
204 226 255
204 226 255
204 226 255
204 226 255
204 226 255
204 226 255
204 226 255
204 226 255
204 226 255
204 226 255
204 226 255
204 226 255
204 226 255
204 226 255
204 226 255
204 226 255
205 226 255
205 226 255
205 226 255
205 226 255
205 226 255
205 226 255
205 227 255
205 227 255
205 227 255
205 227 255
205 227 255
205 227 255
205 227 255
205 227 255
205 227 255
205 227 255
206 227 255
206 227 255
206 227 255
206 227 255
206 227 255
206 227 255
206 227 255
206 227 255
206 227 255
206 227 255
206 227 255
206 227 255
206 227 255
206 227 255
206 227 255
206 227 255
206 227 255
207 227 255
207 227 255
207 227 255
207 227 255
207 227 255
207 228 255
207 228 255
207 228 255
207 228 255
207 228 255
207 228 255
207 228 255
207 228 255
207 228 255
207 228 255
207 228 255
207 228 255
207 228 255
207 228 255
208 228 255
208 228 255
208 228 255
208 228 255
208 228 255
208 228 255
208 228 255
208 228 255
208 228 255
208 228 255
208 228 255
208 228 255
208 228 255
208 228 255
208 228 255
208 228 255
208 228 255
208 228 255
208 228 255
208 228 255
208 228 255
209 228 255
209 228 255
209 229 255
209 229 255
209 229 255
209 229 255
209 229 255
209 229 255
209 229 255
209 229 255
209 229 255
209 229 255
209 229 255
209 229 255
209 229 255
209 229 255
209 229 255
209 229 255
209 229 255
209 229 255
209 229 255
209 229 255
209 229 255
209 229 255
209 229 255
209 229 255
209 229 255
209 229 255
209 229 255
209 229 255
209 228 255
208 228 255
208 228 255
208 228 255
208 228 255
208 228 255
208 228 255
208 228 255
208 228 255
208 228 255
208 228 255
208 228 255
208 228 255
208 228 255
208 228 255
208 228 255
208 228 255
208 228 255
208 228 255
208 228 255
208 228 255
208 228 255
207 228 255
207 228 255
207 228 255
207 228 255
207 228 255
207 228 255
207 228 255
207 228 255
207 228 255
207 228 255
207 228 255
207 228 255
207 228 255
207 228 255
207 227 255
207 227 255
207 227 255
207 227 255
206 227 255
206 227 255
206 227 255
206 227 255
206 227 255
206 227 255
206 227 255
206 227 255
206 227 255
206 227 255
206 227 255
206 227 255
206 227 255
206 227 255
206 227 255
206 227 255
206 227 255
206 227 255
205 227 255
205 227 255
205 227 255
205 227 255
205 227 255
205 227 255
205 227 255
205 227 255
205 227 255
205 227 255
205 226 255
205 226 255
205 226 255
205 226 255
205 226 255
205 226 255
204 226 255
204 226 255
204 226 255
204 226 255
204 226 255
204 226 255
204 226 255
204 226 255
204 226 255
204 226 255
204 226 255
204 226 255
204 226 255
204 226 255
204 226 255
204 226 255
203 226 255
203 226 255
203 226 255
203 226 255
203 226 255
203 226 255
203 226 255
203 225 255
203 225 255
203 225 255
203 225 255
203 225 255
203 225 255
203 225 255
203 225 255
203 225 255
202 225 255
202 225 255
202 225 255
202 225 255
202 225 255
202 225 255
202 225 255
202 225 255
202 225 255
202 225 255
202 225 255
202 225 255
202 225 255
202 225 255
202 225 255
202 225 255
201 225 255
201 225 255
201 225 255
201 225 255
201 225 255
201 225 255
201 224 255
201 224 255
201 224 255
201 224 255
201 224 255
201 224 255
201 224 255
201 224 255
201 224 255
201 224 255
201 224 255
201 224 255
201 224 255
200 224 255
200 224 255
200 224 255
200 224 255
200 224 255
200 224 255
200 224 255
200 224 255
200 224 255
200 224 255
200 224 255
200 224 255
200 224 255
200 224 255
200 224 255
200 224 255
200 224 255
200 224 255
200 224 255
200 224 255
200 224 255
200 224 255
200 224 255
200 224 255
200 224 255
200 224 255
200 224 255
200 224 255
200 224 255
200 224 255
200 224 255
200 224 255
200 224 255
200 224 255
199 224 255
199 224 255
199 224 255
199 224 255
199 224 255
199 224 255
199 224 255
199 224 255
199 224 255
199 224 255
199 224 255
199 224 255
199 224 255
199 224 255
199 224 255
199 224 255
199 224 255
199 224 255
200 224 255
200 224 255
200 224 255
200 224 255
200 224 255
200 224 255
200 224 255
200 224 255
200 224 255
200 224 255
200 224 255
200 224 255
200 224 255
200 224 255
200 224 255
200 224 255
200 224 255
200 224 255
200 224 255
200 224 255
200 224 255
200 224 255
200 224 255
200 224 255
200 224 255
200 224 255
200 224 255
200 224 255
200 224 255
200 224 255
200 224 255
200 224 255
200 224 255
200 224 255
201 224 255
201 224 255
201 224 255
201 224 255
201 224 255
201 224 255
201 224 255
201 224 255
201 224 255
201 224 255
201 224 255
201 224 255
201 224 255
201 224 255
201 225 255
201 225 255
201 225 255
201 225 255
201 225 255
202 225 255
202 225 255
202 225 255
202 225 255
202 225 255
202 225 255
202 225 255
202 225 255
202 225 255
202 225 255
202 225 255
202 225 255
202 225 255
202 225 255
202 225 255
202 225 255
203 225 255
203 225 255
203 225 255
203 225 255
203 225 255
203 225 255
203 225 255
203 225 255
203 225 255
203 226 255
203 226 255
203 226 255
203 226 255
203 226 255
203 226 255
203 226 255
204 226 255
204 226 255
204 226 255
204 226 255
204 226 255
204 226 255
204 226 255
204 226 255
204 226 255
204 226 255
204 226 255
204 226 255
204 226 255
204 226 255
204 226 255
204 226 255
205 226 255
205 226 255
205 226 255
205 226 255
205 226 255
205 226 255
205 227 255
205 227 255
205 227 255
205 227 255
205 227 255
205 227 255
205 227 255
205 227 255
205 227 255
205 227 255
206 227 255
206 227 255
206 227 255
206 227 255
206 227 255
206 227 255
206 227 255
206 227 255
206 227 255
206 227 255
206 227 255
206 227 255
206 227 255
206 227 255
206 227 255
206 227 255
206 227 255
206 227 255
207 227 255
207 227 255
207 227 255
207 227 255
207 228 255
207 228 255
207 228 255
207 228 255
207 228 255
207 228 255
207 228 255
207 228 255
207 228 255
207 228 255
207 228 255
207 228 255
207 228 255
207 228 255
208 228 255
208 228 255
208 228 255
208 228 255
208 228 255
208 228 255
208 228 255
208 228 255
208 228 255
208 228 255
208 228 255
208 228 255
208 228 255
208 228 255
208 228 255
208 228 255
208 228 255
208 228 255
208 228 255
208 228 255
208 228 255
209 228 255
209 229 255
209 229 255
209 229 255
209 229 255
209 229 255
209 229 255
209 229 255
209 229 255
209 229 255
209 229 255
209 229 255
209 229 255
209 229 255
209 229 255
209 229 255
209 229 255
209 229 255
209 229 255
209 229 255
209 229 255
209 229 255
209 229 255
209 229 255
209 229 255
209 229 255
209 229 255
209 229 255
209 229 255
209 229 255
209 229 255
209 229 255
209 229 255
209 229 255
209 229 255
209 229 255
209 228 255
209 228 255
208 228 255
208 228 255
208 228 255
208 228 255
208 228 255
208 228 255
208 228 255
208 228 255
208 228 255
208 228 255
208 228 255
208 228 255
208 228 255
208 228 255
208 228 255
208 228 255
208 228 255
208 228 255
208 228 255
208 228 255
207 228 255
207 228 255
207 228 255
207 228 255
207 228 255
207 228 255
207 228 255
207 228 255
207 228 255
207 228 255
207 228 255
207 228 255
207 228 255
207 228 255
207 227 255
207 227 255
207 227 255
207 227 255
207 227 255
206 227 255
206 227 255
206 227 255
206 227 255
206 227 255
206 227 255
206 227 255
206 227 255
206 227 255
206 227 255
206 227 255
206 227 255
206 227 255
206 227 255
206 227 255
206 227 255
206 227 255
205 227 255
205 227 255
205 227 255
205 227 255
205 227 255
205 227 255
205 227 255
205 227 255
205 227 255
205 227 255
205 226 255
205 226 255
205 226 255
205 226 255
205 226 255
205 226 255
204 226 255
204 226 255
204 226 255
204 226 255
204 226 255
204 226 255
204 226 255
204 226 255
204 226 255
204 226 255
204 226 255
204 226 255
204 226 255
204 226 255
204 226 255
204 226 255
203 226 255
203 226 255
203 226 255
203 226 255
203 226 255
203 226 255
203 226 255
203 225 255
203 225 255
203 225 255
203 225 255
203 225 255
203 225 255
203 225 255
203 225 255
203 225 255
202 225 255
202 225 255
202 225 255
202 225 255
202 225 255
202 225 255
202 225 255
202 225 255
202 225 255
202 225 255
202 225 255
202 225 255
202 225 255
202 225 255
202 225 255
202 225 255
202 225 255
201 225 255
201 225 255
201 225 255
201 225 255
201 225 255
201 224 255
201 224 255
201 224 255
201 224 255
201 224 255
201 224 255
201 224 255
201 224 255
201 224 255
201 224 255
201 224 255
201 224 255
201 224 255
201 224 255
201 224 255
200 224 255
200 224 255
200 224 255
200 224 255
200 224 255
200 224 255
200 224 255
200 224 255
200 224 255
200 224 255
200 224 255
200 224 255
200 224 255
200 224 255
200 224 255
200 224 255
200 224 255
200 224 255
200 224 255
200 224 255
200 224 255
200 224 255
200 224 255
200 224 255
200 224 255
200 224 255
200 224 255
200 224 255
200 224 255
200 224 255
200 224 255
200 224 255
200 224 255
200 224 255
200 224 255
200 224 255
200 224 255
200 224 255
200 224 255
200 224 255
200 224 255
200 224 255
200 224 255
200 224 255
200 224 255
200 224 255
200 224 255
200 224 255
200 224 255
200 224 255
200 224 255
200 224 255
200 224 255
200 224 255
200 224 255
200 224 255
200 224 255
200 224 255
200 224 255
200 224 255
200 224 255
200 224 255
200 224 255
200 224 255
200 224 255
200 224 255
200 224 255
200 224 255
200 224 255
200 224 255
200 224 255
200 224 255
200 224 255
200 224 255
200 224 255
200 224 255
201 224 255
201 224 255
201 224 255
201 224 255
201 224 255
201 224 255
201 224 255
201 224 255
201 224 255
201 224 255
201 224 255
201 224 255
201 224 255
201 224 255
201 224 255
201 225 255
201 225 255
201 225 255
201 225 255
201 225 255
202 225 255
202 225 255
202 225 255
202 225 255
202 225 255
202 225 255
202 225 255
202 225 255
202 225 255
202 225 255
202 225 255
202 225 255
202 225 255
202 225 255
202 225 255
202 225 255
202 225 255
203 225 255
203 225 255
203 225 255
203 225 255
203 225 255
203 225 255
203 225 255
203 225 255
203 225 255
203 226 255
203 226 255
203 226 255
203 226 255
203 226 255
203 226 255
203 226 255
204 226 255
204 226 255
204 226 255
204 226 255
204 226 255
204 226 255
204 226 255
204 226 255
204 226 255
204 226 255
204 226 255
204 226 255
204 226 255
204 226 255
204 226 255
204 226 255
205 226 255
205 226 255
205 226 255
205 226 255
205 226 255
205 226 255
205 226 255
205 227 255
205 227 255
205 227 255
205 227 255
205 227 255
205 227 255
205 227 255
205 227 255
205 227 255
206 227 255
206 227 255
206 227 255
206 227 255
206 227 255
206 227 255
206 227 255
206 227 255
206 227 255
206 227 255
206 227 255
206 227 255
206 227 255
206 227 255
206 227 255
206 227 255
206 227 255
206 227 255
207 227 255
207 227 255
207 227 255
207 227 255
207 228 255
207 228 255
207 228 255
207 228 255
207 228 255
207 228 255
207 228 255
207 228 255
207 228 255
207 228 255
207 228 255
207 228 255
207 228 255
207 228 255
208 228 255
208 228 255
208 228 255
208 228 255
208 228 255
208 228 255
208 228 255
208 228 255
208 228 255
208 228 255
208 228 255
208 228 255
208 228 255
208 228 255
208 228 255
208 228 255
208 228 255
208 228 255
208 228 255
208 228 255
209 228 255
209 228 255
209 229 255
209 229 255
209 229 255
209 229 255
209 229 255
209 229 255
209 229 255
209 229 255
209 229 255
209 229 255
209 229 255
209 229 255
209 229 255
209 229 255
209 229 255
209 229 255
209 229 255
209 229 255
209 229 255
210 229 255
209 229 255
209 229 255
209 229 255
209 229 255
209 229 255
209 229 255
209 229 255
209 229 255
209 229 255
209 229 255
209 229 255
209 229 255
209 229 255
209 229 255
209 229 255
209 229 255
209 229 255
209 229 255
209 229 255
209 229 255
209 229 255
209 229 255
209 228 255
208 228 255
208 228 255
208 228 255
208 228 255
208 228 255
208 228 255
208 228 255
208 228 255
208 228 255
208 228 255
208 228 255
208 228 255
208 228 255
208 228 255
208 228 255
208 228 255
208 228 255
208 228 255
208 228 255
208 228 255
207 228 255
207 228 255
207 228 255
207 228 255
207 228 255
207 228 255
207 228 255
207 228 255
207 228 255
207 228 255
207 228 255
207 228 255
207 228 255
207 228 255
207 227 255
207 227 255
207 227 255
207 227 255
207 227 255
206 227 255
206 227 255
206 227 255
206 227 255
206 227 255
206 227 255
206 227 255
206 227 255
206 227 255
206 227 255
206 227 255
206 227 255
206 227 255
206 227 255
206 227 255
206 227 255
206 227 255
205 227 255
205 227 255
205 227 255
205 227 255
205 227 255
205 227 255
205 227 255
205 227 255
205 227 255
205 227 255
205 226 255
205 226 255
205 226 255
205 226 255
205 226 255
205 226 255
204 226 255
204 226 255
204 226 255
204 226 255
204 226 255
204 226 255
204 226 255
204 226 255
204 226 255
204 226 255
204 226 255
204 226 255
204 226 255
204 226 255
204 226 255
204 226 255
203 226 255
203 226 255
203 226 255
203 226 255
203 226 255
203 226 255
203 226 255
203 225 255
203 225 255
203 225 255
203 225 255
203 225 255
203 225 255
203 225 255
203 225 255
203 225 255
202 225 255
202 225 255
202 225 255
202 225 255
202 225 255
202 225 255
202 225 255
202 225 255
202 225 255
202 225 255
202 225 255
202 225 255
202 225 255
202 225 255
202 225 255
202 225 255
202 225 255
202 225 255
201 225 255
201 225 255
201 225 255
201 225 255
201 225 255
201 224 255
201 224 255
201 224 255
201 224 255
201 224 255
201 224 255
201 224 255
201 224 255
201 224 255
201 224 255
201 224 255
201 224 255
201 224 255
201 224 255
201 224 255
201 224 255
200 224 255
200 224 255
200 224 255
200 224 255
200 224 255
200 224 255
200 224 255
200 224 255
200 224 255
200 224 255
200 224 255
200 224 255
200 224 255
200 224 255
200 224 255
200 224 255
200 224 255
200 224 255
200 224 255
200 224 255
200 224 255
200 224 255
200 224 255
200 224 255
200 224 255
200 224 255
200 224 255
200 224 255
200 224 255
200 224 255
200 224 255
200 224 255
200 224 255
200 224 255
200 224 255
200 224 255
200 224 255
200 224 255
200 224 255
200 224 255
200 224 255
200 224 255
200 224 255
200 224 255
200 224 255
200 224 255
200 224 255
200 224 255
200 224 255
200 224 255
200 224 255
200 224 255
200 224 255
200 224 255
200 224 255
200 224 255
200 224 255
200 224 255
200 224 255
200 224 255
200 224 255
200 224 255
200 224 255
200 224 255
200 224 255
201 224 255
201 224 255
201 224 255
201 224 255
201 224 255
201 224 255
201 224 255
201 224 255
201 224 255
201 224 255
201 224 255
201 224 255
201 224 255
201 224 255
201 224 255
201 224 255
201 224 255
201 225 255
201 225 255
201 225 255
201 225 255
201 225 255
202 225 255
202 225 255
202 225 255
202 225 255
202 225 255
202 225 255
202 225 255
202 225 255
202 225 255
202 225 255
202 225 255
202 225 255
202 225 255
202 225 255
202 225 255
202 225 255
202 225 255
202 225 255
203 225 255
203 225 255
203 225 255
203 225 255
203 225 255
203 225 255
203 225 255
203 225 255
203 225 255
203 226 255
203 226 255
203 226 255
203 226 255
203 226 255
203 226 255
203 226 255
204 226 255
204 226 255
204 226 255
204 226 255
204 226 255
204 226 255
204 226 255
204 226 255
204 226 255
204 226 255
204 226 255
204 226 255
204 226 255
204 226 255
204 226 255
204 226 255
205 226 255
205 226 255
205 226 255
205 226 255
205 226 255
205 226 255
205 227 255
205 227 255
205 227 255
205 227 255
205 227 255
205 227 255
205 227 255
205 227 255
205 227 255
205 227 255
206 227 255
206 227 255
206 227 255
206 227 255
206 227 255
206 227 255
206 227 255
206 227 255
206 227 255
206 227 255
206 227 255
206 227 255
206 227 255
206 227 255
206 227 255
206 227 255
206 227 255
207 227 255
207 227 255
207 227 255
207 227 255
207 227 255
207 228 255
207 228 255
207 228 255
207 228 255
207 228 255
207 228 255
207 228 255
207 228 255
207 228 255
207 228 255
207 228 255
207 228 255
207 228 255
207 228 255
208 228 255
208 228 255
208 228 255
208 228 255
208 228 255
208 228 255
208 228 255
208 228 255
208 228 255
208 228 255
208 228 255
208 228 255
208 228 255
208 228 255
208 228 255
208 228 255
208 228 255
208 228 255
208 228 255
208 228 255
209 228 255
209 228 255
209 229 255
209 229 255
209 229 255
209 229 255
209 229 255
209 229 255
209 229 255
209 229 255
209 229 255
209 229 255
209 229 255
209 229 255
209 229 255
209 229 255
209 229 255
209 229 255
209 229 255
209 229 255
209 229 255
209 229 255
209 229 255
210 229 255
210 229 255
210 229 255
210 229 255
210 229 255
210 229 255
209 229 255
209 229 255
209 229 255
209 229 255
209 229 255
209 229 255
209 229 255
209 229 255
209 229 255
209 229 255
209 229 255
209 229 255
209 229 255
209 229 255
209 229 255
209 229 255
209 229 255
209 229 255
209 229 255
209 229 255
209 229 255
209 228 255
208 228 255
208 228 255
208 228 255
208 228 255
208 228 255
208 228 255
208 228 255
208 228 255
208 228 255
208 228 255
208 228 255
208 228 255
208 228 255
208 228 255
208 228 255
208 228 255
208 228 255
208 228 255
208 228 255
208 228 255
207 228 255
207 228 255
207 228 255
207 228 255
207 228 255
207 228 255
207 228 255
207 228 255
207 228 255
207 228 255
207 228 255
207 228 255
207 228 255
207 228 255
207 227 255
207 227 255
207 227 255
207 227 255
207 227 255
206 227 255
206 227 255
206 227 255
206 227 255
206 227 255
206 227 255
206 227 255
206 227 255
206 227 255
206 227 255
206 227 255
206 227 255
206 227 255
206 227 255
206 227 255
206 227 255
206 227 255
205 227 255
205 227 255
205 227 255
205 227 255
205 227 255
205 227 255
205 227 255
205 227 255
205 227 255
205 227 255
205 226 255
205 226 255
205 226 255
205 226 255
205 226 255
205 226 255
204 226 255
204 226 255
204 226 255
204 226 255
204 226 255
204 226 255
204 226 255
204 226 255
204 226 255
204 226 255
204 226 255
204 226 255
204 226 255
204 226 255
204 226 255
204 226 255
203 226 255
203 226 255
203 226 255
203 226 255
203 226 255
203 226 255
203 226 255
203 225 255
203 225 255
203 225 255
203 225 255
203 225 255
203 225 255
203 225 255
203 225 255
203 225 255
203 225 255
202 225 255
202 225 255
202 225 255
202 225 255
202 225 255
202 225 255
202 225 255
202 225 255
202 225 255
202 225 255
202 225 255
202 225 255
202 225 255
202 225 255
202 225 255
202 225 255
202 225 255
201 225 255
201 225 255
201 225 255
201 225 255
201 225 255
201 225 255
201 225 255
201 224 255
201 224 255
201 224 255
201 224 255
201 224 255
201 224 255
201 224 255
201 224 255
201 224 255
201 224 255
201 224 255
201 224 255
201 224 255
201 224 255
201 224 255
201 224 255
201 224 255
200 224 255
200 224 255
200 224 255
200 224 255
200 224 255
200 224 255
200 224 255
200 224 255
200 224 255
200 224 255
200 224 255
200 224 255
200 224 255
200 224 255
200 224 255
200 224 255
200 224 255
200 224 255
200 224 255
200 224 255
200 224 255
200 224 255
200 224 255
200 224 255
200 224 255
200 224 255
200 224 255
200 224 255
200 224 255
200 224 255
200 224 255
200 224 255
200 224 255
200 224 255
200 224 255
200 224 255
200 224 255
200 224 255
200 224 255
200 224 255
200 224 255
200 224 255
200 224 255
200 224 255
200 224 255
200 224 255
200 224 255
200 224 255
200 224 255
200 224 255
200 224 255
200 224 255
200 224 255
200 224 255
201 224 255
201 224 255
201 224 255
201 224 255
201 224 255
201 224 255
201 224 255
201 224 255
201 224 255
201 224 255
201 224 255
201 224 255
201 224 255
201 224 255
201 224 255
201 224 255
201 224 255
201 225 255
201 225 255
201 225 255
201 225 255
201 225 255
201 225 255
201 225 255
202 225 255
202 225 255
202 225 255
202 225 255
202 225 255
202 225 255
202 225 255
202 225 255
202 225 255
202 225 255
202 225 255
202 225 255
202 225 255
202 225 255
202 225 255
202 225 255
202 225 255
203 225 255
203 225 255
203 225 255
203 225 255
203 225 255
203 225 255
203 225 255
203 225 255
203 225 255
203 225 255
203 226 255
203 226 255
203 226 255
203 226 255
203 226 255
203 226 255
203 226 255
204 226 255
204 226 255
204 226 255
204 226 255
204 226 255
204 226 255
204 226 255
204 226 255
204 226 255
204 226 255
204 226 255
204 226 255
204 226 255
204 226 255
204 226 255
204 226 255
205 226 255
205 226 255
205 226 255
205 226 255
205 226 255
205 226 255
205 227 255
205 227 255
205 227 255
205 227 255
205 227 255
205 227 255
205 227 255
205 227 255
205 227 255
205 227 255
206 227 255
206 227 255
206 227 255
206 227 255
206 227 255
206 227 255
206 227 255
206 227 255
206 227 255
206 227 255
206 227 255
206 227 255
206 227 255
206 227 255
206 227 255
206 227 255
206 227 255
207 227 255
207 227 255
207 227 255
207 227 255
207 228 255
207 228 255
207 228 255
207 228 255
207 228 255
207 228 255
207 228 255
207 228 255
207 228 255
207 228 255
207 228 255
207 228 255
207 228 255
207 228 255
207 228 255
208 228 255
208 228 255
208 228 255
208 228 255
208 228 255
208 228 255
208 228 255
208 228 255
208 228 255
208 228 255
208 228 255
208 228 255
208 228 255
208 228 255
208 228 255
208 228 255
208 228 255
208 228 255
208 228 255
208 228 255
209 228 255
209 229 255
209 229 255
209 229 255
209 229 255
209 229 255
209 229 255
209 229 255
209 229 255
209 229 255
209 229 255
209 229 255
209 229 255
209 229 255
209 229 255
209 229 255
209 229 255
209 229 255
209 229 255
209 229 255
209 229 255
209 229 255
210 229 255
210 229 255
210 229 255
210 229 255
210 229 255
210 229 255
210 229 255
210 229 255
210 229 255
210 229 255
210 229 255
210 229 255
210 229 255
210 229 255
209 229 255
209 229 255
209 229 255
209 229 255
209 229 255
209 229 255
209 229 255
209 229 255
209 229 255
209 229 255
209 229 255
209 229 255
209 229 255
209 229 255
209 229 255
209 229 255
209 229 255
209 229 255
209 229 255
209 229 255
209 228 255
209 228 255
208 228 255
208 228 255
208 228 255
208 228 255
208 228 255
208 228 255
208 228 255
208 228 255
208 228 255
208 228 255
208 228 255
208 228 255
208 228 255
208 228 255
208 228 255
208 228 255
208 228 255
208 228 255
208 228 255
208 228 255
207 228 255
207 228 255
207 228 255
207 228 255
207 228 255
207 228 255
207 228 255
207 228 255
207 228 255
207 228 255
207 228 255
207 228 255
207 228 255
207 228 255
207 227 255
207 227 255
207 227 255
207 227 255
206 227 255
206 227 255
206 227 255
206 227 255
206 227 255
206 227 255
206 227 255
206 227 255
206 227 255
206 227 255
206 227 255
206 227 255
206 227 255
206 227 255
206 227 255
206 227 255
206 227 255
205 227 255
205 227 255
205 227 255
205 227 255
205 227 255
205 227 255
205 227 255
205 227 255
205 227 255
205 227 255
205 226 255
205 226 255
205 226 255
205 226 255
205 226 255
205 226 255
204 226 255
204 226 255
204 226 255
204 226 255
204 226 255
204 226 255
204 226 255
204 226 255
204 226 255
204 226 255
204 226 255
204 226 255
204 226 255
204 226 255
204 226 255
204 226 255
203 226 255
203 226 255
203 226 255
203 226 255
203 226 255
203 226 255
203 226 255
203 226 255
203 225 255
203 225 255
203 225 255
203 225 255
203 225 255
203 225 255
203 225 255
203 225 255
203 225 255
202 225 255
202 225 255
202 225 255
202 225 255
202 225 255
202 225 255
202 225 255
202 225 255
202 225 255
202 225 255
202 225 255
202 225 255
202 225 255
202 225 255
202 225 255
202 225 255
202 225 255
202 225 255
202 225 255
201 225 255
201 225 255
201 225 255
201 225 255
201 225 255
201 225 255
201 224 255
201 224 255
201 224 255
201 224 255
201 224 255
201 224 255
201 224 255
201 224 255
201 224 255
201 224 255
201 224 255
201 224 255
201 224 255
201 224 255
201 224 255
201 224 255
201 224 255
201 224 255
201 224 255
201 224 255
201 224 255
201 224 255
200 224 255
200 224 255
200 224 255
200 224 255
200 224 255
200 224 255
200 224 255
200 224 255
200 224 255
200 224 255
200 224 255
200 224 255
200 224 255
200 224 255
200 224 255
200 224 255
200 224 255
200 224 255
200 224 255
200 224 255
200 224 255
200 224 255
200 224 255
200 224 255
200 224 255
200 224 255
200 224 255
200 224 255
200 224 255
200 224 255
200 224 255
200 224 255
200 224 255
200 224 255
200 224 255
200 224 255
200 224 255
201 224 255
201 224 255
201 224 255
201 224 255
201 224 255
201 224 255
201 224 255
201 224 255
201 224 255
201 224 255
201 224 255
201 224 255
201 224 255
201 224 255
201 224 255
201 224 255
201 224 255
201 224 255
201 224 255
201 224 255
201 224 255
201 225 255
201 225 255
201 225 255
201 225 255
201 225 255
201 225 255
202 225 255
202 225 255
202 225 255
202 225 255
202 225 255
202 225 255
202 225 255
202 225 255
202 225 255
202 225 255
202 225 255
202 225 255
202 225 255
202 225 255
202 225 255
202 225 255
202 225 255
202 225 255
202 225 255
203 225 255
203 225 255
203 225 255
203 225 255
203 225 255
203 225 255
203 225 255
203 225 255
203 225 255
203 226 255
203 226 255
203 226 255
203 226 255
203 226 255
203 226 255
203 226 255
203 226 255
204 226 255
204 226 255
204 226 255
204 226 255
204 226 255
204 226 255
204 226 255
204 226 255
204 226 255
204 226 255
204 226 255
204 226 255
204 226 255
204 226 255
204 226 255
204 226 255
205 226 255
205 226 255
205 226 255
205 226 255
205 226 255
205 226 255
205 227 255
205 227 255
205 227 255
205 227 255
205 227 255
205 227 255
205 227 255
205 227 255
205 227 255
205 227 255
206 227 255
206 227 255
206 227 255
206 227 255
206 227 255
206 227 255
206 227 255
206 227 255
206 227 255
206 227 255
206 227 255
206 227 255
206 227 255
206 227 255
206 227 255
206 227 255
206 227 255
207 227 255
207 227 255
207 227 255
207 227 255
207 228 255
207 228 255
207 228 255
207 228 255
207 228 255
207 228 255
207 228 255
207 228 255
207 228 255
207 228 255
207 228 255
207 228 255
207 228 255
207 228 255
208 228 255
208 228 255
208 228 255
208 228 255
208 228 255
208 228 255
208 228 255
208 228 255
208 228 255
208 228 255
208 228 255
208 228 255
208 228 255
208 228 255
208 228 255
208 228 255
208 228 255
208 228 255
208 228 255
208 228 255
209 228 255
209 228 255
209 229 255
209 229 255
209 229 255
209 229 255
209 229 255
209 229 255
209 229 255
209 229 255
209 229 255
209 229 255
209 229 255
209 229 255
209 229 255
209 229 255
209 229 255
209 229 255
209 229 255
209 229 255
209 229 255
209 229 255
210 229 255
210 229 255
210 229 255
210 229 255
210 229 255
210 229 255
210 229 255
210 229 255
210 229 255
210 229 255
210 229 255
210 229 255
210 229 255
210 229 255
210 229 255
210 229 255
210 229 255
210 229 255
210 229 255
210 229 255
210 229 255
209 229 255
209 229 255
209 229 255
209 229 255
209 229 255
209 229 255
209 229 255
209 229 255
209 229 255
209 229 255
209 229 255
209 229 255
209 229 255
209 229 255
209 229 255
209 229 255
209 229 255
209 229 255
209 229 255
209 229 255
209 229 255
209 228 255
208 228 255
208 228 255
208 228 255
208 228 255
208 228 255
208 228 255
208 228 255
208 228 255
208 228 255
208 228 255
208 228 255
208 228 255
208 228 255
208 228 255
208 228 255
208 228 255
208 228 255
208 228 255
208 228 255
208 228 255
207 228 255
207 228 255
207 228 255
207 228 255
207 228 255
207 228 255
207 228 255
207 228 255
207 228 255
207 228 255
207 228 255
207 228 255
207 228 255
207 228 255
207 227 255
207 227 255
207 227 255
207 227 255
206 227 255
206 227 255
206 227 255
206 227 255
206 227 255
206 227 255
206 227 255
206 227 255
206 227 255
206 227 255
206 227 255
206 227 255
206 227 255
206 227 255
206 227 255
206 227 255
206 227 255
205 227 255
205 227 255
205 227 255
205 227 255
205 227 255
205 227 255
205 227 255
205 227 255
205 227 255
205 227 255
205 226 255
205 226 255
205 226 255
205 226 255
205 226 255
205 226 255
204 226 255
204 226 255
204 226 255
204 226 255
204 226 255
204 226 255
204 226 255
204 226 255
204 226 255
204 226 255
204 226 255
204 226 255
204 226 255
204 226 255
204 226 255
204 226 255
204 226 255
203 226 255
203 226 255
203 226 255
203 226 255
203 226 255
203 226 255
203 226 255
203 225 255
203 225 255
203 225 255
203 225 255
203 225 255
203 225 255
203 225 255
203 225 255
203 225 255
203 225 255
202 225 255
202 225 255
202 225 255
202 225 255
202 225 255
202 225 255
202 225 255
202 225 255
202 225 255
202 225 255
202 225 255
202 225 255
202 225 255
202 225 255
202 225 255
202 225 255
202 225 255
202 225 255
202 225 255
201 225 255
201 225 255
201 225 255
201 225 255
201 225 255
201 225 255
201 225 255
201 225 255
201 224 255
201 224 255
201 224 255
201 224 255
201 224 255
201 224 255
201 224 255
201 224 255
201 224 255
201 224 255
201 224 255
201 224 255
201 224 255
201 224 255
201 224 255
201 224 255
201 224 255
201 224 255
201 224 255
201 224 255
201 224 255
201 224 255
201 224 255
201 224 255
201 224 255
201 224 255
201 224 255
201 224 255
201 224 255
201 224 255
201 224 255
201 224 255
201 224 255
201 224 255
201 224 255
201 224 255
201 224 255
201 224 255
201 224 255
201 224 255
201 224 255
201 224 255
201 224 255
201 224 255
201 224 255
201 224 255
201 224 255
201 224 255
201 224 255
201 224 255
201 224 255
201 224 255
201 224 255
201 224 255
201 224 255
201 224 255
201 224 255
201 224 255
201 224 255
201 224 255
201 224 255
201 224 255
201 224 255
201 224 255
201 224 255
201 224 255
201 224 255
201 224 255
201 225 255
201 225 255
201 225 255
201 225 255
201 225 255
201 225 255
201 225 255
202 225 255
202 225 255
202 225 255
202 225 255
202 225 255
202 225 255
202 225 255
202 225 255
202 225 255
202 225 255
202 225 255
202 225 255
202 225 255
202 225 255
202 225 255
202 225 255
202 225 255
202 225 255
202 225 255
202 225 255
203 225 255
203 225 255
203 225 255
203 225 255
203 225 255
203 225 255
203 225 255
203 225 255
203 225 255
203 225 255
203 226 255
203 226 255
203 226 255
203 226 255
203 226 255
203 226 255
203 226 255
204 226 255
204 226 255
204 226 255
204 226 255
204 226 255
204 226 255
204 226 255
204 226 255
204 226 255
204 226 255
204 226 255
204 226 255
204 226 255
204 226 255
204 226 255
204 226 255
204 226 255
205 226 255
205 226 255
205 226 255
205 226 255
205 226 255
205 226 255
205 227 255
205 227 255
205 227 255
205 227 255
205 227 255
205 227 255
205 227 255
205 227 255
205 227 255
205 227 255
206 227 255
206 227 255
206 227 255
206 227 255
206 227 255
206 227 255
206 227 255
206 227 255
206 227 255
206 227 255
206 227 255
206 227 255
206 227 255
206 227 255
206 227 255
206 227 255
206 227 255
207 227 255
207 227 255
207 227 255
207 227 255
207 228 255
207 228 255
207 228 255
207 228 255
207 228 255
207 228 255
207 228 255
207 228 255
207 228 255
207 228 255
207 228 255
207 228 255
207 228 255
207 228 255
208 228 255
208 228 255
208 228 255
208 228 255
208 228 255
208 228 255
208 228 255
208 228 255
208 228 255
208 228 255
208 228 255
208 228 255
208 228 255
208 228 255
208 228 255
208 228 255
208 228 255
208 228 255
208 228 255
208 228 255
209 228 255
209 229 255
209 229 255
209 229 255
209 229 255
209 229 255
209 229 255
209 229 255
209 229 255
209 229 255
209 229 255
209 229 255
209 229 255
209 229 255
209 229 255
209 229 255
209 229 255
209 229 255
209 229 255
209 229 255
209 229 255
209 229 255
210 229 255
210 229 255
210 229 255
210 229 255
210 229 255
210 229 255
210 229 255
210 229 255
210 229 255
210 229 255
210 229 255
210 229 255
210 229 255
210 229 255
210 229 255
210 229 255
210 229 255
210 229 255
210 229 255
210 229 255
210 229 255
210 229 255
210 229 255
210 229 255
210 229 255
210 229 255
210 229 255
210 229 255
209 229 255
209 229 255
209 229 255
209 229 255
209 229 255
209 229 255
209 229 255
209 229 255
209 229 255
209 229 255
209 229 255
209 229 255
209 229 255
209 229 255
209 229 255
209 229 255
209 229 255
209 229 255
209 229 255
209 229 255
209 228 255
209 228 255
208 228 255
208 228 255
208 228 255
208 228 255
208 228 255
208 228 255
208 228 255
208 228 255
208 228 255
208 228 255
208 228 255
208 228 255
208 228 255
208 228 255
208 228 255
208 228 255
208 228 255
208 228 255
208 228 255
207 228 255
207 228 255
207 228 255
207 228 255
207 228 255
207 228 255
207 228 255
207 228 255
207 228 255
207 228 255
207 228 255
207 228 255
207 228 255
207 228 255
207 227 255
207 227 255
207 227 255
207 227 255
206 227 255
206 227 255
206 227 255
206 227 255
206 227 255
206 227 255
206 227 255
206 227 255
206 227 255
206 227 255
206 227 255
206 227 255
206 227 255
206 227 255
206 227 255
206 227 255
206 227 255
205 227 255
205 227 255
205 227 255
205 227 255
205 227 255
205 227 255
205 227 255
205 227 255
205 227 255
205 227 255
205 226 255
205 226 255
205 226 255
205 226 255
205 226 255
205 226 255
205 226 255
204 226 255
204 226 255
204 226 255
204 226 255
204 226 255
204 226 255
204 226 255
204 226 255
204 226 255
204 226 255
204 226 255
204 226 255
204 226 255
204 226 255
204 226 255
204 226 255
203 226 255
203 226 255
203 226 255
203 226 255
203 226 255
203 226 255
203 226 255
203 226 255
203 225 255
203 225 255
203 225 255
203 225 255
203 225 255
203 225 255
203 225 255
203 225 255
203 225 255
203 225 255
202 225 255
202 225 255
202 225 255
202 225 255
202 225 255
202 225 255
202 225 255
202 225 255
202 225 255
202 225 255
202 225 255
202 225 255
202 225 255
202 225 255
202 225 255
202 225 255
202 225 255
202 225 255
202 225 255
202 225 255
202 225 255
201 225 255
201 225 255
201 225 255
201 225 255
201 225 255
201 225 255
201 225 255
201 225 255
201 224 255
201 224 255
201 224 255
201 224 255
201 224 255
201 224 255
201 224 255
201 224 255
201 224 255
201 224 255
201 224 255
201 224 255
201 224 255
201 224 255
201 224 255
201 224 255
201 224 255
201 224 255
201 224 255
201 224 255
201 224 255
201 224 255
201 224 255
201 224 255
201 224 255
201 224 255
201 224 255
201 224 255
201 224 255
201 224 255
201 224 255
201 224 255
201 224 255
201 224 255
201 224 255
201 224 255
201 224 255
201 224 255
201 224 255
201 224 255
201 224 255
201 224 255
201 224 255
201 224 255
201 224 255
201 224 255
201 224 255
201 224 255
201 224 255
201 224 255
201 224 255
201 224 255
201 224 255
201 224 255
201 224 255
201 224 255
201 225 255
201 225 255
201 225 255
201 225 255
201 225 255
201 225 255
201 225 255
201 225 255
201 225 255
202 225 255
202 225 255
202 225 255
202 225 255
202 225 255
202 225 255
202 225 255
202 225 255
202 225 255
202 225 255
202 225 255
202 225 255
202 225 255
202 225 255
202 225 255
202 225 255
202 225 255
202 225 255
202 225 255
202 225 255
203 225 255
203 225 255
203 225 255
203 225 255
203 225 255
203 225 255
203 225 255
203 225 255
203 225 255
203 225 255
203 226 255
203 226 255
203 226 255
203 226 255
203 226 255
203 226 255
203 226 255
203 226 255
204 226 255
204 226 255
204 226 255
204 226 255
204 226 255
204 226 255
204 226 255
204 226 255
204 226 255
204 226 255
204 226 255
204 226 255
204 226 255
204 226 255
204 226 255
204 226 255
205 226 255
205 226 255
205 226 255
205 226 255
205 226 255
205 226 255
205 226 255
205 227 255
205 227 255
205 227 255
205 227 255
205 227 255
205 227 255
205 227 255
205 227 255
205 227 255
206 227 255
206 227 255
206 227 255
206 227 255
206 227 255
206 227 255
206 227 255
206 227 255
206 227 255
206 227 255
206 227 255
206 227 255
206 227 255
206 227 255
206 227 255
206 227 255
206 227 255
206 227 255
207 227 255
207 227 255
207 227 255
207 227 255
207 228 255
207 228 255
207 228 255
207 228 255
207 228 255
207 228 255
207 228 255
207 228 255
207 228 255
207 228 255
207 228 255
207 228 255
207 228 255
207 228 255
208 228 255
208 228 255
208 228 255
208 228 255
208 228 255
208 228 255
208 228 255
208 228 255
208 228 255
208 228 255
208 228 255
208 228 255
208 228 255
208 228 255
208 228 255
208 228 255
208 228 255
208 228 255
208 228 255
209 228 255
209 228 255
209 229 255
209 229 255
209 229 255
209 229 255
209 229 255
209 229 255
209 229 255
209 229 255
209 229 255
209 229 255
209 229 255
209 229 255
209 229 255
209 229 255
209 229 255
209 229 255
209 229 255
209 229 255
209 229 255
209 229 255
210 229 255
210 229 255
210 229 255
210 229 255
210 229 255
210 229 255
210 229 255
210 229 255
210 229 255
210 229 255
210 229 255
210 229 255
210 229 255
210 229 255
210 229 255
210 229 255
210 229 255
210 229 255
210 229 255
210 229 255
210 229 255
210 229 255
210 229 255
210 229 255
210 229 255
210 229 255
210 229 255
210 229 255
210 229 255
210 229 255
210 229 255
210 229 255
210 229 255
210 229 255
210 229 255
209 229 255
209 229 255
209 229 255
209 229 255
209 229 255
209 229 255
209 229 255
209 229 255
209 229 255
209 229 255
209 229 255
209 229 255
209 229 255
209 229 255
209 229 255
209 229 255
209 229 255
209 229 255
209 229 255
209 229 255
209 229 255
209 228 255
208 228 255
208 228 255
208 228 255
208 228 255
208 228 255
208 228 255
208 228 255
208 228 255
208 228 255
208 228 255
208 228 255
208 228 255
208 228 255
208 228 255
208 228 255
208 228 255
208 228 255
208 228 255
208 228 255
208 228 255
207 228 255
207 228 255
207 228 255
207 228 255
207 228 255
207 228 255
207 228 255
207 228 255
207 228 255
207 228 255
207 228 255
207 228 255
207 228 255
207 227 255
207 227 255
207 227 255
207 227 255
207 227 255
206 227 255
206 227 255
206 227 255
206 227 255
206 227 255
206 227 255
206 227 255
206 227 255
206 227 255
206 227 255
206 227 255
206 227 255
206 227 255
206 227 255
206 227 255
206 227 255
206 227 255
205 227 255
205 227 255
205 227 255
205 227 255
205 227 255
205 227 255
205 227 255
205 227 255
205 227 255
205 226 255
205 226 255
205 226 255
205 226 255
205 226 255
205 226 255
205 226 255
204 226 255
204 226 255
204 226 255
204 226 255
204 226 255
204 226 255
204 226 255
204 226 255
204 226 255
204 226 255
204 226 255
204 226 255
204 226 255
204 226 255
204 226 255
204 226 255
204 226 255
203 226 255
203 226 255
203 226 255
203 226 255
203 226 255
203 226 255
203 226 255
203 225 255
203 225 255
203 225 255
203 225 255
203 225 255
203 225 255
203 225 255
203 225 255
203 225 255
203 225 255
203 225 255
202 225 255
202 225 255
202 225 255
202 225 255
202 225 255
202 225 255
202 225 255
202 225 255
202 225 255
202 225 255
202 225 255
202 225 255
202 225 255
202 225 255
202 225 255
202 225 255
202 225 255
202 225 255
202 225 255
202 225 255
202 225 255
202 225 255
202 225 255
201 225 255
201 225 255
201 225 255
201 225 255
201 225 255
201 225 255
201 225 255
201 225 255
201 225 255
201 225 255
201 224 255
201 224 255
201 224 255
201 224 255
201 224 255
201 224 255
201 224 255
201 224 255
201 224 255
201 224 255
201 224 255
201 224 255
201 224 255
201 224 255
201 224 255
201 224 255
201 224 255
201 224 255
201 224 255
201 224 255
201 224 255
201 224 255
201 224 255
201 224 255
201 224 255
201 224 255
201 224 255
201 224 255
201 224 255
201 224 255
201 224 255
201 224 255
201 224 255
201 224 255
201 224 255
201 224 255
201 224 255
201 224 255
201 224 255
201 224 255
201 225 255
201 225 255
201 225 255
201 225 255
201 225 255
201 225 255
201 225 255
201 225 255
201 225 255
201 225 255
202 225 255
202 225 255
202 225 255
202 225 255
202 225 255
202 225 255
202 225 255
202 225 255
202 225 255
202 225 255
202 225 255
202 225 255
202 225 255
202 225 255
202 225 255
202 225 255
202 225 255
202 225 255
202 225 255
202 225 255
202 225 255
202 225 255
202 225 255
203 225 255
203 225 255
203 225 255
203 225 255
203 225 255
203 225 255
203 225 255
203 225 255
203 225 255
203 225 255
203 226 255
203 226 255
203 226 255
203 226 255
203 226 255
203 226 255
203 226 255
203 226 255
204 226 255
204 226 255
204 226 255
204 226 255
204 226 255
204 226 255
204 226 255
204 226 255
204 226 255
204 226 255
204 226 255
204 226 255
204 226 255
204 226 255
204 226 255
204 226 255
204 226 255
205 226 255
205 226 255
205 226 255
205 226 255
205 226 255
205 226 255
205 226 255
205 227 255
205 227 255
205 227 255
205 227 255
205 227 255
205 227 255
205 227 255
205 227 255
205 227 255
206 227 255
206 227 255
206 227 255
206 227 255
206 227 255
206 227 255
206 227 255
206 227 255
206 227 255
206 227 255
206 227 255
206 227 255
206 227 255
206 227 255
206 227 255
206 227 255
206 227 255
207 227 255
207 227 255
207 227 255
207 227 255
207 227 255
207 228 255
207 228 255
207 228 255
207 228 255
207 228 255
207 228 255
207 228 255
207 228 255
207 228 255
207 228 255
207 228 255
207 228 255
207 228 255
208 228 255
208 228 255
208 228 255
208 228 255
208 228 255
208 228 255
208 228 255
208 228 255
208 228 255
208 228 255
208 228 255
208 228 255
208 228 255
208 228 255
208 228 255
208 228 255
208 228 255
208 228 255
208 228 255
208 228 255
209 228 255
209 229 255
209 229 255
209 229 255
209 229 255
209 229 255
209 229 255
209 229 255
209 229 255
209 229 255
209 229 255
209 229 255
209 229 255
209 229 255
209 229 255
209 229 255
209 229 255
209 229 255
209 229 255
209 229 255
209 229 255
209 229 255
210 229 255
210 229 255
210 229 255
210 229 255
210 229 255
210 229 255
210 229 255
210 229 255
210 229 255
210 229 255
210 229 255
210 229 255
210 229 255
210 229 255
210 229 255
210 229 255
210 229 255
210 229 255
210 229 255
210 230 255
210 229 255
210 229 255
210 229 255
210 229 255
210 229 255
210 229 255
210 229 255
210 229 255
210 229 255
210 229 255
210 229 255
210 229 255
210 229 255
210 229 255
210 229 255
210 229 255
210 229 255
210 229 255
210 229 255
210 229 255
210 229 255
210 229 255
209 229 255
209 229 255
209 229 255
209 229 255
209 229 255
209 229 255
209 229 255
209 229 255
209 229 255
209 229 255
209 229 255
209 229 255
209 229 255
209 229 255
209 229 255
209 229 255
209 229 255
209 229 255
209 229 255
209 229 255
209 228 255
209 228 255
208 228 255
208 228 255
208 228 255
208 228 255
208 228 255
208 228 255
208 228 255
208 228 255
208 228 255
208 228 255
208 228 255
208 228 255
208 228 255
208 228 255
208 228 255
208 228 255
208 228 255
208 228 255
208 228 255
207 228 255
207 228 255
207 228 255
207 228 255
207 228 255
207 228 255
207 228 255
207 228 255
207 228 255
207 228 255
207 228 255
207 228 255
207 228 255
207 228 255
207 227 255
207 227 255
207 227 255
207 227 255
206 227 255
206 227 255
206 227 255
206 227 255
206 227 255
206 227 255
206 227 255
206 227 255
206 227 255
206 227 255
206 227 255
206 227 255
206 227 255
206 227 255
206 227 255
206 227 255
206 227 255
205 227 255
205 227 255
205 227 255
205 227 255
205 227 255
205 227 255
205 227 255
205 227 255
205 227 255
205 227 255
205 226 255
205 226 255
205 226 255
205 226 255
205 226 255
205 226 255
204 226 255
204 226 255
204 226 255
204 226 255
204 226 255
204 226 255
204 226 255
204 226 255
204 226 255
204 226 255
204 226 255
204 226 255
204 226 255
204 226 255
204 226 255
204 226 255
204 226 255
203 226 255
203 226 255
203 226 255
203 226 255
203 226 255
203 226 255
203 226 255
203 226 255
203 225 255
203 225 255
203 225 255
203 225 255
203 225 255
203 225 255
203 225 255
203 225 255
203 225 255
203 225 255
203 225 255
202 225 255
202 225 255
202 225 255
202 225 255
202 225 255
202 225 255
202 225 255
202 225 255
202 225 255
202 225 255
202 225 255
202 225 255
202 225 255
202 225 255
202 225 255
202 225 255
202 225 255
202 225 255
202 225 255
202 225 255
202 225 255
202 225 255
202 225 255
202 225 255
202 225 255
202 225 255
201 225 255
201 225 255
201 225 255
201 225 255
201 225 255
201 225 255
201 225 255
201 225 255
201 225 255
201 225 255
201 225 255
201 225 255
201 225 255
201 225 255
201 225 255
201 225 255
201 225 255
201 224 255
201 224 255
201 224 255
201 224 255
201 224 255
201 224 255
201 224 255
201 224 255
201 224 255
201 224 255
201 224 255
201 224 255
201 225 255
201 225 255
201 225 255
201 225 255
201 225 255
201 225 255
201 225 255
201 225 255
201 225 255
201 225 255
201 225 255
201 225 255
201 225 255
201 225 255
201 225 255
201 225 255
201 225 255
202 225 255
202 225 255
202 225 255
202 225 255
202 225 255
202 225 255
202 225 255
202 225 255
202 225 255
202 225 255
202 225 255
202 225 255
202 225 255
202 225 255
202 225 255
202 225 255
202 225 255
202 225 255
202 225 255
202 225 255
202 225 255
202 225 255
202 225 255
202 225 255
202 225 255
202 225 255
203 225 255
203 225 255
203 225 255
203 225 255
203 225 255
203 225 255
203 225 255
203 225 255
203 225 255
203 225 255
203 225 255
203 226 255
203 226 255
203 226 255
203 226 255
203 226 255
203 226 255
203 226 255
203 226 255
204 226 255
204 226 255
204 226 255
204 226 255
204 226 255
204 226 255
204 226 255
204 226 255
204 226 255
204 226 255
204 226 255
204 226 255
204 226 255
204 226 255
204 226 255
204 226 255
204 226 255
205 226 255
205 226 255
205 226 255
205 226 255
205 226 255
205 226 255
205 227 255
205 227 255
205 227 255
205 227 255
205 227 255
205 227 255
205 227 255
205 227 255
205 227 255
205 227 255
206 227 255
206 227 255
206 227 255
206 227 255
206 227 255
206 227 255
206 227 255
206 227 255
206 227 255
206 227 255
206 227 255
206 227 255
206 227 255
206 227 255
206 227 255
206 227 255
206 227 255
207 227 255
207 227 255
207 227 255
207 227 255
207 228 255
207 228 255
207 228 255
207 228 255
207 228 255
207 228 255
207 228 255
207 228 255
207 228 255
207 228 255
207 228 255
207 228 255
207 228 255
207 228 255
208 228 255
208 228 255
208 228 255
208 228 255
208 228 255
208 228 255
208 228 255
208 228 255
208 228 255
208 228 255
208 228 255
208 228 255
208 228 255
208 228 255
208 228 255
208 228 255
208 228 255
208 228 255
208 228 255
208 228 255
209 228 255
209 229 255
209 229 255
209 229 255
209 229 255
209 229 255
209 229 255
209 229 255
209 229 255
209 229 255
209 229 255
209 229 255
209 229 255
209 229 255
209 229 255
209 229 255
209 229 255
209 229 255
209 229 255
209 229 255
209 229 255
210 229 255
210 229 255
210 229 255
210 229 255
210 229 255
210 229 255
210 229 255
210 229 255
210 229 255
210 229 255
210 229 255
210 229 255
210 229 255
210 229 255
210 229 255
210 229 255
210 229 255
210 229 255
210 229 255
210 229 255
210 229 255
210 229 255
210 230 255
211 230 255
211 230 255
210 230 255
210 230 255
210 230 255
210 229 255
210 229 255
210 229 255
210 229 255
210 229 255
210 229 255
210 229 255
210 229 255
210 229 255
210 229 255
210 229 255
210 229 255
210 229 255
210 229 255
210 229 255
210 229 255
210 229 255
210 229 255
210 229 255
210 229 255
210 229 255
210 229 255
209 229 255
209 229 255
209 229 255
209 229 255
209 229 255
209 229 255
209 229 255
209 229 255
209 229 255
209 229 255
209 229 255
209 229 255
209 229 255
209 229 255
209 229 255
209 229 255
209 229 255
209 229 255
209 229 255
209 229 255
209 228 255
208 228 255
208 228 255
208 228 255
208 228 255
208 228 255
208 228 255
208 228 255
208 228 255
208 228 255
208 228 255
208 228 255
208 228 255
208 228 255
208 228 255
208 228 255
208 228 255
208 228 255
208 228 255
208 228 255
207 228 255
207 228 255
207 228 255
207 228 255
207 228 255
207 228 255
207 228 255
207 228 255
207 228 255
207 228 255
207 228 255
207 228 255
207 228 255
207 228 255
207 227 255
207 227 255
207 227 255
207 227 255
206 227 255
206 227 255
206 227 255
206 227 255
206 227 255
206 227 255
206 227 255
206 227 255
206 227 255
206 227 255
206 227 255
206 227 255
206 227 255
206 227 255
206 227 255
206 227 255
206 227 255
205 227 255
205 227 255
205 227 255
205 227 255
205 227 255
205 227 255
205 227 255
205 227 255
205 227 255
205 227 255
205 226 255
205 226 255
205 226 255
205 226 255
205 226 255
205 226 255
205 226 255
204 226 255
204 226 255
204 226 255
204 226 255
204 226 255
204 226 255
204 226 255
204 226 255
204 226 255
204 226 255
204 226 255
204 226 255
204 226 255
204 226 255
204 226 255
204 226 255
204 226 255
203 226 255
203 226 255
203 226 255
203 226 255
203 226 255
203 226 255
203 226 255
203 226 255
203 225 255
203 225 255
203 225 255
203 225 255
203 225 255
203 225 255
203 225 255
203 225 255
203 225 255
203 225 255
203 225 255
203 225 255
202 225 255
202 225 255
202 225 255
202 225 255
202 225 255
202 225 255
202 225 255
202 225 255
202 225 255
202 225 255
202 225 255
202 225 255
202 225 255
202 225 255
202 225 255
202 225 255
202 225 255
202 225 255
202 225 255
202 225 255
202 225 255
202 225 255
202 225 255
202 225 255
202 225 255
202 225 255
202 225 255
202 225 255
202 225 255
202 225 255
202 225 255
201 225 255
201 225 255
201 225 255
201 225 255
201 225 255
201 225 255
201 225 255
201 225 255
201 225 255
201 225 255
201 225 255
201 225 255
201 225 255
201 225 255
201 225 255
201 225 255
201 225 255
201 225 255
201 225 255
201 225 255
201 225 255
201 225 255
201 225 255
201 225 255
201 225 255
201 225 255
202 225 255
202 225 255
202 225 255
202 225 255
202 225 255
202 225 255
202 225 255
202 225 255
202 225 255
202 225 255
202 225 255
202 225 255
202 225 255
202 225 255
202 225 255
202 225 255
202 225 255
202 225 255
202 225 255
202 225 255
202 225 255
202 225 255
202 225 255
202 225 255
202 225 255
202 225 255
202 225 255
202 225 255
202 225 255
202 225 255
202 225 255
203 225 255
203 225 255
203 225 255
203 225 255
203 225 255
203 225 255
203 225 255
203 225 255
203 225 255
203 225 255
203 225 255
203 225 255
203 226 255
203 226 255
203 226 255
203 226 255
203 226 255
203 226 255
203 226 255
203 226 255
204 226 255
204 226 255
204 226 255
204 226 255
204 226 255
204 226 255
204 226 255
204 226 255
204 226 255
204 226 255
204 226 255
204 226 255
204 226 255
204 226 255
204 226 255
204 226 255
204 226 255
205 226 255
205 226 255
205 226 255
205 226 255
205 226 255
205 226 255
205 226 255
205 227 255
205 227 255
205 227 255
205 227 255
205 227 255
205 227 255
205 227 255
205 227 255
205 227 255
205 227 255
206 227 255
206 227 255
206 227 255
206 227 255
206 227 255
206 227 255
206 227 255
206 227 255
206 227 255
206 227 255
206 227 255
206 227 255
206 227 255
206 227 255
206 227 255
206 227 255
206 227 255
207 227 255
207 227 255
207 227 255
207 227 255
207 228 255
207 228 255
207 228 255
207 228 255
207 228 255
207 228 255
207 228 255
207 228 255
207 228 255
207 228 255
207 228 255
207 228 255
207 228 255
207 228 255
208 228 255
208 228 255
208 228 255
208 228 255
208 228 255
208 228 255
208 228 255
208 228 255
208 228 255
208 228 255
208 228 255
208 228 255
208 228 255
208 228 255
208 228 255
208 228 255
208 228 255
208 228 255
208 228 255
209 228 255
209 228 255
209 229 255
209 229 255
209 229 255
209 229 255
209 229 255
209 229 255
209 229 255
209 229 255
209 229 255
209 229 255
209 229 255
209 229 255
209 229 255
209 229 255
209 229 255
209 229 255
209 229 255
209 229 255
209 229 255
210 229 255
210 229 255
210 229 255
210 229 255
210 229 255
210 229 255
210 229 255
210 229 255
210 229 255
210 229 255
210 229 255
210 229 255
210 229 255
210 229 255
210 229 255
210 229 255
210 229 255
210 229 255
210 229 255
210 229 255
210 229 255
210 229 255
210 230 255
210 230 255
210 230 255
211 230 255
211 230 255
211 230 255
211 230 255
211 230 255
211 230 255
211 230 255
211 230 255
210 230 255
210 230 255
210 230 255
210 229 255
210 229 255
210 229 255
210 229 255
210 229 255
210 229 255
210 229 255
210 229 255
210 229 255
210 229 255
210 229 255
210 229 255
210 229 255
210 229 255
210 229 255
210 229 255
210 229 255
210 229 255
210 229 255
210 229 255
210 229 255
209 229 255
209 229 255
209 229 255
209 229 255
209 229 255
209 229 255
209 229 255
209 229 255
209 229 255
209 229 255
209 229 255
209 229 255
209 229 255
209 229 255
209 229 255
209 229 255
209 229 255
209 229 255
209 229 255
209 229 255
209 228 255
209 228 255
208 228 255
208 228 255
208 228 255
208 228 255
208 228 255
208 228 255
208 228 255
208 228 255
208 228 255
208 228 255
208 228 255
208 228 255
208 228 255
208 228 255
208 228 255
208 228 255
208 228 255
208 228 255
208 228 255
207 228 255
207 228 255
207 228 255
207 228 255
207 228 255
207 228 255
207 228 255
207 228 255
207 228 255
207 228 255
207 228 255
207 228 255
207 228 255
207 228 255
207 227 255
207 227 255
207 227 255
207 227 255
206 227 255
206 227 255
206 227 255
206 227 255
206 227 255
206 227 255
206 227 255
206 227 255
206 227 255
206 227 255
206 227 255
206 227 255
206 227 255
206 227 255
206 227 255
206 227 255
206 227 255
205 227 255
205 227 255
205 227 255
205 227 255
205 227 255
205 227 255
205 227 255
205 227 255
205 227 255
205 227 255
205 226 255
205 226 255
205 226 255
205 226 255
205 226 255
205 226 255
205 226 255
204 226 255
204 226 255
204 226 255
204 226 255
204 226 255
204 226 255
204 226 255
204 226 255
204 226 255
204 226 255
204 226 255
204 226 255
204 226 255
204 226 255
204 226 255
204 226 255
204 226 255
203 226 255
203 226 255
203 226 255
203 226 255
203 226 255
203 226 255
203 226 255
203 226 255
203 226 255
203 225 255
203 225 255
203 225 255
203 225 255
203 225 255
203 225 255
203 225 255
203 225 255
203 225 255
203 225 255
203 225 255
203 225 255
202 225 255
202 225 255
202 225 255
202 225 255
202 225 255
202 225 255
202 225 255
202 225 255
202 225 255
202 225 255
202 225 255
202 225 255
202 225 255
202 225 255
202 225 255
202 225 255
202 225 255
202 225 255
202 225 255
202 225 255
202 225 255
202 225 255
202 225 255
202 225 255
202 225 255
202 225 255
202 225 255
202 225 255
202 225 255
202 225 255
202 225 255
202 225 255
202 225 255
202 225 255
202 225 255
202 225 255
202 225 255
202 225 255
202 225 255
202 225 255
202 225 255
202 225 255
202 225 255
202 225 255
202 225 255
202 225 255
202 225 255
202 225 255
202 225 255
202 225 255
202 225 255
202 225 255
202 225 255
202 225 255
202 225 255
202 225 255
202 225 255
202 225 255
202 225 255
202 225 255
202 225 255
202 225 255
202 225 255
202 225 255
202 225 255
202 225 255
202 225 255
202 225 255
202 225 255
202 225 255
202 225 255
202 225 255
202 225 255
202 225 255
202 225 255
202 225 255
202 225 255
202 225 255
203 225 255
203 225 255
203 225 255
203 225 255
203 225 255
203 225 255
203 225 255
203 225 255
203 225 255
203 225 255
203 225 255
203 225 255
203 226 255
203 226 255
203 226 255
203 226 255
203 226 255
203 226 255
203 226 255
203 226 255
203 226 255
204 226 255
204 226 255
204 226 255
204 226 255
204 226 255
204 226 255
204 226 255
204 226 255
204 226 255
204 226 255
204 226 255
204 226 255
204 226 255
204 226 255
204 226 255
204 226 255
204 226 255
205 226 255
205 226 255
205 226 255
205 226 255
205 226 255
205 226 255
205 226 255
205 227 255
205 227 255
205 227 255
205 227 255
205 227 255
205 227 255
205 227 255
205 227 255
205 227 255
205 227 255
206 227 255
206 227 255
206 227 255
206 227 255
206 227 255
206 227 255
206 227 255
206 227 255
206 227 255
206 227 255
206 227 255
206 227 255
206 227 255
206 227 255
206 227 255
206 227 255
206 227 255
207 227 255
207 227 255
207 227 255
207 227 255
207 227 255
207 228 255
207 228 255
207 228 255
207 228 255
207 228 255
207 228 255
207 228 255
207 228 255
207 228 255
207 228 255
207 228 255
207 228 255
207 228 255
208 228 255
208 228 255
208 228 255
208 228 255
208 228 255
208 228 255
208 228 255
208 228 255
208 228 255
208 228 255
208 228 255
208 228 255
208 228 255
208 228 255
208 228 255
208 228 255
208 228 255
208 228 255
208 228 255
208 228 255
209 228 255
209 229 255
209 229 255
209 229 255
209 229 255
209 229 255
209 229 255
209 229 255
209 229 255
209 229 255
209 229 255
209 229 255
209 229 255
209 229 255
209 229 255
209 229 255
209 229 255
209 229 255
209 229 255
209 229 255
209 229 255
210 229 255
210 229 255
210 229 255
210 229 255
210 229 255
210 229 255
210 229 255
210 229 255
210 229 255
210 229 255
210 229 255
210 229 255
210 229 255
210 229 255
210 229 255
210 229 255
210 229 255
210 229 255
210 229 255
210 229 255
210 229 255
210 230 255
210 230 255
210 230 255
211 230 255
211 230 255
211 230 255
211 230 255
211 230 255
211 230 255
211 230 255
211 230 255
211 230 255
211 230 255
211 230 255
211 230 255
211 230 255
211 230 255
211 230 255
211 230 255
210 230 255
210 230 255
210 230 255
210 229 255
210 229 255
210 229 255
210 229 255
210 229 255
210 229 255
210 229 255
210 229 255
210 229 255
210 229 255
210 229 255
210 229 255
210 229 255
210 229 255
210 229 255
210 229 255
210 229 255
210 229 255
210 229 255
210 229 255
210 229 255
209 229 255
209 229 255
209 229 255
209 229 255
210 229 255
210 229 255
211 230 255
213 231 255
212 231 255
212 231 255
215 232 255
214 232 255
215 232 255
214 232 255
215 232 255
215 232 255
214 232 255
214 232 255
216 233 255
215 232 255
214 231 255
213 231 255
213 231 255
212 230 255
212 230 255
211 230 255
210 229 255
208 228 255
208 228 255
208 228 255
208 228 255
208 228 255
208 228 255
208 228 255
208 228 255
208 228 255
208 228 255
208 228 255
208 228 255
208 228 255
207 228 255
207 228 255
207 228 255
207 228 255
207 228 255
207 228 255
207 228 255
207 228 255
207 228 255
207 228 255
207 228 255
207 228 255
207 228 255
207 228 255
207 227 255
207 227 255
207 227 255
207 227 255
206 227 255
206 227 255
206 227 255
206 227 255
206 227 255
206 227 255
206 227 255
206 227 255
206 227 255
206 227 255
206 227 255
206 227 255
206 227 255
206 227 255
206 227 255
206 227 255
206 227 255
205 227 255
205 227 255
205 227 255
205 227 255
205 227 255
205 227 255
205 227 255
205 227 255
205 227 255
205 227 255
205 226 255
205 226 255
205 226 255
205 226 255
205 226 255
205 226 255
205 226 255
204 226 255
204 226 255
204 226 255
204 226 255
204 226 255
204 226 255
204 226 255
204 226 255
204 226 255
204 226 255
204 226 255
204 226 255
204 226 255
204 226 255
204 226 255
204 226 255
204 226 255
204 226 255
203 226 255
203 226 255
203 226 255
203 226 255
203 226 255
203 226 255
203 226 255
203 226 255
203 226 255
203 225 255
203 225 255
203 225 255
203 225 255
203 225 255
203 225 255
203 225 255
203 225 255
203 225 255
203 225 255
203 225 255
203 225 255
203 225 255
203 225 255
202 225 255
202 225 255
202 225 255
202 225 255
202 225 255
202 225 255
202 225 255
202 225 255
202 225 255
202 225 255
202 225 255
202 225 255
202 225 255
202 225 255
202 225 255
202 225 255
202 225 255
202 225 255
202 225 255
202 225 255
202 225 255
202 225 255
202 225 255
202 225 255
202 225 255
202 225 255
202 225 255
202 225 255
202 225 255
202 225 255
202 225 255
202 225 255
202 225 255
202 225 255
202 225 255
202 225 255
202 225 255
202 225 255
202 225 255
202 225 255
202 225 255
202 225 255
202 225 255
202 225 255
202 225 255
202 225 255
202 225 255
202 225 255
202 225 255
202 225 255
202 225 255
202 225 255
202 225 255
202 225 255
202 225 255
202 225 255
202 225 255
202 225 255
202 225 255
202 225 255
202 225 255
202 225 255
202 225 255
202 225 255
202 225 255
202 225 255
203 225 255
203 225 255
203 225 255
203 225 255
203 225 255
203 225 255
203 225 255
203 225 255
203 225 255
203 225 255
203 225 255
203 225 255
203 225 255
203 226 255
203 226 255
203 226 255
203 226 255
203 226 255
203 226 255
203 226 255
203 226 255
203 226 255
203 226 255
204 226 255
204 226 255
204 226 255
204 226 255
204 226 255
204 226 255
204 226 255
204 226 255
204 226 255
204 226 255
204 226 255
204 226 255
204 226 255
204 226 255
204 226 255
204 226 255
204 226 255
204 226 255
205 226 255
205 226 255
205 226 255
205 226 255
205 226 255
205 226 255
205 226 255
205 227 255
205 227 255
205 227 255
205 227 255
205 227 255
205 227 255
205 227 255
205 227 255
205 227 255
205 227 255
206 227 255
206 227 255
206 227 255
206 227 255
206 227 255
206 227 255
206 227 255
206 227 255
206 227 255
206 227 255
206 227 255
206 227 255
206 227 255
206 227 255
206 227 255
206 227 255
206 227 255
207 227 255
207 227 255
207 227 255
207 227 255
207 228 255
207 228 255
207 228 255
207 228 255
207 228 255
207 228 255
207 228 255
207 228 255
207 228 255
207 228 255
207 228 255
207 228 255
207 228 255
207 228 255
208 228 255
208 228 255
208 228 255
208 228 255
208 228 255
208 228 255
208 228 255
208 228 255
208 228 255
208 228 255
208 228 255
208 228 255
205 225 252
205 224 249
204 222 245
194 211 230
193 208 224
184 198 213
185 199 213
178 191 200
189 203 217
173 184 189
170 182 190
167 177 179
171 183 193
178 187 189
186 199 211
176 189 198
179 193 207
188 202 217
181 194 204
191 206 223
199 216 239
198 215 237
201 218 240
209 229 255
209 229 255
209 229 255
209 229 255
209 229 255
210 229 255
210 229 255
210 229 255
210 229 255
210 229 255
210 229 255
210 229 255
210 229 255
210 229 255
210 229 255
210 229 255
210 229 255
210 229 255
210 229 255
210 229 255
210 229 255
210 229 255
210 229 255
210 229 255
210 229 255
210 229 255
210 230 255
210 230 255
210 230 255
211 230 255
211 230 255
211 230 255
211 230 255
211 230 255
211 230 255
211 230 255
211 230 255
211 230 255
211 230 255
211 230 255
211 230 255
211 230 255
211 230 255
211 230 255
211 230 255
211 230 255
211 230 255
211 230 255
211 230 255
211 230 255
211 230 255
211 230 255
211 230 255
210 230 255
210 230 255
210 230 255
210 229 255
210 229 255
210 229 255
210 229 255
210 229 255
210 229 255
210 229 255
210 229 255
210 229 255
210 229 255
210 229 255
210 229 255
210 230 255
212 230 255
214 231 255
215 232 255
216 233 255
216 233 255
218 234 255
218 234 255
219 234 255
220 235 255
219 234 255
218 234 255
218 234 255
218 234 255
217 233 255
217 233 255
217 233 255
216 233 255
216 233 255
216 233 255
216 233 255
216 233 255
216 233 255
216 233 255
216 232 255
216 233 255
216 233 255
217 233 255
217 233 255
217 233 255
218 234 255
218 234 255
218 234 255
218 234 255
218 234 255
217 233 255
215 232 255
215 232 255
214 231 255
212 230 255
212 230 255
210 229 255
208 228 255
208 228 255
208 228 255
208 228 255
208 228 255
208 228 255
208 228 255
207 228 255
207 228 255
207 228 255
207 228 255
207 228 255
207 228 255
207 228 255
207 228 255
207 228 255
207 228 255
207 228 255
207 228 255
207 228 255
207 227 255
207 227 255
207 227 255
207 227 255
207 227 255
206 227 255
206 227 255
206 227 255
206 227 255
206 227 255
206 227 255
206 227 255
206 227 255
206 227 255
206 227 255
206 227 255
206 227 255
206 227 255
206 227 255
206 227 255
206 227 255
206 227 255
205 227 255
205 227 255
205 227 255
205 227 255
205 227 255
205 227 255
205 227 255
205 227 255
205 227 255
205 227 255
205 226 255
205 226 255
205 226 255
205 226 255
205 226 255
205 226 255
205 226 255
204 226 255
204 226 255
204 226 255
204 226 255
204 226 255
204 226 255
204 226 255
204 226 255
204 226 255
204 226 255
204 226 255
204 226 255
204 226 255
204 226 255
204 226 255
204 226 255
204 226 255
204 226 255
204 226 255
203 226 255
203 226 255
203 226 255
203 226 255
203 226 255
203 226 255
203 226 255
203 226 255
203 226 255
203 226 255
203 225 255
203 225 255
203 225 255
203 225 255
203 225 255
203 225 255
203 225 255
203 225 255
203 225 255
203 225 255
203 225 255
203 225 255
203 225 255
203 225 255
203 225 255
202 225 255
202 225 255
202 225 255
202 225 255
202 225 255
202 225 255
202 225 255
202 225 255
202 225 255
202 225 255
202 225 255
202 225 255
202 225 255
202 225 255
202 225 255
202 225 255
202 225 255
202 225 255
202 225 255
202 225 255
202 225 255
202 225 255
202 225 255
202 225 255
202 225 255
202 225 255
202 225 255
202 225 255
202 225 255
202 225 255
202 225 255
202 225 255
202 225 255
202 225 255
202 225 255
202 225 255
202 225 255
202 225 255
202 225 255
202 225 255
202 225 255
202 225 255
202 225 255
202 225 255
202 225 255
202 225 255
202 225 255
202 225 255
202 225 255
202 225 255
202 225 255
202 225 255
203 225 255
203 225 255
203 225 255
203 225 255
203 225 255
203 225 255
203 225 255
203 225 255
203 225 255
203 225 255
203 225 255
203 225 255
203 225 255
203 225 255
203 225 255
203 225 255
203 226 255
203 226 255
203 226 255
203 226 255
203 226 255
203 226 255
203 226 255
203 226 255
203 226 255
204 226 255
204 226 255
204 226 255
204 226 255
204 226 255
204 226 255
204 226 255
204 226 255
204 226 255
204 226 255
204 226 255
204 226 255
204 226 255
204 226 255
204 226 255
204 226 255
204 226 255
204 226 255
204 226 255
205 226 255
205 226 255
205 226 255
205 226 255
205 226 255
205 226 255
205 226 255
205 227 255
205 227 255
205 227 255
205 227 255
205 227 255
205 227 255
205 227 255
205 227 255
205 227 255
205 227 255
206 227 255
206 227 255
206 227 255
206 227 255
206 227 255
206 227 255
206 227 255
206 227 255
206 227 255
206 227 255
206 227 255
206 227 255
206 227 255
206 227 255
206 227 255
206 227 255
206 227 255
206 227 255
207 227 255
207 227 255
207 227 255
207 227 255
207 228 255
207 228 255
207 228 255
207 228 255
207 228 255
207 228 255
207 228 255
207 228 255
207 228 255
207 228 255
207 228 255
207 228 255
207 228 255
208 228 255
208 228 255
208 228 255
208 228 255
208 228 255
208 228 255
208 228 255
205 225 250
199 217 238
182 196 206
174 187 197
168 179 181
153 160 154
145 149 132
145 148 126
132 132 99
127 125 84
119 117 78
128 125 83
123 120 80
132 130 86
134 131 87
136 134 89
134 132 88
134 131 87
136 134 89
132 129 86
134 131 87
135 133 88
131 129 85
126 125 83
122 120 80
133 130 86
134 132 87
127 124 81
127 125 83
136 133 87
129 127 84
129 126 81
131 127 85
140 139 104
145 149 133
148 151 134
162 168 161
175 184 182
178 189 193
189 202 214
197 213 232
209 228 252
210 229 255
210 229 255
210 229 255
210 229 255
210 229 255
210 229 255
210 229 255
210 229 255
210 229 255
210 229 255
210 229 255
210 229 255
210 230 255
210 230 255
210 230 255
211 230 255
211 230 255
211 230 255
211 230 255
211 230 255
211 230 255
211 230 255
211 230 255
211 230 255
211 230 255
211 230 255
211 230 255
211 230 255
211 230 255
211 230 255
211 230 255
211 230 255
211 230 255
211 230 255
211 230 255
211 230 255
211 230 255
211 230 255
211 230 255
211 230 255
211 230 255
211 230 255
211 230 255
211 230 255
211 230 255
211 230 255
211 230 255
210 230 255
210 230 255
210 230 255
210 229 255
210 229 255
212 231 255
214 232 255
216 233 255
218 234 255
217 233 255
219 234 255
220 235 255
219 234 255
218 234 255
217 233 255
217 233 255
216 233 255
215 232 255
215 232 255
214 232 255
214 231 255
214 231 255
213 231 255
213 231 255
213 231 255
212 231 255
212 231 255
212 230 255
212 230 255
211 230 255
211 230 255
211 230 255
211 230 255
211 230 255
211 230 255
211 230 255
211 230 255
211 230 255
211 230 255
211 230 255
211 230 255
211 230 255
212 230 255
212 230 255
212 231 255
213 231 255
213 231 255
214 231 255
214 232 255
215 232 255
215 232 255
217 233 255
218 234 255
218 234 255
217 233 255
215 232 255
213 231 255
214 231 255
210 229 255
208 228 255
208 228 255
208 228 255
208 228 255
207 228 255
207 228 255
207 228 255
207 228 255
207 228 255
207 228 255
207 228 255
207 228 255
207 228 255
207 228 255
207 228 255
207 228 255
207 228 255
207 228 255
207 227 255
207 227 255
207 227 255
207 227 255
206 227 255
206 227 255
206 227 255
206 227 255
206 227 255
206 227 255
206 227 255
206 227 255
206 227 255
206 227 255
206 227 255
206 227 255
206 227 255
206 227 255
206 227 255
206 227 255
206 227 255
205 227 255
205 227 255
205 227 255
205 227 255
205 227 255
205 227 255
205 227 255
205 227 255
205 227 255
205 227 255
205 227 255
205 226 255
205 226 255
205 226 255
205 226 255
205 226 255
205 226 255
205 226 255
204 226 255
204 226 255
204 226 255
204 226 255
204 226 255
204 226 255
204 226 255
204 226 255
204 226 255
204 226 255
204 226 255
204 226 255
204 226 255
204 226 255
204 226 255
204 226 255
204 226 255
204 226 255
204 226 255
204 226 255
203 226 255
203 226 255
203 226 255
203 226 255
203 226 255
203 226 255
203 226 255
203 226 255
203 226 255
203 226 255
203 225 255
203 225 255
203 225 255
203 225 255
203 225 255
203 225 255
203 225 255
203 225 255
203 225 255
203 225 255
203 225 255
203 225 255
203 225 255
203 225 255
203 225 255
203 225 255
203 225 255
203 225 255
203 225 255
203 225 255
203 225 255
202 225 255
202 225 255
202 225 255
202 225 255
202 225 255
202 225 255
202 225 255
202 225 255
202 225 255
202 225 255
202 225 255
202 225 255
202 225 255
202 225 255
202 225 255
202 225 255
202 225 255
202 225 255
202 225 255
202 225 255
202 225 255
202 225 255
202 225 255
202 225 255
202 225 255
202 225 255
202 225 255
202 225 255
202 225 255
202 225 255
202 225 255
203 225 255
203 225 255
203 225 255
203 225 255
203 225 255
203 225 255
203 225 255
203 225 255
203 225 255
203 225 255
203 225 255
203 225 255
203 225 255
203 225 255
203 225 255
203 225 255
203 225 255
203 225 255
203 225 255
203 225 255
203 226 255
203 226 255
203 226 255
203 226 255
203 226 255
203 226 255
203 226 255
203 226 255
203 226 255
203 226 255
204 226 255
204 226 255
204 226 255
204 226 255
204 226 255
204 226 255
204 226 255
204 226 255
204 226 255
204 226 255
204 226 255
204 226 255
204 226 255
204 226 255
204 226 255
204 226 255
204 226 255
204 226 255
204 226 255
204 226 255
205 226 255
205 226 255
205 226 255
205 226 255
205 226 255
205 226 255
205 226 255
205 227 255
205 227 255
205 227 255
205 227 255
205 227 255
205 227 255
205 227 255
205 227 255
205 227 255
205 227 255
205 227 255
206 227 255
206 227 255
206 227 255
206 227 255
206 227 255
206 227 255
206 227 255
206 227 255
206 227 255
206 227 255
206 227 255
206 227 255
206 227 255
206 227 255
206 227 255
206 227 255
206 227 255
207 227 255
207 227 255
207 227 255
207 227 255
207 228 255
207 228 255
207 228 255
207 228 255
207 228 255
207 228 255
207 228 255
207 228 255
207 228 255
207 228 255
207 228 255
207 228 255
207 228 255
207 228 255
208 228 255
208 228 255
208 228 255
208 228 255
200 219 243
182 197 213
179 194 209
153 161 159
151 156 145
130 130 102
121 119 80
118 116 77
133 131 87
133 131 87
137 135 90
127 124 83
134 132 88
127 125 84
135 133 89
132 131 88
134 132 88
137 135 90
135 133 89
135 134 89
142 140 94
140 138 93
130 128 85
138 136 90
139 137 92
138 136 90
130 128 85
146 143 95
140 138 91
137 134 90
135 132 88
146 143 95
128 125 82
132 130 87
142 139 93
138 136 88
137 135 90
136 133 87
132 129 85
141 137 91
131 128 84
138 134 89
135 132 87
133 129 84
139 136 90
137 134 86
130 127 84
135 131 89
129 129 103
152 155 137
166 174 173
175 187 194
193 208 224
201 219 242
210 229 255
210 229 255
210 230 255
210 230 255
210 230 255
211 230 255
211 230 255
211 230 255
211 230 255
211 230 255
211 230 255
211 230 255
211 230 255
211 230 255
211 230 255
211 230 255
211 230 255
211 230 255
211 230 255
211 230 255
211 230 255
211 230 255
211 230 255
211 230 255
211 230 255
211 230 255
211 230 255
211 230 255
211 230 255
211 230 255
211 230 255
211 230 255
211 230 255
211 230 255
211 230 255
211 230 255
211 230 255
211 230 255
211 230 255
211 230 255
211 230 255
212 230 255
215 232 255
216 233 255
218 234 255
220 235 255
220 235 255
218 234 255
217 233 255
217 233 255
216 233 255
215 232 255
215 232 255
214 232 255
214 231 255
213 231 255
213 231 255
212 230 255
212 230 255
211 230 255
211 230 255
210 229 255
210 229 255
210 229 255
210 229 255
209 229 255
209 229 255
209 229 255
208 228 255
208 228 255
208 228 255
208 228 255
208 228 255
208 228 255
208 228 255
207 228 255
207 228 255
207 228 255
207 228 255
207 228 255
207 228 255
207 228 255
207 228 255
207 228 255
208 228 255
208 228 255
208 228 255
208 228 255
209 229 255
209 229 255
209 229 255
210 229 255
210 230 255
211 230 255
212 230 255
213 231 255
214 231 255
215 232 255
216 232 255
217 233 255
218 234 255
217 233 255
215 232 255
213 231 255
210 229 255
208 228 255
208 228 255
208 228 255
207 228 255
207 228 255
207 228 255
207 228 255
207 228 255
207 228 255
207 228 255
207 228 255
207 228 255
207 228 255
207 228 255
207 228 255
207 228 255
207 227 255
207 227 255
207 227 255
207 227 255
207 227 255
206 227 255
206 227 255
206 227 255
206 227 255
206 227 255
206 227 255
206 227 255
206 227 255
206 227 255
206 227 255
206 227 255
206 227 255
206 227 255
206 227 255
206 227 255
206 227 255
206 227 255
205 227 255
205 227 255
205 227 255
205 227 255
205 227 255
205 227 255
205 227 255
205 227 255
205 227 255
205 227 255
205 227 255
205 226 255
205 226 255
205 226 255
205 226 255
205 226 255
205 226 255
205 226 255
204 226 255
204 226 255
204 226 255
204 226 255
204 226 255
204 226 255
204 226 255
204 226 255
204 226 255
204 226 255
204 226 255
204 226 255
204 226 255
204 226 255
204 226 255
204 226 255
204 226 255
204 226 255
204 226 255
204 226 255
204 226 255
203 226 255
203 226 255
203 226 255
203 226 255
203 226 255
203 226 255
203 226 255
203 226 255
203 226 255
203 226 255
203 226 255
203 226 255
203 225 255
203 225 255
203 225 255
203 225 255
203 225 255
203 225 255
203 225 255
203 225 255
203 225 255
203 225 255
203 225 255
203 225 255
203 225 255
203 225 255
203 225 255
203 225 255
203 225 255
203 225 255
203 225 255
203 225 255
203 225 255
203 225 255
203 225 255
203 225 255
203 225 255
203 225 255
203 225 255
203 225 255
203 225 255
203 225 255
203 225 255
203 225 255
203 225 255
203 225 255
203 225 255
203 225 255
203 225 255
203 225 255
203 225 255
203 225 255
203 225 255
203 225 255
203 225 255
203 225 255
203 225 255
203 225 255
203 225 255
203 225 255
203 225 255
203 225 255
203 225 255
203 225 255
203 225 255
203 225 255
203 225 255
203 225 255
203 225 255
203 225 255
203 226 255
203 226 255
203 226 255
203 226 255
203 226 255
203 226 255
203 226 255
203 226 255
203 226 255
203 226 255
203 226 255
203 226 255
204 226 255
204 226 255
204 226 255
204 226 255
204 226 255
204 226 255
204 226 255
204 226 255
204 226 255
204 226 255
204 226 255
204 226 255
204 226 255
204 226 255
204 226 255
204 226 255
204 226 255
204 226 255
204 226 255
204 226 255
204 226 255
205 226 255
205 226 255
205 226 255
205 226 255
205 226 255
205 226 255
205 226 255
205 227 255
205 227 255
205 227 255
205 227 255
205 227 255
205 227 255
205 227 255
205 227 255
205 227 255
205 227 255
205 227 255
206 227 255
206 227 255
206 227 255
206 227 255
206 227 255
206 227 255
206 227 255
206 227 255
206 227 255
206 227 255
206 227 255
206 227 255
206 227 255
206 227 255
206 227 255
206 227 255
206 227 255
207 227 255
207 227 255
207 227 255
207 227 255
207 228 255
207 228 255
207 228 255
207 228 255
207 228 255
207 228 255
207 228 255
207 228 255
207 228 255
207 228 255
207 228 255
207 228 255
207 228 255
207 228 255
208 228 255
208 228 255
208 228 255
203 222 246
185 201 217
177 190 201
165 170 157
151 152 122
131 127 84
136 134 90
140 138 93
131 130 87
127 126 84
136 135 90
136 134 90
139 137 91
137 135 90
125 124 83
130 128 85
130 128 86
132 130 87
134 132 87
144 142 95
135 133 88
135 133 89
137 134 90
132 130 87
131 129 86
137 135 90
135 133 89
137 135 90
140 138 93
130 128 85
130 129 86
135 133 89
139 136 91
135 133 88
129 127 84
129 126 84
141 139 93
144 143 95
140 138 92
147 144 95
138 134 89
137 135 89
133 130 86
126 123 81
129 126 84
144 140 92
134 131 87
137 134 89
142 139 90
134 130 83
132 129 85
132 128 84
130 127 84
136 133 87
137 133 87
133 130 85
138 134 88
120 117 74
130 128 85
135 135 112
147 150 134
172 183 191
187 199 206
205 222 242
211 230 255
211 230 255
211 230 255
211 230 255
211 230 255
211 230 255
211 230 255
211 230 255
211 230 255
211 230 255
211 230 255
211 230 255
211 230 255
211 230 255
211 230 255
211 230 255
211 230 255
211 230 255
211 230 255
211 230 255
211 230 255
211 230 255
211 230 255
211 230 255
211 230 255
211 230 255
211 230 255
211 230 255
211 230 255
211 230 255
211 230 255
211 230 255
213 231 255
216 233 255
217 233 255
219 235 255
220 235 255
219 234 255
218 234 255
217 233 255
216 233 255
215 232 255
214 232 255
214 231 255
213 231 255
213 231 255
212 231 255
211 230 255
211 230 255
210 230 255
210 229 255
210 229 255
209 229 255
209 229 255
208 228 255
208 228 255
207 228 255
207 228 255
207 228 255
207 227 255
206 227 255
206 227 255
206 227 255
206 227 255
205 227 255
205 227 255
205 226 255
205 226 255
204 226 255
204 226 255
204 226 255
204 226 255
204 226 255
204 226 255
204 226 255
204 226 255
204 226 255
204 226 255
204 226 255
204 226 255
204 226 255
204 226 255
205 226 255
205 227 255
205 227 255
205 227 255
206 227 255
206 227 255
207 228 255
207 228 255
207 228 255
208 228 255
209 229 255
210 229 255
211 230 255
212 230 255
212 231 255
214 231 255
215 232 255
217 233 255
218 234 255
215 232 255
212 231 255
210 229 255
208 228 255
208 228 255
207 228 255
207 228 255
207 228 255
207 228 255
207 228 255
207 228 255
207 228 255
207 228 255
207 228 255
207 228 255
207 228 255
207 228 255
207 228 255
207 228 255
207 227 255
207 227 255
207 227 255
207 227 255
206 227 255
206 227 255
206 227 255
206 227 255
206 227 255
206 227 255
206 227 255
206 227 255
206 227 255
206 227 255
206 227 255
206 227 255
206 227 255
206 227 255
206 227 255
206 227 255
206 227 255
206 227 255
205 227 255
205 227 255
205 227 255
205 227 255
205 227 255
205 227 255
205 227 255
205 227 255
205 227 255
205 227 255
205 227 255
205 226 255
205 226 255
205 226 255
205 226 255
205 226 255
205 226 255
205 226 255
205 226 255
204 226 255
204 226 255
204 226 255
204 226 255
204 226 255
204 226 255
204 226 255
204 226 255
204 226 255
204 226 255
204 226 255
204 226 255
204 226 255
204 226 255
204 226 255
204 226 255
204 226 255
204 226 255
204 226 255
204 226 255
204 226 255
204 226 255
203 226 255
203 226 255
203 226 255
203 226 255
203 226 255
203 226 255
203 226 255
203 226 255
203 226 255
203 226 255
203 226 255
203 226 255
203 226 255
203 226 255
203 226 255
203 225 255
203 225 255
203 225 255
203 225 255
203 225 255
203 225 255
203 225 255
203 225 255
203 225 255
203 225 255
203 225 255
203 225 255
203 225 255
203 225 255
203 225 255
203 225 255
203 225 255
203 225 255
203 225 255
203 225 255
203 225 255
203 225 255
203 225 255
203 225 255
203 225 255
203 225 255
203 225 255
203 225 255
203 225 255
203 225 255
203 225 255
203 225 255
203 225 255
203 225 255
203 225 255
203 225 255
203 225 255
203 225 255
203 225 255
203 225 255
203 226 255
203 226 255
203 226 255
203 226 255
203 226 255
203 226 255
203 226 255
203 226 255
203 226 255
203 226 255
203 226 255
203 226 255
203 226 255
203 226 255
203 226 255
204 226 255
204 226 255
204 226 255
204 226 255
204 226 255
204 226 255
204 226 255
204 226 255
204 226 255
204 226 255
204 226 255
204 226 255
204 226 255
204 226 255
204 226 255
204 226 255
204 226 255
204 226 255
204 226 255
204 226 255
204 226 255
204 226 255
204 226 255
205 226 255
205 226 255
205 226 255
205 226 255
205 226 255
205 226 255
205 226 255
205 227 255
205 227 255
205 227 255
205 227 255
205 227 255
205 227 255
205 227 255
205 227 255
205 227 255
205 227 255
205 227 255
206 227 255
206 227 255
206 227 255
206 227 255
206 227 255
206 227 255
206 227 255
206 227 255
206 227 255
206 227 255
206 227 255
206 227 255
206 227 255
206 227 255
206 227 255
206 227 255
206 227 255
206 227 255
207 227 255
207 227 255
207 227 255
207 227 255
207 228 255
207 228 255
207 228 255
207 228 255
207 228 255
207 228 255
207 228 255
207 228 255
207 228 255
207 228 255
207 228 255
207 228 255
207 228 255
207 228 255
208 228 255
208 228 255
202 220 244
186 202 219
157 165 162
157 161 141
127 125 83
124 122 81
140 138 92
130 129 86
128 126 84
140 138 93
140 138 93
132 131 88
131 129 87
140 139 93
133 131 87
139 137 92
131 130 87
136 135 90
143 141 94
134 133 90
140 138 93
147 144 96
141 141 95
134 133 89
134 132 88
139 137 91
145 143 96
140 138 93
125 124 83
145 143 95
140 139 93
127 126 84
147 144 95
133 131 87
139 136 90
143 140 93
125 123 82
137 136 91
136 133 88
141 138 92
143 141 93
133 131 87
133 132 87
138 136 90
138 136 90
145 142 94
134 132 87
148 145 96
151 148 98
149 146 95
145 142 94
137 134 89
135 132 87
128 126 84
134 131 87
139 136 89
129 126 84
133 129 84
142 140 92
137 134 87
132 130 85
131 128 84
137 134 87
134 131 85
124 121 79
124 121 79
137 134 87
139 134 83
139 140 115
167 172 160
180 192 202
201 216 235
211 230 255
211 230 255
211 230 255
211 230 255
211 230 255
211 230 255
211 230 255
211 230 255
211 230 255
211 230 255
211 230 255
211 230 255
211 230 255
211 230 255
212 230 255
212 230 255
212 230 255
212 230 255
211 230 255
211 230 255
211 230 255
211 230 255
211 230 255
211 230 255
213 231 255
215 232 255
218 234 255
220 235 255
220 235 255
219 234 255
218 233 255
216 233 255
216 232 255
215 232 255
214 232 255
214 231 255
213 231 255
212 230 255
211 230 255
211 230 255
211 230 255
210 229 255
209 229 255
209 229 255
208 228 255
208 228 255
208 228 255
207 228 255
207 227 255
206 227 255
206 227 255
205 227 255
205 227 255
205 226 255
204 226 255
204 226 255
204 226 255
204 226 255
203 226 255
203 226 255
203 225 255
203 225 255
202 225 255
202 225 255
202 225 255
202 225 255
202 225 255
202 225 255
201 225 255
201 225 255
201 225 255
201 224 255
201 225 255
201 224 255
201 224 255
201 224 255
201 225 255
201 225 255
201 225 255
202 225 255
202 225 255
202 225 255
202 225 255
203 225 255
203 225 255
203 226 255
204 226 255
204 226 255
205 226 255
205 227 255
206 227 255
206 227 255
207 228 255
208 228 255
209 229 255
211 230 255
211 230 255
213 231 255
214 232 255
216 233 255
218 234 255
215 232 255
213 231 255
209 229 255
208 228 255
208 228 255
207 228 255
207 228 255
207 228 255
207 228 255
207 228 255
207 228 255
207 228 255
207 228 255
207 228 255
207 228 255
207 228 255
207 228 255
207 228 255
207 228 255
207 227 255
207 227 255
207 227 255
207 227 255
206 227 255
206 227 255
206 227 255
206 227 255
206 227 255
206 227 255
206 227 255
206 227 255
206 227 255
206 227 255
206 227 255
206 227 255
206 227 255
206 227 255
206 227 255
206 227 255
206 227 255
206 227 255
205 227 255
205 227 255
205 227 255
205 227 255
205 227 255
205 227 255
205 227 255
205 227 255
205 227 255
205 227 255
205 227 255
205 226 255
205 226 255
205 226 255
205 226 255
205 226 255
205 226 255
205 226 255
205 226 255
204 226 255
204 226 255
204 226 255
204 226 255
204 226 255
204 226 255
204 226 255
204 226 255
204 226 255
204 226 255
204 226 255
204 226 255
204 226 255
204 226 255
204 226 255
204 226 255
204 226 255
204 226 255
204 226 255
204 226 255
204 226 255
204 226 255
204 226 255
204 226 255
204 226 255
204 226 255
203 226 255
203 226 255
203 226 255
203 226 255
203 226 255
203 226 255
203 226 255
203 226 255
203 226 255
203 226 255
203 226 255
203 226 255
203 226 255
203 226 255
203 226 255
203 226 255
203 226 255
203 226 255
203 226 255
203 226 255
203 226 255
203 226 255
203 226 255
203 226 255
203 226 255
203 226 255
203 226 255
203 226 255
203 226 255
203 226 255
203 226 255
203 226 255
203 226 255
203 226 255
203 226 255
203 226 255
203 226 255
203 226 255
203 226 255
203 226 255
203 226 255
203 226 255
203 226 255
203 226 255
203 226 255
203 226 255
203 226 255
203 226 255
203 226 255
203 226 255
203 226 255
203 226 255
203 226 255
203 226 255
204 226 255
204 226 255
204 226 255
204 226 255
204 226 255
204 226 255
204 226 255
204 226 255
204 226 255
204 226 255
204 226 255
204 226 255
204 226 255
204 226 255
204 226 255
204 226 255
204 226 255
204 226 255
204 226 255
204 226 255
204 226 255
204 226 255
204 226 255
204 226 255
204 226 255
204 226 255
205 226 255
205 226 255
205 226 255
205 226 255
205 226 255
205 226 255
205 226 255
205 226 255
205 227 255
205 227 255
205 227 255
205 227 255
205 227 255
205 227 255
205 227 255
205 227 255
205 227 255
205 227 255
205 227 255
206 227 255
206 227 255
206 227 255
206 227 255
206 227 255
206 227 255
206 227 255
206 227 255
206 227 255
206 227 255
206 227 255
206 227 255
206 227 255
206 227 255
206 227 255
206 227 255
206 227 255
206 227 255
207 227 255
207 227 255
207 227 255
207 227 255
207 228 255
207 228 255
207 228 255
207 228 255
207 228 255
207 228 255
207 228 255
207 228 255
207 228 255
207 228 255
207 228 255
207 228 255
207 228 255
207 228 255
208 228 255
208 228 255
203 222 246
181 195 207
160 165 152
150 151 120
135 134 90
123 121 80
127 125 84
133 132 89
132 131 88
138 137 92
142 140 93
137 136 91
134 133 89
137 136 91
143 141 94
142 141 95
128 126 84
127 126 84
140 138 93
135 133 89
132 131 87
136 135 91
138 137 92
144 143 95
130 129 87
130 129 87
138 136 90
143 142 95
143 142 95
138 136 90
149 147 98
131 129 86
140 139 93
137 134 90
140 139 92
140 138 93
138 136 91
138 137 92
138 136 90
148 145 96
135 133 87
152 149 99
138 136 90
139 137 92
146 143 95
144 141 93
153 150 99
145 142 94
138 136 90
140 138 91
146 144 96
141 138 91
132 130 85
145 142 94
146 143 95
133 132 88
142 139 92
145 142 93
142 139 93
130 127 84
149 146 94
139 136 90
132 129 84
138 134 87
132 129 84
134 132 86
131 128 82
139 135 89
142 138 90
131 128 82
135 131 85
131 127 84
126 122 79
133 130 87
134 131 84
136 132 86
137 137 109
166 172 165
187 199 208
202 219 241
211 230 255
211 230 255
211 230 255
211 230 255
211 230 255
211 230 255
212 230 255
212 230 255
212 230 255
212 230 255
212 230 255
212 230 255
212 230 255
212 230 255
212 230 255
212 230 255
212 230 255
214 231 255
217 233 255
219 234 255
220 235 255
219 234 255
218 233 255
217 233 255
216 232 255
215 232 255
214 232 255
214 231 255
213 231 255
212 230 255
212 230 255
211 230 255
210 229 255
210 229 255
209 229 255
209 228 255
208 228 255
208 228 255
207 228 255
207 228 255
206 227 255
206 227 255
205 227 255
205 227 255
205 226 255
204 226 255
204 226 255
203 226 255
203 226 255
203 225 255
203 225 255
202 225 255
202 225 255
201 225 255
201 224 255
201 224 255
201 224 255
200 224 255
200 224 255
200 224 255
200 224 255
200 224 255
199 224 255
199 223 255
199 223 255
199 223 255
199 223 255
199 223 255
199 223 255
199 223 255
199 223 255
199 223 255
199 223 255
199 223 255
199 223 255
199 223 255
199 223 255
199 223 255
199 224 255
200 224 255
200 224 255
200 224 255
200 224 255
201 224 255
201 225 255
202 225 255
202 225 255
203 225 255
203 226 255
204 226 255
205 226 255
206 227 255
207 227 255
207 228 255
209 229 255
210 229 255
211 230 255
213 231 255
214 232 255
217 233 255
217 233 255
213 231 255
211 230 255
208 228 255
208 228 255
208 228 255
207 228 255
207 228 255
207 228 255
207 228 255
207 228 255
207 228 255
207 228 255
207 228 255
207 228 255
207 228 255
207 228 255
207 228 255
207 228 255
207 228 255
207 227 255
207 227 255
207 227 255
207 227 255
206 227 255
206 227 255
206 227 255
206 227 255
206 227 255
206 227 255
206 227 255
206 227 255
206 227 255
206 227 255
206 227 255
206 227 255
206 227 255
206 227 255
206 227 255
206 227 255
206 227 255
206 227 255
205 227 255
205 227 255
205 227 255
205 227 255
205 227 255
205 227 255
205 227 255
205 227 255
205 227 255
205 227 255
205 227 255
205 227 255
205 226 255
205 226 255
205 226 255
205 226 255
205 226 255
205 226 255
205 226 255
205 226 255
204 226 255
204 226 255
204 226 255
204 226 255
204 226 255
204 226 255
204 226 255
204 226 255
204 226 255
204 226 255
204 226 255
204 226 255
204 226 255
204 226 255
204 226 255
204 226 255
204 226 255
204 226 255
204 226 255
204 226 255
204 226 255
204 226 255
204 226 255
204 226 255
204 226 255
204 226 255
204 226 255
204 226 255
204 226 255
204 226 255
204 226 255
203 226 255
203 226 255
203 226 255
203 226 255
203 226 255
203 226 255
203 226 255
203 226 255
203 226 255
203 226 255
203 226 255
203 226 255
203 226 255
203 226 255
203 226 255
203 226 255
203 226 255
203 226 255
203 226 255
203 226 255
203 226 255
203 226 255
203 226 255
203 226 255
203 226 255
203 226 255
203 226 255
203 226 255
203 226 255
203 226 255
203 226 255
203 226 255
203 226 255
203 226 255
203 226 255
204 226 255
204 226 255
204 226 255
204 226 255
204 226 255
204 226 255
204 226 255
204 226 255
204 226 255
204 226 255
204 226 255
204 226 255
204 226 255
204 226 255
204 226 255
204 226 255
204 226 255
204 226 255
204 226 255
204 226 255
204 226 255
204 226 255
204 226 255
204 226 255
204 226 255
204 226 255
204 226 255
204 226 255
204 226 255
204 226 255
205 226 255
205 226 255
205 226 255
205 226 255
205 226 255
205 226 255
205 226 255
205 226 255
205 227 255
205 227 255
205 227 255
205 227 255
205 227 255
205 227 255
205 227 255
205 227 255
205 227 255
205 227 255
205 227 255
205 227 255
206 227 255
206 227 255
206 227 255
206 227 255
206 227 255
206 227 255
206 227 255
206 227 255
206 227 255
206 227 255
206 227 255
206 227 255
206 227 255
206 227 255
206 227 255
206 227 255
206 227 255
206 227 255
207 227 255
207 227 255
207 227 255
207 227 255
207 228 255
207 228 255
207 228 255
207 228 255
207 228 255
207 228 255
207 228 255
207 228 255
207 228 255
207 228 255
207 228 255
207 228 255
207 228 255
207 228 255
208 228 255
208 228 255
208 228 255
192 210 230
169 181 186
147 153 144
135 133 89
125 123 82
124 122 81
125 123 82
140 138 93
139 138 93
138 137 92
123 121 81
136 135 91
132 130 87
139 138 93
135 134 90
144 143 96
137 136 91
145 144 97
142 140 94
140 138 93
144 142 95
141 140 94
152 151 101
140 138 92
136 135 90
140 138 93
140 138 93
147 146 98
139 137 92
146 143 95
139 137 91
136 135 90
142 141 95
151 149 100
139 137 91
143 141 95
142 141 94
143 140 93
142 141 95
140 138 92
143 140 93
141 138 91
141 139 93
136 134 90
148 146 97
141 139 93
150 148 99
139 137 92
142 139 92
144 142 95
144 141 94
143 141 93
142 139 92
132 130 86
148 145 96
146 143 94
139 137 92
135 133 88
141 139 92
138 136 88
140 137 89
146 144 95
142 138 92
141 138 90
133 130 83
140 137 90
136 133 87
142 139 91
140 137 91
141 138 89
138 135 89
135 132 87
142 139 90
141 137 90
145 141 90
140 137 89
133 130 84
133 131 86
132 129 84
138 136 88
137 134 86
124 121 78
137 132 84
151 155 138
170 181 189
196 213 233
212 230 255
212 230 255
212 230 255
212 230 255
212 230 255
212 230 255
212 230 255
212 230 255
212 230 255
212 230 255
212 230 255
215 232 255
218 233 255
220 235 255
220 235 255
218 234 255
217 233 255
216 233 255
216 232 255
215 232 255
214 231 255
213 231 255
213 231 255
212 230 255
211 230 255
211 230 255
210 229 255
209 229 255
209 229 255
208 228 255
208 228 255
207 228 255
207 227 255
206 227 255
206 227 255
205 227 255
205 226 255
204 226 255
204 226 255
203 226 255
203 226 255
203 225 255
202 225 255
202 225 255
202 225 255
201 225 255
201 224 255
201 224 255
200 224 255
200 224 255
200 224 255
199 223 255
199 223 255
199 223 255
199 223 255
198 223 255
198 223 255
198 223 255
198 223 255
197 222 255
197 222 255
197 222 255
197 222 255
197 222 255
197 222 255
197 222 255
196 222 255
197 222 255
196 222 255
197 222 255
196 222 255
196 222 255
197 222 255
197 222 255
197 222 255
197 222 255
197 222 255
197 222 255
197 222 255
198 223 255
198 223 255
198 223 255
199 223 255
199 223 255
199 223 255
200 224 255
201 224 255
201 225 255
202 225 255
202 225 255
203 226 255
204 226 255
205 227 255
206 227 255
207 228 255
208 228 255
210 229 255
212 230 255
214 231 255
216 233 255
218 234 255
216 232 255
211 230 255
208 228 255
208 228 255
208 228 255
208 228 255
207 228 255
207 228 255
207 228 255
207 228 255
207 228 255
207 228 255
207 228 255
207 228 255
207 228 255
207 228 255
207 228 255
207 228 255
207 228 255
207 228 255
207 227 255
207 227 255
207 227 255
207 227 255
206 227 255
206 227 255
206 227 255
206 227 255
206 227 255
206 227 255
206 227 255
206 227 255
206 227 255
206 227 255
206 227 255
206 227 255
206 227 255
206 227 255
206 227 255
206 227 255
206 227 255
206 227 255
206 227 255
205 227 255
205 227 255
205 227 255
205 227 255
205 227 255
205 227 255
205 227 255
205 227 255
205 227 255
205 227 255
205 227 255
205 227 255
205 226 255
205 226 255
205 226 255
205 226 255
205 226 255
205 226 255
205 226 255
205 226 255
205 226 255
204 226 255
204 226 255
204 226 255
204 226 255
204 226 255
204 226 255
204 226 255
204 226 255
204 226 255
204 226 255
204 226 255
204 226 255
204 226 255
204 226 255
204 226 255
204 226 255
204 226 255
204 226 255
204 226 255
204 226 255
204 226 255
204 226 255
204 226 255
204 226 255
204 226 255
204 226 255
204 226 255
204 226 255
204 226 255
204 226 255
204 226 255
204 226 255
204 226 255
204 226 255
204 226 255
204 226 255
204 226 255
204 226 255
204 226 255
204 226 255
204 226 255
204 226 255
204 226 255
204 226 255
204 226 255
204 226 255
204 226 255
204 226 255
204 226 255
204 226 255
204 226 255
204 226 255
204 226 255
204 226 255
204 226 255
204 226 255
204 226 255
204 226 255
204 226 255
204 226 255
204 226 255
204 226 255
204 226 255
204 226 255
204 226 255
204 226 255
204 226 255
204 226 255
204 226 255
204 226 255
204 226 255
204 226 255
204 226 255
204 226 255
204 226 255
204 226 255
204 226 255
204 226 255
204 226 255
204 226 255
204 226 255
204 226 255
204 226 255
204 226 255
205 226 255
205 226 255
205 226 255
205 226 255
205 226 255
205 226 255
205 226 255
205 226 255
205 226 255
205 227 255
205 227 255
205 227 255
205 227 255
205 227 255
205 227 255
205 227 255
205 227 255
205 227 255
205 227 255
205 227 255
205 227 255
206 227 255
206 227 255
206 227 255
206 227 255
206 227 255
206 227 255
206 227 255
206 227 255
206 227 255
206 227 255
206 227 255
206 227 255
206 227 255
206 227 255
206 227 255
206 227 255
206 227 255
206 227 255
206 227 255
207 227 255
207 227 255
207 227 255
207 227 255
207 228 255
207 228 255
207 228 255
207 228 255
207 228 255
207 228 255
207 228 255
207 228 255
207 228 255
207 228 255
207 228 255
207 228 255
207 228 255
207 228 255
208 228 255
208 228 255
208 228 255
208 228 255
193 210 232
164 175 181
145 147 119
129 127 84
127 125 83
140 139 93
139 137 92
130 129 87
141 140 94
134 132 88
132 131 87
138 137 92
134 133 89
140 139 93
141 140 94
141 141 95
134 133 89
148 146 98
133 132 89
138 138 93
138 138 93
139 138 93
136 135 91
136 135 90
150 148 99
144 142 95
147 145 97
144 143 96
141 139 93
143 141 95
139 138 93
146 144 96
153 151 101
149 148 99
146 145 97
138 136 91
154 152 101
136 134 90
133 131 88
136 134 89
141 139 93
150 149 99
141 139 93
148 145 97
149 148 98
145 143 95
152 149 99
144 142 95
140 139 93
144 142 95
147 144 95
143 141 94
142 139 92
136 134 88
135 133 87
135 132 87
132 130 85
140 137 91
146 143 95
141 138 91
145 142 93
153 150 98
155 151 100
140 137 91
136 134 88
143 139 90
152 149 98
144 140 90
135 132 87
138 135 87
151 146 96
139 136 89
141 138 89
134 131 86
139 137 90
150 147 97
147 144 93
138 135 86
135 133 87
146 142 93
132 128 83
136 132 85
130 127 81
142 138 88
137 133 87
132 128 80
143 140 92
129 126 82
131 127 80
143 142 106
175 183 184
202 217 232
212 230 255
212 230 255
212 230 255
212 230 255
212 230 255
214 232 255
218 234 255
220 235 255
220 235 255
218 234 255
217 233 255
216 233 255
216 232 255
215 232 255
214 231 255
213 231 255
213 231 255
212 230 255
211 230 255
211 230 255
210 229 255
209 229 255
209 229 255
208 228 255
208 228 255
207 228 255
207 227 255
206 227 255
206 227 255
205 227 255
205 226 255
204 226 255
204 226 255
203 226 255
203 225 255
202 225 255
202 225 255
202 225 255
201 224 255
201 224 255
200 224 255
200 224 255
200 224 255
199 223 255
199 223 255
199 223 255
198 223 255
198 223 255
198 223 255
197 222 255
197 222 255
197 222 255
197 222 255
196 222 255
196 222 255
196 222 255
196 222 255
195 221 255
195 221 255
195 221 255
195 221 255
195 221 255
195 221 255
195 221 255
195 221 255
195 221 255
195 221 255
194 221 255
194 221 255
194 221 255
194 221 255
194 221 255
195 221 255
195 221 255
195 221 255
195 221 255
195 221 255
195 221 255
196 221 255
196 222 255
196 222 255
197 222 255
197 222 255
197 222 255
198 223 255
198 223 255
199 223 255
200 224 255
200 224 255
201 225 255
202 225 255
203 225 255
204 226 255
205 227 255
206 227 255
208 228 255
209 229 255
211 230 255
213 231 255
216 233 255
217 233 255
214 232 255
210 229 255
208 228 255
208 228 255
208 228 255
208 228 255
208 228 255
207 228 255
207 228 255
207 228 255
207 228 255
207 228 255
207 228 255
207 228 255
207 228 255
207 228 255
207 228 255
207 228 255
207 228 255
207 228 255
207 228 255
207 227 255
207 227 255
207 227 255
207 227 255
206 227 255
206 227 255
206 227 255
206 227 255
206 227 255
206 227 255
206 227 255
206 227 255
206 227 255
206 227 255
206 227 255
206 227 255
206 227 255
206 227 255
206 227 255
206 227 255
206 227 255
206 227 255
206 227 255
205 227 255
205 227 255
205 227 255
205 227 255
205 227 255
205 227 255
205 227 255
205 227 255
205 227 255
205 227 255
205 227 255
205 227 255
205 227 255
205 226 255
205 226 255
205 226 255
205 226 255
205 226 255
205 226 255
205 226 255
205 226 255
205 226 255
205 226 255
204 226 255
204 226 255
204 226 255
204 226 255
204 226 255
204 226 255
204 226 255
204 226 255
204 226 255
204 226 255
204 226 255
204 226 255
204 226 255
204 226 255
204 226 255
204 226 255
204 226 255
204 226 255
204 226 255
204 226 255
204 226 255
204 226 255
204 226 255
204 226 255
204 226 255
204 226 255
204 226 255
204 226 255
204 226 255
204 226 255
204 226 255
204 226 255
204 226 255
204 226 255
204 226 255
204 226 255
204 226 255
204 226 255
204 226 255
204 226 255
204 226 255
204 226 255
204 226 255
204 226 255
204 226 255
204 226 255
204 226 255
204 226 255
204 226 255
204 226 255
204 226 255
204 226 255
204 226 255
204 226 255
204 226 255
204 226 255
204 226 255
204 226 255
204 226 255
204 226 255
204 226 255
204 226 255
204 226 255
204 226 255
204 226 255
204 226 255
204 226 255
204 226 255
204 226 255
204 226 255
204 226 255
205 226 255
205 226 255
205 226 255
205 226 255
205 226 255
205 226 255
205 226 255
205 226 255
205 226 255
205 226 255
205 226 255
205 227 255
205 227 255
205 227 255
205 227 255
205 227 255
205 227 255
205 227 255
205 227 255
205 227 255
205 227 255
205 227 255
205 227 255
205 227 255
206 227 255
206 227 255
206 227 255
206 227 255
206 227 255
206 227 255
206 227 255
206 227 255
206 227 255
206 227 255
206 227 255
206 227 255
206 227 255
206 227 255
206 227 255
206 227 255
206 227 255
206 227 255
206 227 255
207 227 255
207 227 255
207 227 255
207 227 255
207 228 255
207 228 255
207 228 255
207 228 255
207 228 255
207 228 255
207 228 255
207 228 255
207 228 255
207 228 255
207 228 255
207 228 255
207 228 255
207 228 255
208 228 255
208 228 255
208 228 255
208 228 255
208 228 255
193 210 230
162 171 170
136 139 117
135 133 89
135 133 89
136 134 90
136 135 90
140 139 93
134 133 89
140 138 93
144 144 97
123 122 82
143 142 95
134 133 89
144 143 96
139 138 93
139 138 93
147 146 97
139 138 93
137 136 92
142 140 94
142 142 95
150 148 99
144 142 95
147 145 97
151 150 101
139 137 92
140 139 93
142 141 95
139 139 93
148 146 98
147 147 99
144 142 95
148 146 97
136 135 90
146 144 96
142 141 95
152 150 101
145 143 96
151 149 100
149 146 97
151 149 99
146 144 96
143 141 94
142 140 93
143 141 94
140 138 92
142 140 93
144 142 94
148 146 97
146 144 95
143 141 94
144 141 94
145 142 94
145 142 92
155 152 101
151 148 97
149 146 97
144 140 92
149 146 97
145 143 94
151 148 98
142 140 93
138 136 90
145 140 92
148 146 97
152 148 97
141 138 91
138 135 89
134 130 83
140 137 90
141 138 90
133 130 84
147 143 93
152 149 99
137 133 87
134 132 82
136 133 87
130 128 84
143 139 90
128 125 80
147 142 93
125 123 80
140 137 88
141 138 88
140 137 90
145 141 92
141 137 87
145 142 92
128 124 79
129 125 79
141 138 90
126 123 80
131 127 80
132 128 81
145 143 111
175 186 191
200 216 237
212 230 255
219 234 255
220 235 255
219 234 255
218 233 255
217 233 255
216 232 255
215 232 255
214 231 255
213 231 255
213 231 255
212 230 255
211 230 255
211 230 255
210 229 255
209 229 255
209 229 255
208 228 255
208 228 255
207 228 255
207 227 255
206 227 255
206 227 255
205 227 255
205 226 255
204 226 255
204 226 255
203 226 255
203 225 255
202 225 255
202 225 255
201 225 255
201 224 255
201 224 255
200 224 255
200 224 255
199 224 255
199 223 255
199 223 255
198 223 255
198 223 255
198 223 255
197 222 255
197 222 255
197 222 255
196 222 255
196 222 255
196 222 255
195 221 255
195 221 255
195 221 255
195 221 255
194 221 255
194 221 255
194 221 255
194 221 255
194 220 255
193 220 255
193 220 255
193 220 255
193 220 255
193 220 255
193 220 255
193 220 255
193 220 255
193 220 255
193 220 255
193 220 255
193 220 255
193 220 255
193 220 255
193 220 255
193 220 255
193 220 255
193 220 255
193 220 255
194 220 255
194 221 255
194 221 255
194 221 255
195 221 255
195 221 255
196 222 255
196 222 255
197 222 255
197 222 255
198 223 255
199 223 255
199 223 255
200 224 255
201 224 255
202 225 255
203 226 255
204 226 255
206 227 255
207 228 255
209 229 255
211 230 255
213 231 255
216 233 255
217 233 255
213 231 255
208 228 255
208 228 255
208 228 255
208 228 255
208 228 255
208 228 255
208 228 255
207 228 255
207 228 255
207 228 255
207 228 255
207 228 255
207 228 255
207 228 255
207 228 255
207 228 255
207 228 255
207 228 255
207 228 255
207 228 255
207 228 255
207 227 255
207 227 255
207 227 255
207 227 255
206 227 255
206 227 255
206 227 255
206 227 255
206 227 255
206 227 255
206 227 255
206 227 255
206 227 255
206 227 255
206 227 255
206 227 255
206 227 255
206 227 255
206 227 255
206 227 255
206 227 255
206 227 255
206 227 255
206 227 255
205 227 255
205 227 255
205 227 255
205 227 255
205 227 255
205 227 255
205 227 255
205 227 255
205 227 255
205 227 255
205 227 255
205 227 255
205 227 255
205 227 255
205 227 255
205 226 255
205 226 255
205 226 255
205 226 255
205 226 255
205 226 255
205 226 255
205 226 255
205 226 255
205 226 255
205 226 255
204 226 255
204 226 255
204 226 255
204 226 255
204 226 255
204 226 255
204 226 255
204 226 255
204 226 255
204 226 255
204 226 255
204 226 255
204 226 255
204 226 255
204 226 255
204 226 255
204 226 255
204 226 255
204 226 255
204 226 255
204 226 255
204 226 255
204 226 255
204 226 255
204 226 255
204 226 255
204 226 255
204 226 255
204 226 255
204 226 255
204 226 255
204 226 255
204 226 255
204 226 255
204 226 255
204 226 255
204 226 255
204 226 255
204 226 255
204 226 255
204 226 255
204 226 255
204 226 255
204 226 255
204 226 255
204 226 255
204 226 255
204 226 255
204 226 255
204 226 255
204 226 255
204 226 255
204 226 255
204 226 255
204 226 255
204 226 255
205 226 255
205 226 255
205 226 255
205 226 255
205 226 255
205 226 255
205 226 255
205 226 255
205 226 255
205 226 255
205 226 255
205 226 255
205 227 255
205 227 255
205 227 255
205 227 255
205 227 255
205 227 255
205 227 255
205 227 255
205 227 255
205 227 255
205 227 255
205 227 255
205 227 255
205 227 255
206 227 255
206 227 255
206 227 255
206 227 255
206 227 255
206 227 255
206 227 255
206 227 255
206 227 255
206 227 255
206 227 255
206 227 255
206 227 255
206 227 255
206 227 255
206 227 255
206 227 255
206 227 255
206 227 255
207 227 255
207 227 255
207 227 255
207 227 255
207 227 255
207 228 255
207 228 255
207 228 255
207 228 255
207 228 255
207 228 255
207 228 255
207 228 255
207 228 255
207 228 255
207 228 255
207 228 255
207 228 255
207 228 255
208 228 255
208 228 255
208 228 255
208 228 255
208 228 255
208 228 255
207 227 252
180 194 208
149 153 133
129 127 85
129 127 85
133 132 88
131 129 87
142 140 94
134 133 90
141 139 93
131 130 87
145 144 97
138 137 92
137 135 90
142 140 94
137 136 91
149 148 99
149 147 98
147 145 97
149 148 100
143 142 95
143 142 96
143 141 95
138 136 91
152 150 101
148 147 99
142 140 94
151 149 99
138 137 92
150 149 100
144 143 96
150 148 99
154 152 101
149 147 99
139 137 92
137 136 91
146 145 97
150 149 101
144 143 96
148 147 99
146 144 96
151 149 100
155 154 103
150 148 99
152 150 101
145 143 95
150 149 100
154 152 101
146 144 96
158 156 104
150 148 99
149 147 99
145 142 94
149 147 97
142 140 93
147 145 95
153 151 100
145 143 95
145 144 95
153 150 99
140 138 91
143 139 92
134 132 88
150 147 96
134 131 86
158 154 101
147 143 94
148 146 97
145 142 93
144 142 94
141 139 91
148 144 93
154 150 96
153 150 98
156 152 99
151 148 97
138 135 88
148 145 96
144 140 92
147 143 94
135 131 84
139 137 90
145 141 93
135 131 84
142 139 89
147 143 93
143 138 87
144 141 90
133 130 84
140 137 89
144 140 90
134 130 84
134 130 83
141 137 87
144 140 90
142 138 90
125 122 78
140 136 87
135 131 83
123 119 74
141 137 86
151 153 134
218 234 255
217 233 255
216 233 255
215 232 255
214 232 255
214 231 255
213 231 255
212 231 255
211 230 255
211 230 255
210 229 255
210 229 255
209 229 255
208 228 255
208 228 255
207 228 255
207 228 255
206 227 255
206 227 255
205 227 255
205 226 255
204 226 255
204 226 255
203 226 255
203 225 255
202 225 255
202 225 255
202 225 255
201 224 255
201 224 255
200 224 255
200 224 255
199 223 255
199 223 255
199 223 255
198 223 255
198 223 255
197 222 255
197 222 255
197 222 255
196 222 255
196 222 255
196 222 255
195 221 255
195 221 255
195 221 255
194 221 255
194 221 255
194 221 255
194 220 255
193 220 255
193 220 255
193 220 255
193 220 255
192 220 255
192 220 255
192 220 255
192 220 255
192 219 255
192 219 255
191 219 255
191 219 255
191 219 255
191 219 255
191 219 255
191 219 255
191 219 255
191 219 255
191 219 255
191 219 255
191 219 255
191 219 255
191 219 255
191 219 255
191 219 255
192 219 255
192 220 255
192 220 255
192 220 255
192 220 255
193 220 255
193 220 255
194 220 255
194 221 255
195 221 255
195 221 255
196 222 255
196 222 255
197 222 255
198 223 255
199 223 255
200 224 255
201 224 255
202 225 255
203 225 255
204 226 255
206 227 255
207 228 255
209 229 255
211 230 255
214 232 255
217 233 255
216 232 255
210 229 255
208 228 255
208 228 255
208 228 255
208 228 255
208 228 255
208 228 255
208 228 255
208 228 255
207 228 255
207 228 255
207 228 255
207 228 255
207 228 255
207 228 255
207 228 255
207 228 255
207 228 255
207 228 255
207 228 255
207 228 255
207 228 255
207 228 255
207 228 255
207 227 255
207 227 255
207 227 255
207 227 255
206 227 255
206 227 255
206 227 255
206 227 255
206 227 255
206 227 255
206 227 255
206 227 255
206 227 255
206 227 255
206 227 255
206 227 255
206 227 255
206 227 255
206 227 255
206 227 255
206 227 255
206 227 255
206 227 255
206 227 255
206 227 255
205 227 255
205 227 255
205 227 255
205 227 255
205 227 255
205 227 255
205 227 255
205 227 255
205 227 255
205 227 255
205 227 255
205 227 255
205 227 255
205 227 255
205 227 255
205 227 255
205 226 255
205 226 255
205 226 255
205 226 255
205 226 255
205 226 255
205 226 255
205 226 255
205 226 255
205 226 255
205 226 255
205 226 255
205 226 255
205 226 255
205 226 255
204 226 255
204 226 255
204 226 255
204 226 255
204 226 255
204 226 255
204 226 255
204 226 255
204 226 255
204 226 255
204 226 255
204 226 255
204 226 255
204 226 255
204 226 255
204 226 255
204 226 255
204 226 255
204 226 255
204 226 255
204 226 255
204 226 255
204 226 255
204 226 255
204 226 255
204 226 255
204 226 255
204 226 255
204 226 255
204 226 255
204 226 255
204 226 255
204 226 255
204 226 255
205 226 255
205 226 255
205 226 255
205 226 255
205 226 255
205 226 255
205 226 255
205 226 255
205 226 255
205 226 255
205 226 255
205 226 255
205 226 255
205 226 255
205 226 255
205 226 255
205 227 255
205 227 255
205 227 255
205 227 255
205 227 255
205 227 255
205 227 255
205 227 255
205 227 255
205 227 255
205 227 255
205 227 255
205 227 255
205 227 255
205 227 255
206 227 255
206 227 255
206 227 255
206 227 255
206 227 255
206 227 255
206 227 255
206 227 255
206 227 255
206 227 255
206 227 255
206 227 255
206 227 255
206 227 255
206 227 255
206 227 255
206 227 255
206 227 255
206 227 255
206 227 255
206 227 255
207 227 255
207 227 255
207 227 255
207 227 255
207 227 255
207 228 255
207 228 255
207 228 255
207 228 255
207 228 255
207 228 255
207 228 255
207 228 255
207 228 255
207 228 255
207 228 255
207 228 255
207 228 255
207 228 255
208 228 255
208 228 255
208 228 255
208 228 255
208 228 255
208 228 255
208 228 255
208 228 255
194 211 232
170 180 183
137 136 101
138 136 90
132 131 87
133 132 88
135 133 89
136 134 90
138 138 93
131 130 87
136 134 90
146 144 97
140 138 93
147 146 98
136 135 91
146 146 98
146 144 96
133 132 89
142 142 95
138 137 92
144 143 96
153 151 101
152 151 101
135 134 90
146 144 97
139 138 93
152 150 101
140 139 93
138 137 92
146 145 97
142 141 95
142 141 95
140 139 93
148 147 99
150 148 99
154 152 102
144 143 96
149 147 98
134 133 89
142 141 95
142 141 94
151 149 100
147 146 98
146 144 97
143 141 94
152 149 99
155 153 103
153 151 101
144 142 95
142 139 93
146 144 96
144 142 95
156 153 101
151 148 97
148 145 94
148 146 97
152 149 99
157 153 101
156 153 102
149 147 96
149 147 98
146 144 95
154 151 99
146 144 96
153 150 99
149 145 95
153 148 97
144 141 94
141 138 91
146 142 93
148 145 94
143 140 93
152 149 97
151 147 97
141 138 90
144 140 91
139 135 88
154 150 96
144 141 92
146 143 93
143 140 92
137 134 87
150 147 95
133 129 84
137 134 87
143 139 90
141 138 87
149 144 93
143 139 90
151 148 97
142 138 90
146 141 87
145 141 90
134 131 84
140 135 85
136 132 83
136 133 84
135 132 85
145 140 88
132 129 80
134 131 81
134 131 85
142 137 87
127 123 78
216 232 255
215 232 255
214 232 255
213 231 255
213 231 255
212 230 255
211 230 255
211 230 255
210 229 255
209 229 255
209 229 255
208 228 255
208 228 255
207 228 255
207 227 255
206 227 255
206 227 255
205 227 255
205 226 255
204 226 255
204 226 255
203 226 255
203 225 255
202 225 255
202 225 255
201 225 255
201 224 255
200 224 255
200 224 255
200 224 255
199 223 255
199 223 255
198 223 255
198 223 255
197 223 255
197 222 255
197 222 255
196 222 255
196 222 255
196 222 255
195 221 255
195 221 255
195 221 255
194 221 255
194 221 255
194 220 255
193 220 255
193 220 255
193 220 255
192 220 255
192 220 255
192 220 255
192 219 255
191 219 255
191 219 255
191 219 255
191 219 255
191 219 255
190 219 255
190 219 255
190 219 255
190 219 255
190 218 255
190 218 255
190 218 255
190 218 255
189 218 255
189 218 255
189 218 255
189 218 255
189 218 255
190 218 255
189 218 255
190 218 255
190 218 255
190 218 255
190 219 255
190 219 255
190 219 255
191 219 255
191 219 255
191 219 255
192 219 255
192 219 255
192 220 255
193 220 255
193 220 255
194 221 255
194 221 255
195 221 255
196 222 255
197 222 255
198 223 255
198 223 255
199 224 255
200 224 255
201 225 255
203 226 255
205 226 255
206 227 255
208 228 255
210 229 255
213 231 255
216 233 255
216 233 255
212 231 255
208 228 255
208 228 255
208 228 255
208 228 255
208 228 255
208 228 255
208 228 255
208 228 255
208 228 255
208 228 255
208 228 255
207 228 255
207 228 255
207 228 255
207 228 255
207 228 255
207 228 255
207 228 255
207 228 255
207 228 255
207 228 255
207 228 255
207 228 255
207 228 255
207 228 255
207 227 255
207 227 255
207 227 255
207 227 255
207 227 255
206 227 255
206 227 255
206 227 255
206 227 255
206 227 255
206 227 255
206 227 255
206 227 255
206 227 255
206 227 255
206 227 255
206 227 255
206 227 255
206 227 255
206 227 255
206 227 255
206 227 255
206 227 255
206 227 255
206 227 255
206 227 255
206 227 255
205 227 255
205 227 255
205 227 255
205 227 255
205 227 255
205 227 255
205 227 255
205 227 255
205 227 255
205 227 255
205 227 255
205 227 255
205 227 255
205 227 255
205 227 255
205 227 255
205 227 255
205 227 255
205 226 255
205 226 255
205 226 255
205 226 255
205 226 255
205 226 255
205 226 255
205 226 255
205 226 255
205 226 255
205 226 255
205 226 255
205 226 255
205 226 255
205 226 255
205 226 255
205 226 255
205 226 255
205 226 255
205 226 255
205 226 255
205 226 255
205 226 255
205 226 255
205 226 255
205 226 255
205 226 255
205 226 255
205 226 255
205 226 255
205 226 255
205 226 255
205 226 255
205 226 255
205 226 255
205 226 255
205 226 255
205 226 255
205 226 255
205 226 255
205 226 255
205 226 255
205 226 255
205 226 255
205 226 255
205 226 255
205 226 255
205 226 255
205 227 255
205 227 255
205 227 255
205 227 255
205 227 255
205 227 255
205 227 255
205 227 255
205 227 255
205 227 255
205 227 255
205 227 255
205 227 255
205 227 255
205 227 255
205 227 255
205 227 255
205 227 255
206 227 255
206 227 255
206 227 255
206 227 255
206 227 255
206 227 255
206 227 255
206 227 255
206 227 255
206 227 255
206 227 255
206 227 255
206 227 255
206 227 255
206 227 255
206 227 255
206 227 255
206 227 255
206 227 255
206 227 255
206 227 255
206 227 255
207 227 255
207 227 255
207 227 255
207 227 255
207 227 255
207 228 255
207 228 255
207 228 255
207 228 255
207 228 255
207 228 255
207 228 255
207 228 255
207 228 255
207 228 255
207 228 255
207 228 255
207 228 255
207 228 255
207 228 255
208 228 255
208 228 255
208 228 255
208 228 255
208 228 255
208 228 255
208 228 255
208 228 255
208 228 255
207 227 253
181 194 201
148 153 137
131 130 87
138 137 92
131 130 87
134 132 88
135 134 90
134 132 88
139 138 93
134 133 89
142 141 95
150 148 99
141 141 95
146 145 97
146 145 98
143 142 95
147 147 99
141 140 94
144 143 96
145 144 97
144 143 96
148 147 99
143 142 96
148 147 99
146 144 96
143 141 95
137 135 90
149 148 99
143 141 95
151 149 99
148 147 99
150 148 99
146 145 97
149 147 99
148 147 99
147 146 98
149 147 99
151 149 99
143 142 95
145 143 96
145 143 96
149 146 97
148 146 98
153 150 100
148 146 98
148 146 97
159 156 104
152 151 101
149 147 98
147 144 95
149 147 98
149 147 99
153 151 101
148 145 97
151 149 99
148 145 97
148 146 97
152 149 99
152 149 99
153 149 98
157 154 101
157 154 102
151 148 99
151 148 99
153 150 98
150 147 97
156 153 101
145 143 95
148 145 95
150 146 96
148 146 96
151 147 95
144 142 92
143 141 93
152 149 99
145 143 92
152 148 98
146 143 94
154 151 98
153 150 98
147 144 95
148 145 94
148 144 93
145 142 93
138 135 87
141 138 89
145 141 93
138 135 88
139 135 88
141 137 87
136 132 84
141 137 88
149 145 93
141 139 90
140 136 88
148 144 92
145 142 88
147 143 91
130 127 82
143 139 90
141 136 86
133 129 84
128 125 82
146 142 90
144 139 86
143 139 89
214 231 255
213 231 255
213 231 255
212 230 255
211 230 255
211 230 255
210 229 255
209 229 255
209 229 255
208 228 255
208 228 255
207 228 255
207 227 255
206 227 255
206 227 255
205 227 255
205 226 255
204 226 255
204 226 255
203 225 255
203 225 255
202 225 255
202 225 255
201 225 255
201 224 255
200 224 255
200 224 255
199 224 255
199 223 255
199 223 255
198 223 255
198 223 255
197 222 255
197 222 255
197 222 255
196 222 255
196 222 255
195 221 255
195 221 255
195 221 255
194 221 255
194 221 255
194 220 255
193 220 255
193 220 255
193 220 255
192 220 255
192 220 255
192 220 255
192 219 255
191 219 255
191 219 255
191 219 255
190 219 255
190 219 255
190 219 255
190 218 255
190 218 255
189 218 255
189 218 255
189 218 255
189 218 255
189 218 255
189 218 255
188 218 255
188 218 255
188 218 255
188 218 255
188 218 255
188 218 255
188 218 255
188 218 255
188 218 255
188 218 255
188 218 255
188 218 255
188 218 255
188 218 255
189 218 255
189 218 255
189 218 255
189 218 255
190 218 255
190 219 255
190 219 255
191 219 255
191 219 255
192 219 255
192 220 255
193 220 255
193 220 255
194 221 255
195 221 255
195 221 255
196 222 255
197 222 255
198 223 255
200 224 255
201 224 255
202 225 255
204 226 255
205 227 255
207 228 255
209 229 255
212 230 255
215 232 255
217 233 255
214 231 255
208 228 255
208 228 255
208 228 255
208 228 255
208 228 255
208 228 255
208 228 255
208 228 255
208 228 255
208 228 255
208 228 255
208 228 255
208 228 255
207 228 255
207 228 255
207 228 255
207 228 255
207 228 255
207 228 255
207 228 255
207 228 255
207 228 255
207 228 255
207 228 255
207 228 255
207 228 255
207 228 255
207 228 255
207 227 255
207 227 255
207 227 255
207 227 255
207 227 255
206 227 255
206 227 255
206 227 255
206 227 255
206 227 255
206 227 255
206 227 255
206 227 255
206 227 255
206 227 255
206 227 255
206 227 255
206 227 255
206 227 255
206 227 255
206 227 255
206 227 255
206 227 255
206 227 255
206 227 255
206 227 255
206 227 255
206 227 255
206 227 255
205 227 255
205 227 255
205 227 255
205 227 255
205 227 255
205 227 255
205 227 255
205 227 255
205 227 255
205 227 255
205 227 255
205 227 255
205 227 255
205 227 255
205 227 255
205 227 255
205 227 255
205 227 255
205 227 255
205 227 255
205 227 255
205 227 255
205 227 255
205 227 255
205 227 255
205 227 255
205 226 255
205 226 255
205 226 255
205 226 255
205 226 255
205 226 255
205 226 255
205 226 255
205 226 255
205 226 255
205 226 255
205 226 255
205 226 255
205 226 255
205 226 255
205 226 255
205 226 255
205 226 255
205 227 255
205 227 255
205 227 255
205 227 255
205 227 255
205 227 255
205 227 255
205 227 255
205 227 255
205 227 255
205 227 255
205 227 255
205 227 255
205 227 255
205 227 255
205 227 255
205 227 255
205 227 255
205 227 255
205 227 255
205 227 255
205 227 255
205 227 255
205 227 255
205 227 255
205 227 255
205 227 255
206 227 255
206 227 255
206 227 255
206 227 255
206 227 255
206 227 255
206 227 255
206 227 255
206 227 255
206 227 255
206 227 255
206 227 255
206 227 255
206 227 255
206 227 255
206 227 255
206 227 255
206 227 255
206 227 255
206 227 255
206 227 255
206 227 255
206 227 255
207 227 255
207 227 255
207 227 255
207 227 255
207 227 255
207 228 255
207 228 255
207 228 255
207 228 255
207 228 255
207 228 255
207 228 255
207 228 255
207 228 255
207 228 255
207 228 255
207 228 255
207 228 255
207 228 255
207 228 255
208 228 255
208 228 255
208 228 255
208 228 255
208 228 255
208 228 255
208 228 255
208 228 255
208 228 255
208 228 255
208 228 255
208 228 255
206 226 251
182 195 203
143 146 129
143 140 93
129 129 87
130 128 85
137 135 90
140 140 94
135 133 89
135 134 90
136 135 90
146 145 98
141 139 93
143 141 95
140 139 93
142 141 95
139 138 93
144 143 96
146 144 97
149 148 99
144 143 96
151 150 101
145 144 97
152 151 101
152 150 101
149 147 99
150 149 101
150 149 100
143 141 95
157 155 104
156 154 103
145 145 97
144 143 96
147 146 98
155 153 103
140 138 93
151 149 99
160 159 106
151 149 99
155 152 101
146 145 97
145 144 97
151 149 99
149 147 98
148 146 97
150 148 99
142 141 94
154 152 101
148 146 97
153 151 101
140 138 91
148 147 98
149 147 99
151 149 99
147 145 97
148 146 96
146 143 95
147 145 96
151 148 99
152 150 99
146 143 95
150 148 97
140 138 93
146 144 96
146 144 95
150 148 98
155 151 98
151 149 97
150 147 97
145 143 93
143 141 93
153 150 99
147 144 94
149 145 95
150 147 97
156 153 101
144 141 93
150 148 97
153 149 96
151 148 96
143 140 90
142 140 92
147 144 93
151 146 96
151 148 97
146 144 94
148 145 95
140 137 89
152 148 96
136 133 85
143 139 90
144 141 90
151 148 95
132 130 86
143 141 90
145 142 93
144 138 88
143 138 88
142 138 89
145 141 91
140 137 89
144 140 91
128 126 80
144 139 90
146 141 90
140 136 86
139 135 85
137 133 85
138 135 85
213 231 255
212 230 255
211 230 255
211 230 255
210 229 255
209 229 255
209 229 255
208 228 255
208 228 255
207 228 255
207 227 255
206 227 255
206 227 255
205 227 255
205 226 255
204 226 255
204 226 255
203 226 255
203 225 255
202 225 255
202 225 255
201 224 255
201 224 255
200 224 255
200 224 255
199 224 255
199 223 255
199 223 255
198 223 255
198 223 255
197 222 255
197 222 255
197 222 255
196 222 255
196 222 255
195 221 255
195 221 255
195 221 255
194 221 255
194 221 255
194 220 255
193 220 255
193 220 255
192 220 255
192 220 255
192 220 255
192 219 255
191 219 255
191 219 255
191 219 255
190 219 255
190 219 255
190 218 255
190 218 255
189 218 255
189 218 255
189 218 255
189 218 255
188 218 255
188 218 255
188 218 255
188 217 255
188 217 255
188 217 255
187 217 255
187 217 255
187 217 255
187 217 255
187 217 255
187 217 255
187 217 255
187 217 255
187 217 255
187 217 255
187 217 255
187 217 255
187 217 255
187 217 255
187 217 255
187 217 255
187 217 255
188 217 255
188 217 255
188 218 255
189 218 255
189 218 255
189 218 255
190 218 255
190 219 255
191 219 255
191 219 255
192 219 255
192 220 255
193 220 255
194 221 255
195 221 255
195 221 255
196 222 255
198 223 255
199 223 255
200 224 255
201 224 255
203 225 255
205 226 255
206 227 255
209 229 255
211 230 255
214 231 255
218 234 255
213 231 255
209 228 255
208 228 255
208 228 255
208 228 255
208 228 255
208 228 255
208 228 255
208 228 255
208 228 255
208 228 255
208 228 255
208 228 255
208 228 255
208 228 255
208 228 255
207 228 255
207 228 255
207 228 255
207 228 255
207 228 255
207 228 255
207 228 255
207 228 255
207 228 255
207 228 255
207 228 255
207 228 255
207 228 255
207 228 255
207 228 255
207 228 255
207 227 255
207 227 255
207 227 255
207 227 255
207 227 255
206 227 255
206 227 255
206 227 255
206 227 255
206 227 255
206 227 255
206 227 255
206 227 255
206 227 255
206 227 255
206 227 255
206 227 255
206 227 255
206 227 255
206 227 255
206 227 255
206 227 255
206 227 255
206 227 255
206 227 255
206 227 255
206 227 255
206 227 255
206 227 255
206 227 255
206 227 255
206 227 255
205 227 255
205 227 255
205 227 255
205 227 255
205 227 255
205 227 255
205 227 255
205 227 255
205 227 255
205 227 255
205 227 255
205 227 255
205 227 255
205 227 255
205 227 255
205 227 255
205 227 255
205 227 255
205 227 255
205 227 255
205 227 255
205 227 255
205 227 255
205 227 255
203 225 254
203 225 254
196 217 248
198 219 250
202 224 254
204 226 255
205 227 255
205 227 255
205 227 255
205 227 255
205 227 255
205 227 255
205 227 255
205 227 255
205 227 255
205 227 255
205 227 255
205 227 255
205 227 255
205 227 255
205 227 255
205 227 255
205 227 255
205 227 255
205 227 255
205 227 255
205 227 255
205 227 255
205 227 255
205 227 255
206 227 255
206 227 255
206 227 255
206 227 255
206 227 255
206 227 255
206 227 255
206 227 255
206 227 255
206 227 255
206 227 255
206 227 255
206 227 255
206 227 255
206 227 255
206 227 255
206 227 255
206 227 255
206 227 255
206 227 255
206 227 255
206 227 255
206 227 255
206 227 255
206 227 255
206 227 255
206 227 255
207 227 255
207 227 255
207 227 255
207 227 255
207 227 255
207 228 255
207 228 255
207 228 255
207 228 255
207 228 255
207 228 255
207 228 255
207 228 255
207 228 255
207 228 255
207 228 255
207 228 255
207 228 255
207 228 255
207 228 255
207 228 255
208 228 255
208 228 255
208 228 255
208 228 255
208 228 255
208 228 255
208 228 255
208 228 255
208 228 255
208 228 255
208 228 255
208 228 255
208 228 255
208 228 255
206 225 250
176 188 195
145 146 113
134 132 88
135 132 88
148 146 97
136 135 91
140 138 92
126 125 84
144 142 95
140 139 93
139 138 93
143 142 95
147 145 97
143 142 95
142 141 95
145 144 97
146 145 97
148 147 99
140 139 94
151 150 101
145 145 97
147 147 99
146 145 97
149 148 99
146 145 97
143 142 95
157 156 104
150 149 100
145 143 96
148 147 99
152 150 101
153 152 102
149 147 99
152 150 101
153 151 101
151 149 99
153 151 101
150 149 100
152 150 101
153 150 100
156 155 104
158 155 104
150 149 100
137 136 92
156 154 103
159 157 104
154 152 102
153 151 101
148 146 98
160 157 105
145 143 96
150 148 99
161 159 105
146 145 97
156 153 101
150 148 98
153 150 100
151 149 99
152 149 99
147 145 96
154 151 100
155 152 101
141 139 91
153 150 97
154 151 99
152 150 99
162 159 106
154 151 100
145 142 95
157 153 101
158 154 99
152 149 98
154 151 99
144 142 93
151 148 96
152 148 97
147 142 93
152 149 97
148 144 93
145 142 93
147 144 94
148 145 95
150 149 98
143 141 92
149 145 93
154 150 97
149 145 94
152 148 95
148 145 94
153 149 95
139 136 88
145 141 90
139 134 87
155 150 97
144 140 89
150 145 91
148 144 92
146 142 93
136 132 81
146 142 92
147 143 95
143 139 89
144 140 89
145 141 88
145 141 90
128 124 79
139 135 86
140 136 85
137 134 82
133 129 84
211 230 255
211 230 255
210 229 255
210 229 255
209 229 255
208 228 255
208 228 255
207 228 255
207 227 255
206 227 255
206 227 255
205 227 255
205 226 255
204 226 255
204 226 255
203 226 255
203 225 255
202 225 255
202 225 255
201 225 255
201 224 255
200 224 255
200 224 255
200 224 255
199 223 255
199 223 255
198 223 255
198 223 255
197 222 255
197 222 255
197 222 255
196 222 255
196 222 255
195 221 255
195 221 255
195 221 255
194 221 255
194 221 255
194 220 255
193 220 255
193 220 255
192 220 255
192 220 255
192 220 255
191 219 255
191 219 255
191 219 255
191 219 255
190 219 255
190 219 255
190 218 255
189 218 255
189 218 255
189 218 255
189 218 255
188 218 255
188 218 255
188 217 255
188 217 255
187 217 255
187 217 255
187 217 255
187 217 255
187 217 255
186 217 255
186 217 255
186 217 255
186 217 255
186 216 255
186 216 255
186 216 255
186 216 255
186 216 255
186 216 255
186 216 255
186 216 255
186 216 255
186 216 255
186 216 255
186 216 255
186 217 255
186 217 255
186 217 255
187 217 255
187 217 255
187 217 255
187 217 255
188 217 255
188 218 255
189 218 255
189 218 255
190 218 255
190 219 255
191 219 255
192 219 255
192 220 255
193 220 255
194 221 255
195 221 255
196 222 255
197 222 255
198 223 255
199 223 255
201 224 255
202 225 255
204 226 255
206 227 255
208 228 255
211 230 255
214 231 255
218 234 255
213 231 255
209 229 255
208 228 255
208 228 255
208 228 255
208 228 255
208 228 255
208 228 255
208 228 255
208 228 255
208 228 255
208 228 255
208 228 255
208 228 255
208 228 255
208 228 255
208 228 255
208 228 255
208 228 255
207 228 255
207 228 255
207 228 255
207 228 255
207 228 255
207 228 255
207 228 255
207 228 255
207 228 255
207 228 255
207 228 255
207 228 255
207 228 255
207 228 255
207 228 255
207 228 255
207 227 255
207 227 255
207 227 255
207 227 255
207 227 255
207 227 255
206 227 255
206 227 255
206 227 255
206 227 255
206 227 255
206 227 255
206 227 255
206 227 255
206 227 255
206 227 255
206 227 255
206 227 255
206 227 255
206 227 255
206 227 255
206 227 255
206 227 255
206 227 255
206 227 255
206 227 255
206 227 255
206 227 255
206 227 255
206 227 255
206 227 255
206 227 255
206 227 255
206 227 255
206 227 255
206 227 255
206 227 255
206 227 255
206 227 255
205 227 255
205 227 255
205 227 255
205 227 255
205 227 255
189 211 244
164 186 227
149 173 217
137 161 211
110 137 199
109 136 197
78 111 184
62 99 175
61 98 176
62 98 175
62 99 176
61 98 175
62 99 175
71 105 182
98 127 193
130 155 208
141 165 215
158 181 225
168 191 231
183 205 240
205 226 255
205 227 255
205 227 255
205 227 255
206 227 255
206 227 255
206 227 255
206 227 255
206 227 255
206 227 255
206 227 255
206 227 255
206 227 255
206 227 255
206 227 255
206 227 255
206 227 255
206 227 255
206 227 255
206 227 255
206 227 255
206 227 255
206 227 255
206 227 255
206 227 255
206 227 255
206 227 255
206 227 255
206 227 255
206 227 255
206 227 255
206 227 255
206 227 255
206 227 255
206 227 255
206 227 255
206 227 255
206 227 255
206 227 255
207 227 255
207 227 255
207 227 255
207 227 255
207 227 255
207 228 255
207 228 255
207 228 255
207 228 255
207 228 255
207 228 255
207 228 255
207 228 255
207 228 255
207 228 255
207 228 255
207 228 255
207 228 255
207 228 255
207 228 255
207 228 255
208 228 255
208 228 255
208 228 255
208 228 255
208 228 255
208 228 255
208 228 255
208 228 255
208 228 255
208 228 255
208 228 255
208 228 255
208 228 255
208 228 255
208 228 255
208 228 255
208 228 255
206 225 250
179 190 198
139 139 103
132 131 87
127 126 84
132 130 87
131 129 87
133 132 89
144 143 95
143 141 95
143 141 95
148 146 98
135 134 90
136 135 91
140 139 93
137 137 92
134 134 90
144 143 96
152 150 101
156 155 104
138 137 93
141 141 95
146 144 97
147 146 98
145 144 97
151 150 101
151 150 101
144 142 95
146 145 98
153 151 101
150 148 99
146 145 97
146 144 97
142 141 95
147 145 97
157 156 105
150 148 99
152 150 101
157 154 103
151 149 99
153 151 101
158 156 104
154 152 101
148 146 98
153 150 100
159 157 104
151 149 99
155 152 101
156 153 101
155 152 101
155 151 100
147 145 97
158 156 104
154 151 100
154 152 101
161 158 104
149 147 98
161 158 105
156 154 102
150 147 98
147 146 97
157 154 102
151 148 99
152 149 99
149 146 97
153 150 99
152 150 100
153 150 99
152 149 98
153 149 97
155 153 101
154 151 97
151 148 98
142 139 90
148 145 95
159 156 104
145 142 93
156 153 101
156 152 100
157 154 101
148 145 95
156 152 99
151 147 97
150 146 95
150 148 96
159 154 99
151 148 99
147 143 93
144 140 90
149 145 95
150 146 95
149 146 94
155 150 97
143 139 90
152 148 94
145 141 92
146 142 91
139 135 87
155 150 95
135 131 82
147 142 90
148 145 93
152 147 93
139 136 86
133 129 81
146 142 92
149 145 93
134 130 82
146 141 89
137 133 84
147 142 91
138 135 84
134 130 84
210 229 255
210 229 255
209 229 255
209 228 255
208 228 255
207 228 255
207 228 255
206 227 255
206 227 255
205 227 255
205 226 255
204 226 255
204 226 255
203 226 255
203 225 255
202 225 255
202 225 255
202 225 255
201 224 255
201 224 255
200 224 255
200 224 255
199 223 255
199 223 255
198 223 255
198 223 255
198 223 255
197 222 255
197 222 255
196 222 255
196 222 255
196 222 255
195 221 255
195 221 255
194 221 255
194 221 255
194 221 255
193 220 255
193 220 255
193 220 255
192 220 255
192 220 255
192 219 255
191 219 255
191 219 255
191 219 255
190 219 255
190 219 255
190 218 255
189 218 255
189 218 255
189 218 255
188 218 255
188 218 255
188 217 255
188 217 255
187 217 255
187 217 255
187 217 255
187 217 255
186 217 255
186 217 255
186 217 255
186 216 255
186 216 255
186 216 255
185 216 255
185 216 255
185 216 255
185 216 255
185 216 255
185 216 255
185 216 255
185 216 255
185 216 255
185 216 255
185 216 255
185 216 255
185 216 255
185 216 255
185 216 255
185 216 255
185 216 255
185 216 255
186 216 255
186 216 255
186 217 255
186 217 255
187 217 255
187 217 255
187 217 255
188 217 255
188 218 255
189 218 255
189 218 255
190 219 255
191 219 255
192 219 255
192 220 255
193 220 255
194 221 255
195 221 255
196 222 255
198 223 255
199 223 255
200 224 255
202 225 255
204 226 255
206 227 255
208 228 255
211 230 255
214 232 255
217 233 255
213 231 255
209 229 255
208 228 255
208 228 255
208 228 255
208 228 255
208 228 255
208 228 255
208 228 255
208 228 255
208 228 255
208 228 255
208 228 255
208 228 255
208 228 255
208 228 255
208 228 255
208 228 255
208 228 255
208 228 255
208 228 255
208 228 255
207 228 255
207 228 255
207 228 255
207 228 255
207 228 255
207 228 255
207 228 255
207 228 255
207 228 255
207 228 255
207 228 255
207 228 255
207 228 255
207 228 255
207 228 255
207 228 255
207 228 255
207 227 255
207 227 255
207 227 255
207 227 255
207 227 255
207 227 255
206 227 255
206 227 255
206 227 255
206 227 255
206 227 255
206 227 255
206 227 255
206 227 255
206 227 255
206 227 255
206 227 255
206 227 255
206 227 255
206 227 255
206 227 255
206 227 255
206 227 255
206 227 255
206 227 255
206 227 255
206 227 255
206 227 255
206 227 255
206 227 255
206 227 255
206 227 255
206 227 255
202 223 253
176 198 235
148 172 219
121 146 203
65 101 179
63 99 177
61 98 172
62 99 174
62 99 175
63 100 180
62 99 175
62 99 176
62 99 171
62 98 171
62 98 173
62 99 177
62 99 174
62 99 175
61 98 175
62 99 175
62 99 176
63 99 173
62 98 174
62 99 177
63 99 178
68 103 180
121 146 201
152 175 221
179 200 237
202 223 253
206 227 255
206 227 255
206 227 255
206 227 255
206 227 255
206 227 255
206 227 255
206 227 255
206 227 255
206 227 255
206 227 255
206 227 255
206 227 255
206 227 255
206 227 255
206 227 255
206 227 255
206 227 255
206 227 255
206 227 255
206 227 255
206 227 255
206 227 255
206 227 255
206 227 255
206 227 255
206 227 255
207 227 255
207 227 255
207 227 255
207 227 255
207 227 255
207 227 255
207 228 255
207 228 255
207 228 255
207 228 255
207 228 255
207 228 255
207 228 255
207 228 255
207 228 255
207 228 255
207 228 255
207 228 255
207 228 255
207 228 255
207 228 255
207 228 255
207 228 255
208 228 255
208 228 255
208 228 255
208 228 255
208 228 255
208 228 255
208 228 255
208 228 255
208 228 255
208 228 255
208 228 255
208 228 255
208 228 255
208 228 255
208 228 255
208 228 255
208 228 255
208 228 255
208 228 255
208 228 255
209 228 255
185 199 213
136 137 111
128 125 83
131 129 87
122 121 81
146 144 97
143 142 95
134 134 90
132 132 89
140 138 92
142 141 95
139 138 93
142 140 94
145 145 98
154 152 102
148 146 98
140 139 93
144 143 96
145 144 97
137 137 92
152 151 101
148 146 98
150 148 99
145 144 97
153 151 102
144 143 96
148 147 99
156 154 103
152 150 101
151 150 101
156 154 103
160 158 106
149 148 99
153 152 102
153 152 102
152 150 100
155 153 102
147 146 97
150 148 99
156 155 104
153 150 100
154 152 102
154 152 102
155 154 103
153 150 100
154 153 103
147 144 96
163 161 107
156 154 103
149 147 98
148 146 97
159 156 103
156 154 103
154 152 101
158 155 103
157 155 103
152 149 98
158 154 101
155 153 101
155 152 101
155 152 101
152 150 100
153 150 100
148 146 97
158 155 103
151 147 97
154 152 100
151 148 97
159 155 101
155 151 99
147 144 95
148 145 96
154 152 101
151 149 99
153 150 97
159 156 104
155 151 97
153 150 99
153 150 97
153 150 99
148 146 96
155 151 98
161 156 101
139 138 91
151 148 96
154 150 98
150 147 94
155 152 99
143 140 90
150 146 94
140 137 87
152 149 97
154 151 98
146 143 93
152 148 96
148 144 93
142 139 89
146 142 93
156 152 97
152 148 97
142 139 87
143 139 90
153 148 95
154 150 95
148 145 95
158 153 98
153 149 94
143 140 90
143 139 87
145 141 91
146 142 93
146 142 89
144 140 87
147 142 90
209 229 255
209 229 255
208 228 255
208 228 255
207 228 255
207 227 255
206 227 255
206 227 255
205 227 255
205 226 255
204 226 255
204 226 255
203 226 255
203 225 255
202 225 255
202 225 255
201 225 255
201 224 255
201 224 255
200 224 255
200 224 255
199 223 255
199 223 255
198 223 255
198 223 255
198 223 255
197 222 255
197 222 255
196 222 255
196 222 255
195 221 255
195 221 255
195 221 255
194 221 255
194 221 255
194 220 255
193 220 255
193 220 255
192 220 255
192 220 255
192 219 255
191 219 255
191 219 255
191 219 255
190 219 255
190 219 255
190 218 255
189 218 255
189 218 255
189 218 255
188 218 255
188 218 255
188 217 255
188 217 255
187 217 255
187 217 255
187 217 255
187 217 255
187 217 255
187 217 255
187 217 255
187 217 255
187 217 255
187 217 255
187 217 255
187 217 255
187 217 255
186 217 255
186 217 255
186 216 255
186 216 255
185 216 255
185 216 255
185 216 255
184 216 255
184 216 255
184 215 255
184 215 255
184 215 255
184 215 255
184 215 255
184 216 255
184 216 255
184 216 255
184 216 255
185 216 255
185 216 255
185 216 255
185 216 255
186 216 255
186 216 255
186 217 255
187 217 255
187 217 255
188 217 255
188 218 255
189 218 255
190 218 255
190 219 255
191 219 255
192 220 255
193 220 255
194 221 255
195 221 255
196 222 255
197 222 255
199 223 255
200 224 255
202 225 255
204 226 255
206 227 255
208 228 255
211 230 255
215 232 255
217 233 255
213 231 255
209 229 255
209 229 255
209 228 255
209 228 255
208 228 255
208 228 255
208 228 255
208 228 255
208 228 255
208 228 255
208 228 255
208 228 255
208 228 255
208 228 255
208 228 255
208 228 255
208 228 255
208 228 255
208 228 255
208 228 255
208 228 255
208 228 255
208 228 255
208 228 255
208 228 255
207 228 255
207 228 255
207 228 255
207 228 255
207 228 255
207 228 255
207 228 255
207 228 255
207 228 255
207 228 255
207 228 255
207 228 255
207 228 255
207 228 255
207 228 255
207 228 255
207 228 255
207 228 255
207 227 255
207 227 255
207 227 255
207 227 255
207 227 255
207 227 255
207 227 255
206 227 255
206 227 255
206 227 255
206 227 255
206 227 255
206 227 255
206 227 255
206 227 255
206 227 255
206 227 255
206 227 255
206 227 255
206 227 255
206 227 255
206 227 255
206 227 255
203 224 254
164 187 226
129 154 206
73 107 184
62 99 176
62 99 173
62 99 178
62 99 175
62 99 173
62 99 173
62 99 172
62 98 173
62 99 171
62 99 172
63 100 175
62 98 171
62 99 175
62 99 173
62 99 171
62 99 174
62 98 174
62 99 176
62 99 173
62 98 172
62 99 174
62 98 170
62 99 172
61 97 170
63 99 177
62 99 179
62 99 176
61 98 174
83 114 182
121 146 201
171 193 231
199 221 250
206 227 255
206 227 255
206 227 255
206 227 255
206 227 255
206 227 255
206 227 255
206 227 255
206 227 255
206 227 255
206 227 255
206 227 255
206 227 255
206 227 255
206 227 255
206 227 255
207 227 255
207 227 255
207 227 255
207 227 255
207 227 255
207 227 255
207 227 255
207 228 255
207 228 255
207 228 255
207 228 255
207 228 255
207 228 255
207 228 255
207 228 255
207 228 255
207 228 255
207 228 255
207 228 255
207 228 255
207 228 255
207 228 255
207 228 255
207 228 255
207 228 255
208 228 255
208 228 255
208 228 255
208 228 255
208 228 255
208 228 255
208 228 255
208 228 255
208 228 255
208 228 255
208 228 255
208 228 255
208 228 255
208 228 255
208 228 255
208 228 255
208 228 255
208 228 255
208 228 255
208 228 255
208 228 255
209 228 255
209 228 255
209 229 255
209 229 255
188 202 215
146 149 129
135 132 87
136 133 88
136 134 90
140 137 91
144 143 95
138 136 91
138 138 93
150 148 99
142 141 95
152 150 100
138 137 92
144 143 96
153 151 101
144 143 96
146 145 97
145 144 97
141 139 93
150 148 99
150 149 100
140 139 94
148 148 100
144 143 95
148 146 98
154 152 102
155 154 103
154 153 103
148 146 98
158 156 104
150 149 99
151 149 100
149 146 97
157 155 104
158 156 104
145 143 96
158 156 104
153 151 101
159 157 105
152 149 99
150 149 100
160 157 104
153 153 103
160 158 106
148 145 97
153 151 101
155 153 102
153 151 101
154 151 101
160 157 105
164 161 107
157 155 103
163 160 106
148 146 97
147 145 96
152 150 100
161 159 106
157 155 103
161 159 106
149 146 97
152 149 99
154 151 99
152 149 99
155 152 101
165 161 106
159 156 103
154 151 100
154 151 99
154 150 99
156 152 100
160 156 103
150 148 97
155 152 100
155 153 100
156 151 99
158 154 101
157 153 101
157 153 99
155 151 97
152 150 99
160 156 103
142 139 91
148 145 94
159 155 101
154 150 99
150 146 95
146 142 91
152 148 96
157 152 98
147 143 93
159 155 101
153 149 97
149 145 94
159 154 99
156 152 99
152 148 96
153 150 97
148 143 91
148 144 91
139 135 87
146 141 90
146 143 90
145 141 89
145 142 91
131 127 81
154 150 96
149 145 91
149 145 93
151 146 93
146 142 92
147 143 90
147 143 92
137 133 84
141 137 83
147 143 90
141 137 84
209 229 255
208 228 255
208 228 255
207 228 255
206 227 255
206 227 255
205 227 255
205 227 255
205 226 255
204 226 255
204 226 255
203 226 255
203 225 255
202 225 255
202 225 255
201 225 255
201 224 255
200 224 255
200 224 255
200 224 255
199 223 255
199 223 255
198 223 255
198 223 255
197 223 255
197 222 255
197 222 255
196 222 255
196 222 255
195 221 255
195 221 255
195 221 255
194 221 255
194 221 255
194 220 255
193 220 255
193 220 255
192 220 255
192 220 255
192 219 255
191 219 255
191 219 255
191 219 255
190 219 255
190 219 255
190 218 255
189 218 255
189 218 255
189 218 255
189 218 255
189 218 255
189 218 255
190 219 255
190 219 255
190 219 255
191 219 255
191 219 255
191 219 255
191 219 255
192 219 255
192 219 255
192 219 255
192 219 255
191 219 255
191 219 255
191 219 255
191 219 255
191 219 255
191 219 255
191 219 255
191 219 255
190 219 255
190 219 255
190 218 255
189 218 255
189 218 255
188 218 255
188 217 255
187 217 255
186 217 255
186 216 255
185 216 255
184 215 255
184 215 255
183 215 255
184 215 255
184 215 255
184 215 255
184 216 255
184 216 255
185 216 255
185 216 255
185 216 255
186 216 255
186 217 255
187 217 255
187 217 255
188 217 255
189 218 255
189 218 255
190 219 255
191 219 255
192 219 255
193 220 255
194 220 255
195 221 255
196 222 255
197 222 255
199 223 255
200 224 255
202 225 255
204 226 255
206 227 255
209 229 255
212 230 255
215 232 255
217 233 255
210 229 255
209 229 255
209 229 255
209 229 255
209 229 255
209 229 255
209 228 255
208 228 255
208 228 255
208 228 255
208 228 255
208 228 255
208 228 255
208 228 255
208 228 255
208 228 255
208 228 255
208 228 255
208 228 255
208 228 255
208 228 255
208 228 255
208 228 255
208 228 255
208 228 255
208 228 255
208 228 255
208 228 255
208 228 255
208 228 255
207 228 255
207 228 255
207 228 255
207 228 255
207 228 255
207 228 255
207 228 255
207 228 255
207 228 255
207 228 255
207 228 255
207 228 255
207 228 255
207 228 255
207 228 255
207 228 255
207 228 255
207 228 255
207 228 255
207 228 255
207 227 255
207 227 255
207 227 255
207 227 255
207 227 255
207 227 255
207 227 255
207 227 255
206 227 255
206 227 255
206 227 255
206 227 255
206 227 255
189 210 243
132 156 209
76 109 180
61 99 178
62 99 174
62 99 178
62 99 174
62 99 176
61 98 170
62 99 174
62 99 171
62 99 176
62 99 172
63 99 177
62 98 171
63 100 174
62 98 169
62 99 170
62 98 172
62 99 171
63 100 177
62 99 175
62 99 171
62 98 173
62 99 177
62 98 171
62 98 170
62 98 170
63 100 180
62 99 174
62 98 172
62 99 173
62 99 173
62 99 172
62 99 176
62 98 172
62 98 174
73 107 179
139 163 212
176 198 235
206 227 255
206 227 255
206 227 255
206 227 255
206 227 255
207 227 255
207 227 255
207 227 255
207 227 255
207 227 255
207 227 255
207 227 255
207 227 255
207 228 255
207 228 255
207 228 255
207 228 255
207 228 255
207 228 255
207 228 255
207 228 255
207 228 255
207 228 255
207 228 255
207 228 255
207 228 255
207 228 255
207 228 255
207 228 255
207 228 255
207 228 255
207 228 255
207 228 255
207 228 255
208 228 255
208 228 255
208 228 255
208 228 255
208 228 255
208 228 255
208 228 255
208 228 255
208 228 255
208 228 255
208 228 255
208 228 255
208 228 255
208 228 255
208 228 255
208 228 255
208 228 255
208 228 255
208 228 255
208 228 255
208 228 255
209 228 255
209 228 255
209 229 255
209 229 255
209 229 255
209 229 255
209 229 255
204 221 242
162 169 163
135 133 87
134 131 87
132 131 87
135 133 89
135 134 90
136 135 90
140 139 94
139 138 93
139 137 92
145 144 97
142 140 94
146 145 97
138 137 92
142 141 95
149 148 99
147 146 98
149 147 99
152 150 101
149 149 100
139 138 93
147 147 99
154 153 103
151 149 100
155 154 104
151 150 100
162 159 107
149 147 98
146 144 97
159 157 106
152 151 101
159 157 105
154 153 103
156 153 102
154 153 103
150 148 99
154 153 103
152 150 100
159 156 104
149 146 97
151 149 99
161 158 105
159 158 106
158 156 104
157 155 104
151 149 99
157 155 103
158 156 104
153 151 101
156 153 102
160 156 103
158 155 103
156 154 103
160 157 104
149 147 97
158 155 103
158 155 103
153 150 99
151 148 99
152 149 99
160 156 102
157 153 100
149 146 97
155 153 102
160 157 104
160 156 102
157 154 101
157 153 101
154 151 100
155 152 101
152 149 96
162 158 102
160 156 101
154 151 99
159 156 102
151 147 95
153 149 95
156 152 99
149 146 96
156 151 99
154 149 95
155 152 99
160 157 104
159 156 101
150 146 95
147 143 90
156 151 99
150 147 96
143 139 90
145 141 90
157 153 98
158 154 100
146 143 91
150 146 95
151 146 93
155 150 97
148 145 95
149 145 90
150 145 95
152 148 95
158 153 97
145 142 91
146 142 90
141 137 87
154 149 95
156 151 95
147 143 90
140 135 84
146 141 91
145 141 91
144 140 88
145 141 90
142 138 86
148 143 88
144 141 87
134 131 83
144 141 88
208 228 255
207 228 255
207 228 255
206 227 255
206 227 255
205 227 255
205 227 255
205 226 255
204 226 255
204 226 255
203 226 255
203 225 255
202 225 255
202 225 255
201 225 255
201 224 255
200 224 255
200 224 255
200 224 255
199 223 255
199 223 255
198 223 255
198 223 255
198 223 255
197 222 255
197 222 255
196 222 255
196 222 255
196 221 255
195 221 255
195 221 255
194 221 255
194 221 255
194 220 255
193 220 255
193 220 255
192 220 255
192 220 255
192 219 255
191 219 255
191 219 255
191 219 255
190 219 255
190 219 255
190 219 255
191 219 255
191 219 255
192 220 255
193 220 255
193 220 255
193 220 255
193 220 255
194 221 255
194 221 255
194 221 255
194 221 255
194 221 255
194 221 255
194 221 255
194 221 255
195 221 255
194 221 255
195 221 255
195 221 255
194 221 255
194 221 255
194 221 255
194 221 255
194 221 255
194 221 255
194 220 255
193 220 255
193 220 255
193 220 255
193 220 255
192 220 255
192 220 255
192 220 255
192 219 255
191 219 255
191 219 255
190 219 255
189 218 255
189 218 255
187 217 255
187 217 255
185 216 255
184 216 255
184 215 255
183 215 255
184 215 255
184 215 255
184 216 255
185 216 255
185 216 255
185 216 255
186 216 255
186 217 255
187 217 255
188 217 255
188 218 255
189 218 255
190 218 255
191 219 255
192 219 255
192 220 255
194 220 255
195 221 255
196 222 255
197 222 255
199 223 255
201 224 255
202 225 255
205 226 255
207 227 255
210 229 255
213 231 255
217 233 255
215 232 255
209 229 255
209 229 255
209 229 255
209 229 255
209 229 255
209 229 255
209 229 255
209 229 255
209 229 255
209 228 255
208 228 255
208 228 255
208 228 255
208 228 255
208 228 255
208 228 255
208 228 255
208 228 255
208 228 255
208 228 255
208 228 255
208 228 255
208 228 255
208 228 255
208 228 255
208 228 255
208 228 255
208 228 255
208 228 255
208 228 255
208 228 255
208 228 255
208 228 255
208 228 255
207 228 255
207 228 255
207 228 255
207 228 255
207 228 255
207 228 255
207 228 255
207 228 255
207 228 255
207 228 255
207 228 255
207 228 255
207 228 255
207 228 255
207 228 255
207 228 255
207 228 255
207 228 255
207 228 255
207 228 255
207 228 255
207 228 255
207 228 255
207 228 255
206 227 255
177 199 235
106 133 190
62 99 173
62 99 173
63 99 177
62 99 174
61 98 171
62 99 172
62 99 178
61 98 169
63 99 172
62 98 170
62 98 171
62 99 176
62 99 170
62 98 172
62 98 170
63 99 175
62 99 172
62 98 167
62 99 173
62 99 176
61 98 171
62 99 173
62 99 175
62 99 175
63 99 168
62 99 170
62 99 172
62 98 170
62 98 169
62 99 176
62 98 167
62 98 169
63 99 174
62 98 174
62 98 170
61 97 170
62 98 172
62 98 170
62 98 174
62 98 174
107 134 193
160 182 224
205 226 254
207 228 255
207 228 255
207 228 255
207 228 255
207 228 255
207 228 255
207 228 255
207 228 255
207 228 255
207 228 255
207 228 255
207 228 255
207 228 255
207 228 255
207 228 255
207 228 255
207 228 255
207 228 255
207 228 255
207 228 255
207 228 255
207 228 255
207 228 255
207 228 255
208 228 255
208 228 255
208 228 255
208 228 255
208 228 255
208 228 255
208 228 255
208 228 255
208 228 255
208 228 255
208 228 255
208 228 255
208 228 255
208 228 255
208 228 255
208 228 255
208 228 255
208 228 255
208 228 255
208 228 255
208 228 255
208 228 255
208 228 255
209 228 255
209 228 255
209 229 255
209 229 255
209 229 255
209 229 255
209 229 255
209 229 255
209 229 255
209 229 255
208 228 254
169 180 183
130 129 93
132 130 86
136 134 90
139 136 91
138 136 91
135 132 88
141 140 94
143 142 96
144 143 96
144 143 97
145 143 96
137 136 91
134 133 89
153 152 102
143 142 96
156 154 103
142 141 95
144 144 97
147 147 99
139 138 93
149 147 99
147 146 98
149 149 100
153 151 101
139 137 92
156 154 103
147 145 97
154 152 101
149 148 99
160 158 106
152 151 102
158 156 104
154 153 103
150 148 99
156 154 103
156 154 103
154 153 102
158 156 104
149 147 98
159 157 104
149 146 97
161 158 105
160 157 104
159 155 103
152 149 99
156 154 103
154 152 102
155 153 102
161 158 104
160 157 105
154 151 101
154 151 100
161 157 104
159 155 103
158 156 104
154 151 100
164 160 106
161 157 104
155 151 100
153 150 99
150 148 99
160 157 105
157 155 103
156 153 100
149 146 97
161 157 104
165 162 105
152 149 97
152 149 97
152 150 99
160 156 103
153 150 100
157 153 99
157 153 97
153 149 97
159 155 102
161 156 101
150 146 94
149 146 95
153 149 98
156 152 99
147 145 95
159 156 101
157 152 99
154 149 96
152 148 97
163 158 103
156 153 99
154 150 96
149 146 94
148 145 93
157 152 98
153 147 95
157 154 99
159 154 96
157 153 98
147 144 93
155 151 98
152 148 93
152 148 95
152 148 95
147 143 89
152 148 93
156 151 96
146 142 93
155 150 97
150 145 94
148 143 90
149 146 90
147 143 90
150 146 93
141 137 88
145 141 92
142 138 86
142 137 85
142 137 87
142 139 88
145 139 88
207 228 255
207 228 255
206 227 255
206 227 255
205 227 255
205 227 255
204 226 255
204 226 255
204 226 255
203 226 255
203 225 255
202 225 255
202 225 255
201 225 255
201 224 255
200 224 255
200 224 255
200 224 255
199 223 255
199 223 255
198 223 255
198 223 255
198 223 255
197 222 255
197 222 255
196 222 255
196 222 255
196 222 255
195 221 255
195 221 255
194 221 255
194 221 255
194 221 255
193 220 255
193 220 255
193 220 255
192 220 255
192 220 255
192 219 255
192 219 255
192 219 255
192 220 255
193 220 255
194 221 255
194 221 255
195 221 255
195 221 255
195 221 255
195 221 255
196 222 255
196 222 255
196 222 255
196 222 255
196 222 255
196 222 255
196 222 255
196 222 255
197 222 255
196 222 255
197 222 255
197 222 255
197 222 255
196 222 255
196 222 255
197 222 255
196 222 255
196 222 255
196 222 255
196 222 255
196 222 255
196 222 255
196 222 255
196 222 255
195 221 255
195 221 255
195 221 255
195 221 255
195 221 255
194 221 255
194 221 255
194 220 255
193 220 255
193 220 255
192 220 255
192 220 255
191 219 255
191 219 255
190 219 255
189 218 255
187 217 255
186 217 255
185 216 255
184 215 255
184 215 255
184 215 255
184 216 255
185 216 255
185 216 255
186 216 255
186 217 255
187 217 255
187 217 255
188 218 255
189 218 255
190 218 255
191 219 255
192 219 255
193 220 255
194 221 255
195 221 255
196 222 255
198 223 255
199 223 255
201 224 255
203 225 255
205 227 255
208 228 255
211 230 255
215 232 255
217 233 255
212 230 255
209 229 255
209 229 255
209 229 255
209 229 255
209 229 255
209 229 255
209 229 255
209 229 255
209 229 255
209 229 255
209 229 255
209 229 255
209 229 255
209 228 255
208 228 255
208 228 255
208 228 255
208 228 255
208 228 255
208 228 255
208 228 255
208 228 255
208 228 255
208 228 255
208 228 255
208 228 255
208 228 255
208 228 255
208 228 255
208 228 255
208 228 255
208 228 255
208 228 255
208 228 255
208 228 255
208 228 255
208 228 255
208 228 255
208 228 255
207 228 255
207 228 255
207 228 255
207 228 255
207 228 255
207 228 255
207 228 255
207 228 255
207 228 255
207 228 255
207 228 255
207 228 255
207 228 255
207 228 255
207 228 255
206 227 255
168 190 229
94 123 186
62 99 174
62 99 173
63 99 173
63 99 172
62 99 175
62 99 173
62 99 172
62 99 173
61 98 168
62 99 170
62 98 173
62 98 171
63 99 174
62 98 171
61 98 165
62 99 172
63 99 171
61 98 174
63 99 174
63 99 175
63 99 170
62 99 172
62 99 170
61 98 169
63 99 175
62 99 169
62 98 171
62 98 168
62 99 171
63 100 176
61 98 170
62 99 174
62 99 175
62 98 170
62 99 176
62 98 167
62 98 173
61 97 172
61 98 170
61 98 173
61 98 172
62 98 173
62 99 176
62 98 174
92 120 182
164 186 224
206 227 255
207 228 255
207 228 255
207 228 255
207 228 255
207 228 255
207 228 255
207 228 255
207 228 255
207 228 255
207 228 255
207 228 255
207 228 255
207 228 255
207 228 255
207 228 255
208 228 255
208 228 255
208 228 255
208 228 255
208 228 255
208 228 255
208 228 255
208 228 255
208 228 255
208 228 255
208 228 255
208 228 255
208 228 255
208 228 255
208 228 255
208 228 255
208 228 255
208 228 255
208 228 255
208 228 255
208 228 255
208 228 255
208 228 255
208 228 255
208 228 255
209 228 255
209 228 255
209 229 255
209 229 255
209 229 255
209 229 255
209 229 255
209 229 255
209 229 255
209 229 255
209 229 255
209 229 255
209 229 255
209 229 255
203 220 242
147 149 128
130 127 84
133 131 87
134 132 88
129 129 87
138 136 91
145 143 96
136 134 90
145 143 96
148 146 97
137 135 90
140 138 92
143 141 95
149 148 99
149 149 101
153 152 102
156 154 103
148 146 98
159 157 105
154 153 103
146 145 98
144 142 95
149 148 99
151 150 101
153 152 102
156 155 104
157 156 104
155 153 103
155 153 103
154 153 102
157 155 104
159 156 104
151 149 100
155 153 103
156 154 103
161 159 106
157 154 103
153 151 101
157 155 103
158 156 104
159 156 104
153 151 101
152 150 100
163 160 107
149 147 99
158 156 104
158 155 103
157 155 103
159 156 104
160 157 104
154 152 101
153 151 101
164 160 106
153 150 99
155 153 102
158 155 103
156 153 100
169 165 110
158 154 103
154 150 99
158 155 101
156 152 101
161 157 103
168 164 109
162 158 104
162 158 104
159 155 102
158 154 101
158 154 101
157 153 99
161 157 104
153 150 99
160 157 103
158 154 101
163 160 104
157 154 101
160 156 102
156 152 100
146 143 94
157 153 102
159 155 101
155 151 97
150 147 97
158 154 100
149 145 94
160 156 103
158 155 101
151 148 96
165 160 104
160 156 100
162 159 103
156 152 99
156 152 98
150 146 95
152 148 94
152 149 95
161 157 101
149 145 93
153 148 97
147 143 91
154 150 96
154 150 98
152 148 95
161 156 99
149 145 93
152 149 98
157 152 96
149 143 87
154 150 97
152 147 92
149 145 90
147 143 93
144 141 88
139 135 87
142 138 87
148 145 93
145 142 89
145 141 87
140 136 85
141 136 86
207 228 255
206 227 255
206 227 255
205 227 255
205 227 255
205 226 255
204 226 255
204 226 255
203 226 255
203 225 255
202 225 255
202 225 255
201 225 255
201 224 255
201 224 255
200 224 255
200 224 255
199 224 255
199 223 255
199 223 255
198 223 255
198 223 255
197 222 255
197 222 255
197 222 255
196 222 255
196 222 255
195 221 255
195 221 255
195 221 255
194 221 255
194 221 255
194 220 255
193 220 255
193 220 255
192 220 255
193 220 255
193 220 255
194 221 255
195 221 255
195 221 255
196 222 255
196 222 255
196 222 255
197 222 255
197 222 255
197 222 255
197 222 255
197 222 255
198 223 255
198 223 255
198 223 255
198 223 255
198 223 255
198 223 255
198 223 255
198 223 255
198 223 255
198 223 255
198 223 255
198 223 255
198 223 255
198 223 255
198 223 255
198 223 255
198 223 255
198 223 255
198 223 255
198 223 255
198 223 255
198 223 255
198 223 255
197 222 255
197 222 255
197 222 255
197 222 255
197 222 255
197 222 255
196 222 255
196 222 255
196 222 255
195 221 255
195 221 255
195 221 255
195 221 255
194 221 255
194 220 255
193 220 255
192 220 255
192 220 255
191 219 255
190 219 255
189 218 255
187 217 255
186 217 255
185 216 255
184 215 255
184 216 255
185 216 255
185 216 255
186 216 255
186 217 255
187 217 255
187 217 255
188 218 255
189 218 255
190 218 255
191 219 255
192 219 255
193 220 255
194 221 255
195 221 255
197 222 255
198 223 255
200 224 255
202 225 255
204 226 255
206 227 255
209 229 255
212 231 255
216 233 255
214 232 255
210 229 255
209 229 255
209 229 255
209 229 255
209 229 255
209 229 255
209 229 255
209 229 255
209 229 255
209 229 255
209 229 255
209 229 255
209 229 255
209 229 255
209 229 255
209 229 255
209 229 255
209 228 255
209 228 255
208 228 255
208 228 255
208 228 255
208 228 255
208 228 255
208 228 255
208 228 255
208 228 255
208 228 255
208 228 255
208 228 255
208 228 255
208 228 255
208 228 255
208 228 255
208 228 255
208 228 255
208 228 255
208 228 255
208 228 255
208 228 255
208 228 255
208 228 255
208 228 255
208 228 255
208 228 255
208 228 255
207 228 255
207 228 255
207 228 255
207 228 255
207 228 255
207 228 255
170 191 228
94 123 186
62 98 168
62 99 169
62 99 175
62 98 171
62 99 174
62 99 172
63 99 174
62 98 169
62 98 170
62 99 174
62 99 171
62 99 170
62 99 170
62 98 169
62 98 168
62 98 167
62 99 169
62 99 170
62 99 172
62 98 166
62 99 170
62 98 166
62 98 165
63 99 176
62 98 171
62 98 168
62 98 170
62 98 167
62 99 165
62 98 170
63 99 171
62 98 166
63 99 174
62 98 169
63 99 170
63 99 170
62 98 170
62 99 171
62 99 170
62 99 173
61 98 172
62 99 170
62 99 176
62 98 170
62 98 171
61 98 174
62 98 173
61 98 173
94 122 185
171 192 229
207 228 255
207 228 255
207 228 255
207 228 255
207 228 255
208 228 255
208 228 255
208 228 255
208 228 255
208 228 255
208 228 255
208 228 255
208 228 255
208 228 255
208 228 255
208 228 255
208 228 255
208 228 255
208 228 255
208 228 255
208 228 255
208 228 255
208 228 255
208 228 255
208 228 255
208 228 255
208 228 255
208 228 255
208 228 255
208 228 255
208 228 255
208 228 255
208 228 255
209 228 255
209 229 255
209 229 255
209 229 255
209 229 255
209 229 255
209 229 255
209 229 255
209 229 255
209 229 255
209 229 255
209 229 255
209 229 255
209 229 255
209 229 255
209 229 255
209 229 255
209 229 255
208 228 254
173 184 187
134 133 94
133 130 86
131 129 87
140 138 93
136 135 90
133 131 88
125 125 85
146 144 97
138 137 92
141 139 93
141 140 95
143 142 96
152 150 101
142 140 94
145 144 97
148 147 99
145 144 97
145 144 97
154 151 101
146 145 97
158 157 105
148 146 98
143 142 96
150 149 100
147 146 98
157 155 103
154 151 101
156 155 105
152 151 101
153 151 102
152 150 101
151 149 99
154 152 102
150 149 100
164 161 108
158 155 103
156 153 102
158 157 105
152 150 100
157 155 104
158 156 104
158 155 103
150 147 99
159 157 105
165 162 108
161 159 106
164 161 108
161 157 103
156 154 103
152 149 98
158 155 103
163 160 106
158 155 103
159 156 104
160 157 104
162 160 105
159 156 103
162 158 104
154 152 101
166 163 108
154 151 100
161 157 103
160 157 104
158 154 101
157 153 101
155 151 99
158 154 101
163 158 103
166 163 107
158 155 103
160 156 103
157 154 99
160 156 101
160 157 103
162 158 103
161 156 101
159 156 102
162 158 102
159 155 101
156 153 99
156 152 99
155 151 99
154 151 98
156 152 98
156 153 98
156 153 101
154 150 97
157 153 99
155 152 97
153 150 97
155 150 98
160 155 101
157 153 97
155 150 95
148 143 92
152 148 97
159 155 99
155 151 95
157 153 99
149 145 93
161 157 101
157 152 97
154 150 96
153 150 95
145 140 88
142 138 87
150 146 93
148 144 90
150 145 93
148 143 90
146 141 88
147 143 90
151 147 93
152 148 94
143 138 84
144 140 88
160 156 101
146 142 89
141 138 88
148 142 87
154 148 93
206 227 255
206 227 255
206 227 255
205 227 255
205 226 255
204 226 255
204 226 255
203 226 255
203 225 255
202 225 255
202 225 255
202 225 255
201 225 255
201 224 255
200 224 255
200 224 255
200 224 255
199 223 255
199 223 255
198 223 255
198 223 255
198 223 255
197 222 255
197 222 255
196 222 255
196 222 255
196 222 255
195 221 255
195 221 255
195 221 255
194 221 255
194 221 255
194 220 255
194 220 255
194 221 255
195 221 255
196 222 255
197 222 255
197 222 255
197 222 255
198 223 255
198 223 255
198 223 255
198 223 255
199 223 255
199 223 255
199 223 255
199 223 255
199 223 255
199 223 255
199 223 255
199 224 255
199 224 255
200 224 255
200 224 255
200 224 255
200 224 255
200 224 255
200 224 255
200 224 255
200 224 255
200 224 255
200 224 255
200 224 255
200 224 255
200 224 255
199 224 255
199 224 255
199 224 255
199 223 255
199 223 255
199 223 255
199 223 255
199 223 255
199 223 255
199 223 255
198 223 255
198 223 255
198 223 255
198 223 255
198 223 255
197 222 255
197 222 255
197 222 255
196 222 255
196 222 255
196 222 255
195 221 255
195 221 255
195 221 255
194 221 255
194 220 255
193 220 255
192 220 255
191 219 255
190 219 255
189 218 255
187 217 255
185 216 255
184 216 255
185 216 255
185 216 255
186 216 255
186 217 255
187 217 255
188 217 255
188 218 255
189 218 255
190 219 255
191 219 255
192 220 255
193 220 255
195 221 255
196 222 255
197 222 255
199 223 255
201 224 255
203 225 255
205 227 255
207 228 255
210 229 255
214 232 255
217 233 255
212 230 255
209 229 255
209 229 255
209 229 255
209 229 255
209 229 255
209 229 255
209 229 255
209 229 255
209 229 255
209 229 255
209 229 255
209 229 255
209 229 255
209 229 255
209 229 255
209 229 255
209 229 255
209 229 255
209 229 255
209 229 255
209 229 255
209 228 255
209 228 255
208 228 255
208 228 255
208 228 255
208 228 255
208 228 255
208 228 255
208 228 255
208 228 255
208 228 255
208 228 255
208 228 255
208 228 255
208 228 255
208 228 255
208 228 255
208 228 255
208 228 255
208 228 255
208 228 255
208 228 255
208 228 255
208 228 255
208 228 255
208 228 255
208 228 255
192 213 244
125 150 201
62 99 174
62 98 167
62 99 173
62 99 170
62 98 166
62 99 169
62 99 173
62 98 165
62 99 171
62 98 167
62 99 168
63 99 169
62 99 169
63 99 169
62 99 168
62 98 159
62 99 169
62 98 166
62 98 166
63 99 167
62 98 169
62 98 172
63 99 168
62 98 167
62 98 165
62 99 167
62 98 167
62 98 164
62 98 170
62 98 171
61 98 167
62 99 166
62 98 168
62 99 170
62 98 170
62 98 167
62 98 173
62 99 169
62 98 171
61 97 163
62 98 165
61 97 167
63 99 170
61 98 170
62 98 171
62 98 170
62 98 171
63 99 169
61 97 174
61 98 172
61 97 168
61 97 171
117 142 198
188 208 241
208 228 255
208 228 255
208 228 255
208 228 255
208 228 255
208 228 255
208 228 255
208 228 255
208 228 255
208 228 255
208 228 255
208 228 255
208 228 255
208 228 255
208 228 255
208 228 255
208 228 255
208 228 255
208 228 255
208 228 255
208 228 255
208 228 255
208 228 255
208 228 255
208 228 255
209 228 255
209 229 255
209 229 255
209 229 255
209 229 255
209 229 255
209 229 255
209 229 255
209 229 255
209 229 255
209 229 255
209 229 255
209 229 255
209 229 255
209 229 255
209 229 255
209 229 255
209 229 255
209 229 255
209 229 255
209 229 255
209 229 255
209 229 255
201 217 236
148 150 126
136 134 89
136 134 89
132 130 86
137 135 90
140 139 94
128 127 86
141 140 95
142 140 94
147 146 99
143 142 95
134 133 90
138 136 92
149 148 100
146 145 97
152 151 102
152 150 101
146 145 98
148 147 99
145 144 97
153 151 101
148 146 98
150 148 100
148 146 98
151 149 99
148 146 99
158 156 104
156 154 104
153 150 100
149 147 98
150 148 99
158 156 105
158 156 104
152 150 101
157 154 103
160 158 105
156 154 103
156 154 103
159 157 105
151 149 99
157 155 104
161 158 105
164 161 107
162 159 106
155 152 101
159 156 104
157 153 101
161 159 106
148 145 96
161 159 106
158 154 103
158 156 104
162 158 105
157 154 102
166 163 109
156 153 101
151 149 99
160 157 104
163 159 105
162 158 103
157 154 103
161 158 104
157 154 101
159 156 103
158 155 103
162 158 104
165 161 106
165 161 106
166 162 105
165 162 106
160 157 103
159 156 101
162 159 103
161 157 104
155 153 101
158 155 101
155 151 96
162 158 103
166 161 105
163 159 104
155 152 99
161 157 103
162 157 102
160 155 100
160 156 101
152 149 97
154 152 100
157 153 99
153 149 95
161 156 101
156 152 99
159 154 100
156 151 95
158 153 98
151 148 96
156 152 98
160 155 99
154 150 96
155 152 97
156 152 95
159 155 96
157 153 97
153 148 92
158 153 99
150 147 94
160 155 101
150 147 93
158 154 97
149 144 90
144 141 89
151 147 94
149 146 92
144 140 85
150 145 92
148 145 91
147 142 93
139 136 85
141 136 85
143 138 87
149 143 90
157 152 95
145 140 89
143 139 87
206 227 255
206 227 255
205 227 255
205 226 255
204 226 255
204 226 255
204 226 255
203 226 255
203 225 255
202 225 255
202 225 255
201 225 255
201 224 255
201 224 255
200 224 255
200 224 255
199 224 255
199 223 255
199 223 255
198 223 255
198 223 255
197 223 255
197 222 255
197 222 255
196 222 255
196 222 255
196 222 255
195 221 255
195 221 255
195 221 255
195 221 255
195 221 255
196 222 255
197 222 255
197 222 255
198 223 255
198 223 255
199 223 255
199 223 255
199 223 255
199 224 255
200 224 255
200 224 255
200 224 255
200 224 255
200 224 255
200 224 255
200 224 255
201 224 255
201 224 255
201 224 255
201 224 255
201 224 255
201 224 255
201 224 255
201 224 255
201 224 255
201 224 255
201 224 255
201 224 255
201 224 255
201 224 255
201 224 255
201 224 255
201 224 255
201 224 255
201 224 255
201 224 255
201 224 255
201 224 255
201 224 255
200 224 255
200 224 255
200 224 255
200 224 255
200 224 255
200 224 255
200 224 255
199 224 255
199 223 255
199 223 255
199 223 255
199 223 255
199 223 255
198 223 255
198 223 255
198 223 255
197 222 255
197 222 255
197 222 255
196 222 255
196 222 255
195 221 255
195 221 255
194 221 255
193 220 255
193 220 255
191 219 255
190 219 255
189 218 255
187 217 255
185 216 255
185 216 255
185 216 255
186 216 255
186 217 255
187 217 255
188 217 255
189 218 255
190 218 255
190 219 255
192 219 255
193 220 255
194 221 255
195 221 255
197 222 255
198 223 255
200 224 255
202 225 255
204 226 255
206 227 255
209 229 255
213 231 255
217 233 255
214 232 255
210 229 255
210 229 255
210 229 255
210 229 255
210 229 255
209 229 255
209 229 255
209 229 255
209 229 255
209 229 255
209 229 255
209 229 255
209 229 255
209 229 255
209 229 255
209 229 255
209 229 255
209 229 255
209 229 255
209 229 255
209 229 255
209 229 255
209 229 255
209 229 255
209 229 255
209 229 255
209 229 255
209 229 255
209 228 255
208 228 255
208 228 255
208 228 255
208 228 255
208 228 255
208 228 255
208 228 255
208 228 255
208 228 255
208 228 255
208 228 255
208 228 255
208 228 255
208 228 255
208 228 255
208 228 255
207 227 255
163 185 226
64 100 169
61 98 170
62 98 170
62 98 168
62 98 168
63 99 173
63 99 169
62 98 169
62 98 171
63 99 166
62 98 163
62 99 172
62 99 169
62 98 164
63 99 168
62 98 169
62 98 167
62 98 168
63 99 171
61 98 167
62 99 170
63 99 168
62 99 170
62 98 167
62 98 169
62 98 170
62 98 170
62 99 164
62 98 171
61 98 164
62 98 162
62 99 170
61 98 169
61 98 166
62 98 165
62 98 166
63 99 171
62 99 172
61 98 164
61 97 160
62 98 168
62 99 174
62 98 167
63 99 171
62 98 169
61 97 168
62 98 171
61 97 164
61 96 166
61 97 164
61 97 166
62 98 173
61 97 162
61 97 168
61 98 172
67 101 168
153 175 215
208 228 255
208 228 255
208 228 255
208 228 255
208 228 255
208 228 255
208 228 255
208 228 255
208 228 255
208 228 255
208 228 255
208 228 255
208 228 255
208 228 255
208 228 255
208 228 255
209 228 255
209 228 255
209 228 255
209 229 255
209 229 255
209 229 255
209 229 255
209 229 255
209 229 255
209 229 255
209 229 255
209 229 255
209 229 255
209 229 255
209 229 255
209 229 255
209 229 255
209 229 255
209 229 255
209 229 255
209 229 255
209 229 255
209 229 255
209 229 255
209 229 255
209 229 255
210 229 255
210 229 255
210 229 255
210 229 255
184 198 212
126 125 90
129 126 83
132 129 86
137 134 89
134 132 89
141 139 93
138 136 91
148 146 98
146 144 97
154 152 102
142 140 95
149 147 99
146 144 97
145 144 97
149 148 100
144 142 96
156 155 104
150 148 99
155 153 103
151 149 100
144 143 97
156 154 103
149 147 99
143 142 95
148 147 99
158 156 105
155 153 102
151 149 101
163 161 108
161 159 106
158 156 104
154 151 101
148 146 97
154 152 101
161 159 106
161 159 106
161 158 105
160 158 105
155 154 103
156 154 103
158 156 104
159 156 104
157 154 102
159 157 105
161 158 104
159 156 104
160 156 103
164 160 106
157 153 102
161 159 106
155 152 101
156 154 103
160 156 103
166 163 108
156 153 101
156 153 102
159 156 103
155 153 102
154 150 99
157 154 102
162 159 104
165 162 106
161 157 103
161 157 103
155 152 99
156 152 99
170 166 109
161 156 101
167 164 108
158 155 101
167 163 106
159 154 100
164 160 103
163 159 104
160 155 101
161 157 103
158 155 100
156 153 99
152 147 95
159 155 99
163 158 103
157 153 100
156 153 100
154 149 97
162 158 103
162 158 101
160 156 101
164 159 101
155 151 98
159 156 102
157 153 95
150 146 93
147 143 92
150 146 94
156 152 98
161 156 101
159 154 97
151 147 95
156 153 99
153 149 96
153 149 94
156 151 96
155 149 95
155 150 98
158 154 99
152 148 93
156 151 98
150 146 93
157 152 95
153 150 93
146 143 89
153 149 94
155 152 98
150 146 94
154 149 95
154 149 91
148 144 90
154 149 95
150 146 91
145 140 89
154 149 92
149 144 89
145 141 87
152 148 93
206 227 255
205 227 255
205 227 255
205 226 255
204 226 255
204 226 255
203 226 255
203 225 255
203 225 255
202 225 255
202 225 255
201 225 255
201 224 255
201 224 255
200 224 255
200 224 255
199 224 255
199 223 255
199 223 255
198 223 255
198 223 255
197 222 255
197 222 255
197 222 255
196 222 255
196 222 255
196 222 255
195 221 255
196 221 255
197 222 255
198 223 255
198 223 255
199 223 255
199 223 255
199 224 255
200 224 255
200 224 255
200 224 255
200 224 255
201 224 255
201 224 255
201 224 255
201 224 255
201 225 255
201 225 255
201 225 255
202 225 255
202 225 255
202 225 255
202 225 255
202 225 255
202 225 255
202 225 255
202 225 255
202 225 255
202 225 255
202 225 255
202 225 255
202 225 255
202 225 255
202 225 255
202 225 255
202 225 255
202 225 255
202 225 255
202 225 255
202 225 255
202 225 255
202 225 255
202 225 255
202 225 255
202 225 255
201 225 255
201 225 255
201 225 255
201 224 255
201 224 255
201 224 255
201 224 255
201 224 255
200 224 255
200 224 255
200 224 255
200 224 255
200 224 255
199 224 255
199 223 255
199 223 255
199 223 255
198 223 255
198 223 255
198 223 255
197 222 255
197 222 255
196 222 255
196 222 255
195 221 255
194 221 255
194 221 255
193 220 255
192 220 255
190 219 255
189 218 255
186 217 255
185 216 255
185 216 255
186 217 255
187 217 255
187 217 255
188 218 255
189 218 255
190 219 255
191 219 255
192 220 255
193 220 255
195 221 255
196 222 255
198 223 255
199 223 255
201 224 255
203 226 255
206 227 255
208 228 255
211 230 255
216 233 255
216 232 255
210 229 255
210 229 255
210 229 255
210 229 255
210 229 255
210 229 255
210 229 255
210 229 255
210 229 255
210 229 255
209 229 255
209 229 255
209 229 255
209 229 255
209 229 255
209 229 255
209 229 255
209 229 255
209 229 255
209 229 255
209 229 255
209 229 255
209 229 255
209 229 255
209 229 255
209 229 255
209 229 255
209 229 255
209 229 255
209 229 255
209 229 255
209 229 255
209 229 255
209 229 255
209 229 255
209 228 255
208 228 255
208 228 255
208 228 255
208 228 255
208 228 255
208 228 255
208 228 255
195 215 246
110 136 194
62 99 168
62 99 172
62 99 170
61 98 169
61 98 163
63 99 171
62 98 167
62 98 165
62 98 164
62 99 170
63 100 174
62 98 169
62 98 169
62 99 169
62 99 170
63 99 171
62 98 166
62 99 166
63 99 168
62 99 170
62 99 166
62 99 167
63 99 172
62 98 165
62 98 168
63 99 165
62 98 166
62 99 168
61 97 158
62 98 165
62 98 168
62 99 167
62 98 167
62 98 168
62 99 171
62 98 160
61 98 164
62 98 164
62 98 170
62 98 162
62 99 167
63 98 162
60 96 159
62 99 173
60 96 159
62 98 166
62 98 167
62 98 169
61 96 158
61 97 163
62 99 172
62 98 171
61 97 167
62 98 171
62 98 171
62 98 170
61 97 167
60 96 165
115 140 190
203 223 251
208 228 255
208 228 255
208 228 255
208 228 255
208 228 255
208 228 255
208 228 255
209 228 255
209 228 255
209 229 255
209 229 255
209 229 255
209 229 255
209 229 255
209 229 255
209 229 255
209 229 255
209 229 255
209 229 255
209 229 255
209 229 255
209 229 255
209 229 255
209 229 255
209 229 255
209 229 255
209 229 255
209 229 255
209 229 255
209 229 255
209 229 255
209 229 255
209 229 255
210 229 255
210 229 255
210 229 255
210 229 255
210 229 255
210 229 255
210 229 255
210 229 255
210 229 255
206 225 251
167 178 182
131 128 84
131 129 84
128 125 84
141 140 94
133 132 90
143 142 96
141 140 94
145 143 96
148 147 99
134 134 91
140 139 95
137 136 91
146 144 97
152 151 102
147 145 97
148 147 99
145 143 95
147 146 99
147 145 97
146 145 98
155 153 103
157 155 104
154 152 103
155 153 103
157 155 104
153 151 102
151 149 100
153 151 102
146 144 96
161 160 107
157 155 104
157 155 104
159 157 105
156 153 102
152 150 101
158 155 103
155 153 103
160 157 104
164 161 108
161 158 104
157 154 102
163 160 107
162 158 104
160 156 103
165 162 108
168 163 108
164 161 107
162 159 106
162 159 106
162 159 105
154 150 100
166 162 106
161 158 104
162 159 106
161 157 103
163 160 106
167 163 106
163 160 104
161 158 105
169 165 108
159 155 102
163 159 104
161 157 103
160 157 103
161 158 103
162 159 104
158 156 102
155 152 99
163 158 104
166 162 105
163 160 105
157 154 102
163 159 104
163 158 104
155 152 100
160 156 102
167 163 106
162 159 103
159 155 102
159 155 99
163 159 103
163 159 104
164 159 103
162 157 101
154 151 97
162 157 99
159 154 101
155 151 96
158 154 95
155 152 97
159 155 99
155 151 95
162 157 101
152 149 98
157 152 97
166 161 104
149 145 95
159 156 100
161 157 101
162 158 100
162 157 101
161 157 101
150 145 90
152 148 93
148 144 90
152 146 93
150 146 88
148 143 92
149 145 92
156 152 94
158 153 97
152 148 93
157 153 96
158 153 95
150 146 91
154 149 95
162 157 100
146 142 89
149 145 90
151 147 90
153 148 92
152 147 90
148 144 91
146 142 87
144 140 86
206 227 255
205 227 255
205 226 255
204 226 255
204 226 255
204 226 255
203 226 255
203 225 255
202 225 255
202 225 255
202 225 255
201 225 255
201 224 255
200 224 255
200 224 255
200 224 255
199 223 255
199 223 255
199 223 255
198 223 255
198 223 255
197 222 255
197 222 255
197 222 255
196 222 255
196 222 255
197 222 255
198 223 255
199 223 255
199 223 255
200 224 255
200 224 255
200 224 255
201 224 255
201 224 255
201 224 255
201 225 255
202 225 255
202 225 255
202 225 255
202 225 255
202 225 255
202 225 255
202 225 255
202 225 255
203 225 255
203 225 255
203 225 255
203 225 255
203 225 255
203 225 255
203 225 255
203 225 255
203 225 255
203 225 255
203 225 255
203 225 255
203 225 255
203 226 255
203 225 255
203 226 255
203 225 255
203 225 255
203 225 255
203 225 255
203 225 255
203 225 255
203 225 255
203 225 255
203 225 255
203 225 255
203 225 255
203 225 255
202 225 255
202 225 255
202 225 255
202 225 255
202 225 255
202 225 255
202 225 255
202 225 255
201 225 255
201 225 255
201 224 255
201 224 255
201 224 255
200 224 255
200 224 255
200 224 255
200 224 255
200 224 255
199 223 255
199 223 255
199 223 255
198 223 255
198 223 255
197 222 255
197 222 255
196 222 255
195 221 255
195 221 255
194 221 255
193 220 255
192 219 255
190 219 255
188 217 255
186 216 255
186 216 255
187 217 255
187 217 255
188 218 255
189 218 255
190 218 255
191 219 255
192 220 255
193 220 255
194 221 255
196 222 255
197 222 255
199 223 255
200 224 255
203 225 255
205 226 255
207 228 255
210 229 255
214 232 255
217 233 255
211 230 255
210 229 255
210 229 255
210 229 255
210 229 255
210 229 255
210 229 255
210 229 255
210 229 255
210 229 255
210 229 255
210 229 255
210 229 255
210 229 255
210 229 255
209 229 255
209 229 255
209 229 255
209 229 255
209 229 255
209 229 255
209 229 255
209 229 255
209 229 255
209 229 255
209 229 255
209 229 255
209 229 255
209 229 255
209 229 255
209 229 255
209 229 255
209 229 255
209 229 255
209 229 255
209 229 255
209 229 255
209 229 255
209 229 255
209 229 255
209 229 255
182 203 237
74 107 178
62 99 172
62 98 166
63 99 169
62 98 169
61 98 169
62 99 173
61 98 161
63 99 168
62 99 168
62 98 165
62 98 169
62 99 169
62 98 167
62 98 164
63 99 166
63 99 169
62 98 170
62 98 163
61 98 162
62 99 169
62 98 168
61 98 168
62 98 164
62 98 165
63 99 171
61 97 162
61 97 163
62 98 161
61 98 165
63 99 170
63 99 168
62 98 160
63 99 169
62 98 161
62 98 165
62 98 168
62 98 162
62 98 166
63 99 171
62 98 168
63 99 172
63 99 168
62 99 167
62 98 164
62 98 170
61 98 171
61 97 168
62 98 166
63 99 173
62 98 166
62 98 170
61 98 167
62 99 171
61 97 163
62 98 166
60 96 165
62 98 171
61 97 164
62 98 171
61 97 170
73 105 173
174 195 229
209 229 255
209 229 255
209 229 255
209 229 255
209 229 255
209 229 255
209 229 255
209 229 255
209 229 255
209 229 255
209 229 255
209 229 255
209 229 255
209 229 255
209 229 255
209 229 255
209 229 255
209 229 255
209 229 255
209 229 255
209 229 255
209 229 255
209 229 255
209 229 255
209 229 255
209 229 255
210 229 255
210 229 255
210 229 255
210 229 255
210 229 255
210 229 255
210 229 255
210 229 255
210 229 255
210 229 255
210 229 255
210 229 255
210 229 255
210 229 255
201 218 238
145 150 135
130 128 85
133 131 87
135 134 90
138 136 90
140 138 92
131 130 88
133 133 90
146 144 97
137 135 92
144 143 97
148 147 100
145 144 97
152 150 101
144 143 97
148 147 98
155 153 103
148 147 100
147 146 99
152 150 101
149 147 99
149 148 100
152 150 101
139 138 93
157 155 104
154 152 102
154 152 102
155 154 104
155 152 102
159 156 104
155 154 103
156 154 103
154 152 102
154 152 102
158 156 104
159 157 105
156 154 103
156 153 102
156 154 103
163 159 106
158 156 103
168 164 109
163 160 106
167 164 109
162 158 105
160 157 104
158 154 101
167 163 109
159 156 104
160 158 105
161 158 104
163 159 105
165 162 107
164 161 107
161 158 104
162 159 106
161 158 104
165 161 106
169 164 108
169 164 107
159 155 101
162 158 104
168 164 107
163 160 104
159 156 101
166 162 106
161 157 103
165 162 106
165 161 105
162 158 104
163 159 102
162 158 104
165 161 106
159 156 102
163 159 101
164 159 103
156 154 101
160 157 101
160 157 102
164 159 101
154 150 96
154 151 97
153 150 94
157 152 97
157 152 98
161 157 101
156 153 100
157 153 97
161 157 101
163 158 103
163 158 99
152 148 94
155 150 96
163 158 101
148 145 90
158 154 98
164 160 101
159 154 99
160 155 100
155 151 95
159 155 97
157 152 96
160 155 99
155 151 93
154 150 95
158 154 99
155 150 93
165 160 101
150 146 93
147 143 90
158 153 95
151 145 89
146 143 91
139 134 85
153 149 96
150 147 93
150 145 91
156 151 93
151 147 93
148 143 87
146 142 87
148 144 89
142 139 88
153 149 90
151 145 87
154 149 92
154 149 89
205 227 255
205 227 255
205 226 255
204 226 255
204 226 255
204 226 255
203 226 255
203 225 255
202 225 255
202 225 255
202 225 255
201 224 255
201 224 255
200 224 255
200 224 255
200 224 255
199 223 255
199 223 255
199 223 255
198 223 255
198 223 255
197 222 255
197 222 255
197 222 255
198 223 255
199 223 255
200 224 255
200 224 255
201 224 255
201 224 255
201 225 255
201 225 255
202 225 255
202 225 255
202 225 255
202 225 255
203 225 255
203 225 255
203 225 255
203 225 255
203 226 255
203 226 255
203 226 255
203 226 255
203 226 255
204 226 255
204 226 255
204 226 255
204 226 255
204 226 255
204 226 255
204 226 255
204 226 255
204 226 255
204 226 255
204 226 255
204 226 255
204 226 255
204 226 255
204 226 255
204 226 255
204 226 255
204 226 255
204 226 255
204 226 255
204 226 255
204 226 255
204 226 255
204 226 255
204 226 255
204 226 255
204 226 255
203 226 255
203 226 255
203 226 255
203 226 255
203 226 255
203 225 255
203 225 255
203 225 255
203 225 255
202 225 255
202 225 255
202 225 255
202 225 255
202 225 255
202 225 255
201 225 255
201 225 255
201 224 255
201 224 255
201 224 255
200 224 255
200 224 255
200 224 255
199 224 255
199 223 255
199 223 255
198 223 255
198 223 255
197 222 255
196 222 255
196 222 255
195 221 255
194 221 255
192 220 255
191 219 255
189 218 255
187 217 255
186 217 255
187 217 255
188 217 255
189 218 255
189 218 255
191 219 255
192 219 255
193 220 255
194 221 255
195 221 255
197 222 255
198 223 255
200 224 255
202 225 255
204 226 255
207 228 255
210 229 255
213 231 255
217 233 255
213 231 255
210 229 255
210 229 255
210 229 255
210 229 255
210 229 255
210 229 255
210 229 255
210 229 255
210 229 255
210 229 255
210 229 255
210 229 255
210 229 255
210 229 255
210 229 255
210 229 255
210 229 255
210 229 255
210 229 255
210 229 255
209 229 255
209 229 255
209 229 255
209 229 255
209 229 255
209 229 255
209 229 255
209 229 255
209 229 255
209 229 255
209 229 255
209 229 255
209 229 255
209 229 255
209 229 255
209 229 255
209 229 255
209 229 255
130 154 203
66 102 172
62 99 173
62 99 170
62 99 171
62 98 166
63 99 170
63 99 168
61 98 165
61 98 164
62 98 165
62 98 164
63 99 167
62 99 169
62 98 167
62 99 170
62 99 168
63 99 173
63 100 172
62 98 165
62 99 169
62 98 166
61 97 159
62 99 167
62 98 164
62 98 164
63 99 163
62 98 166
62 99 166
62 98 164
62 98 153
62 98 166
62 98 161
62 98 167
63 99 166
63 99 167
62 98 164
63 99 165
62 98 161
61 97 163
63 99 170
63 99 165
62 98 160
62 98 163
62 98 169
62 98 169
62 97 163
63 99 172
63 98 170
62 98 170
61 97 164
62 97 164
62 98 166
62 97 163
62 98 160
61 97 166
61 96 167
61 97 161
62 98 169
61 97 162
62 98 166
61 97 169
61 97 170
61 97 167
64 98 166
140 162 204
208 228 255
209 229 255
209 229 255
209 229 255
209 229 255
209 229 255
209 229 255
209 229 255
209 229 255
209 229 255
209 229 255
209 229 255
209 229 255
209 229 255
209 229 255
209 229 255
209 229 255
209 229 255
210 229 255
210 229 255
210 229 255
210 229 255
210 229 255
210 229 255
210 229 255
210 229 255
210 229 255
210 229 255
210 229 255
210 229 255
210 229 255
210 229 255
210 229 255
210 229 255
210 229 255
210 229 255
210 229 255
210 229 255
184 197 211
139 141 120
141 137 90
132 129 86
132 131 88
143 141 95
150 148 99
134 133 89
134 132 89
150 149 100
146 144 97
142 142 97
142 141 95
146 145 98
149 147 99
151 150 102
147 146 98
147 146 99
148 146 98
152 151 101
148 147 99
146 145 98
152 151 102
148 147 99
161 158 105
150 149 99
152 151 102
146 143 96
154 152 103
161 158 106
154 151 101
158 156 104
157 156 105
156 154 102
158 155 103
163 161 107
150 147 98
162 159 106
161 159 105
155 152 101
159 156 104
160 157 104
161 158 105
161 158 105
160 156 104
161 157 104
172 168 111
163 160 104
163 159 105
160 157 105
159 156 103
163 160 106
161 156 103
164 160 106
166 163 109
164 162 106
168 164 108
170 166 109
161 157 103
164 161 106
164 160 106
165 161 104
162 158 103
158 155 102
164 160 104
163 158 103
165 160 103
161 158 104
165 160 106
164 159 103
161 157 104
156 153 100
164 160 104
157 153 101
163 159 104
166 162 104
162 159 103
160 157 101
161 157 103
161 158 102
159 155 101
162 158 104
158 154 97
153 150 96
165 161 104
160 154 99
158 155 100
160 156 103
165 160 103
159 155 101
156 152 97
159 154 95
160 156 98
158 154 99
160 156 96
153 150 98
154 151 97
157 153 99
161 155 97
159 154 99
162 158 101
157 155 99
159 154 97
158 154 99
163 158 99
150 146 93
154 150 95
159 154 100
159 155 96
161 156 99
160 156 96
154 150 94
156 152 97
155 150 96
161 156 99
161 156 97
155 151 92
155 151 95
148 144 91
155 149 90
154 150 93
152 147 90
155 149 92
141 137 85
150 145 89
153 148 94
150 145 88
143 139 89
153 149 93
205 227 255
205 227 255
205 226 255
204 226 255
204 226 255
203 226 255
203 226 255
203 225 255
202 225 255
202 225 255
202 225 255
201 224 255
201 224 255
200 224 255
200 224 255
200 224 255
199 224 255
199 223 255
199 223 255
198 223 255
198 223 255
198 223 255
199 223 255
200 224 255
200 224 255
201 224 255
201 225 255
202 225 255
202 225 255
202 225 255
202 225 255
203 225 255
203 225 255
203 226 255
203 226 255
203 226 255
204 226 255
204 226 255
204 226 255
204 226 255
204 226 255
204 226 255
204 226 255
204 226 255
204 226 255
204 226 255
205 226 255
205 226 255
205 226 255
205 226 255
205 226 255
205 226 255
205 226 255
205 226 255
205 226 255
205 226 255
205 226 255
205 226 255
205 226 255
205 226 255
205 226 255
205 226 255
205 226 255
205 226 255
205 226 255
205 226 255
205 226 255
205 226 255
205 226 255
205 226 255
204 226 255
204 226 255
204 226 255
204 226 255
204 226 255
204 226 255
204 226 255
204 226 255
204 226 255
204 226 255
204 226 255
203 226 255
203 226 255
203 226 255
203 225 255
203 225 255
203 225 255
203 225 255
202 225 255
202 225 255
202 225 255
202 225 255
202 225 255
201 225 255
201 224 255
201 224 255
200 224 255
200 224 255
200 224 255
199 223 255
199 223 255
198 223 255
198 223 255
197 222 255
196 222 255
195 221 255
195 221 255
193 220 255
192 220 255
189 218 255
187 217 255
187 217 255
188 217 255
188 218 255
189 218 255
190 219 255
191 219 255
192 220 255
194 221 255
195 221 255
197 222 255
198 223 255
200 224 255
202 225 255
204 226 255
206 227 255
209 229 255
213 231 255
217 233 255
215 232 255
210 230 255
210 230 255
210 229 255
210 229 255
210 229 255
210 229 255
210 229 255
210 229 255
210 229 255
210 229 255
210 229 255
210 229 255
210 229 255
210 229 255
210 229 255
210 229 255
210 229 255
210 229 255
210 229 255
210 229 255
210 229 255
210 229 255
210 229 255
210 229 255
210 229 255
210 229 255
210 229 255
209 229 255
209 229 255
209 229 255
209 229 255
209 229 255
209 229 255
209 229 255
209 229 255
204 224 252
126 150 196
62 99 173
62 98 170
63 100 176
62 98 169
62 99 171
61 98 163
63 99 170
61 97 160
62 99 168
63 99 172
62 98 164
62 98 166
61 98 161
61 97 161
62 98 167
62 98 166
63 99 163
62 98 160
62 99 173
61 98 163
62 98 162
61 97 155
62 98 165
62 98 159
61 97 161
62 99 168
63 99 167
62 98 162
62 98 160
63 99 166
62 98 169
62 98 167
62 98 161
62 98 162
62 98 164
62 99 168
63 99 171
63 98 162
63 99 168
62 98 164
62 99 167
62 98 165
63 99 165
62 98 166
62 98 168
62 98 162
62 98 169
61 98 159
63 99 170
62 98 167
62 98 164
62 99 171
61 96 163
62 99 170
61 96 152
61 96 157
62 97 166
63 98 169
62 97 161
61 96 156
61 96 164
62 98 169
62 97 164
60 96 165
61 96 163
61 95 161
127 150 195
208 228 254
209 229 255
209 229 255
209 229 255
209 229 255
209 229 255
209 229 255
209 229 255
210 229 255
210 229 255
210 229 255
210 229 255
210 229 255
210 229 255
210 229 255
210 229 255
210 229 255
210 229 255
210 229 255
210 229 255
210 229 255
210 229 255
210 229 255
210 229 255
210 229 255
210 229 255
210 229 255
210 229 255
210 229 255
210 229 255
210 229 255
210 229 255
210 229 255
210 230 255
210 230 255
210 230 255
184 196 205
131 129 94
124 122 82
132 129 86
134 132 88
140 139 94
135 133 90
136 134 91
141 139 94
142 141 94
137 137 92
145 144 98
144 142 96
140 139 94
139 138 94
143 143 97
147 146 98
142 142 96
146 144 96
143 142 96
153 152 103
150 148 99
145 144 97
151 150 102
142 140 95
153 151 101
156 153 102
150 149 100
153 151 101
153 151 101
160 158 105
162 159 105
155 154 103
156 153 102
158 156 105
164 162 108
159 157 105
165 162 107
161 158 105
165 162 107
163 159 105
158 155 104
162 160 107
159 157 104
163 160 106
160 156 103
168 165 110
157 153 101
170 165 109
155 151 100
160 157 103
167 163 109
162 159 104
170 166 109
166 163 108
169 164 108
164 160 106
163 160 106
159 155 102
165 160 105
168 164 108
160 157 103
167 162 106
163 159 103
161 156 102
162 158 103
164 160 104
167 163 107
162 158 103
157 154 99
167 163 106
166 161 103
167 162 104
165 161 104
160 156 101
162 158 102
167 162 104
164 159 101
163 159 103
160 156 97
157 152 97
163 159 103
158 155 99
166 162 103
162 158 101
160 157 101
167 162 102
148 144 93
158 153 97
163 158 100
164 160 102
159 155 100
164 159 103
160 154 99
160 155 97
160 156 98
151 147 90
154 151 94
160 156 103
161 157 98
158 153 97
162 158 99
159 155 97
153 150 96
158 153 97
154 151 93
160 156 99
157 152 95
157 152 95
160 155 98
152 147 93
159 154 95
153 150 93
162 156 98
147 142 83
161 156 98
152 148 93
150 145 88
158 154 95
159 154 94
146 142 84
156 150 95
152 148 90
156 151 95
153 148 93
148 144 87
155 151 94
151 147 93
152 147 89
152 147 93
205 227 255
205 227 255
205 226 255
204 226 255
204 226 255
203 226 255
203 226 255
203 225 255
202 225 255
202 225 255
202 225 255
201 225 255
201 224 255
201 224 255
200 224 255
200 224 255
199 224 255
199 223 255
199 223 255
199 223 255
199 224 255
200 224 255
201 224 255
202 225 255
202 225 255
202 225 255
203 225 255
203 225 255
203 226 255
203 226 255
204 226 255
204 226 255
204 226 255
204 226 255
204 226 255
204 226 255
204 226 255
205 226 255
205 226 255
205 226 255
205 226 255
205 227 255
205 227 255
205 227 255
205 227 255
205 227 255
205 227 255
205 227 255
205 227 255
205 227 255
205 227 255
205 227 255
206 227 255
206 227 255
206 227 255
206 227 255
206 227 255
206 227 255
206 227 255
206 227 255
206 227 255
206 227 255
205 227 255
205 227 255
206 227 255
205 227 255
205 227 255
205 227 255
205 227 255
205 227 255
205 227 255
205 227 255
205 227 255
205 227 255
205 227 255
205 226 255
205 226 255
205 226 255
205 226 255
205 226 255
204 226 255
204 226 255
204 226 255
204 226 255
204 226 255
204 226 255
204 226 255
204 226 255
203 226 255
203 226 255
203 226 255
203 225 255
203 225 255
202 225 255
202 225 255
202 225 255
202 225 255
201 225 255
201 224 255
201 224 255
200 224 255
200 224 255
199 224 255
199 223 255
198 223 255
198 223 255
197 222 255
196 222 255
195 221 255
194 221 255
192 220 255
189 218 255
188 217 255
188 217 255
189 218 255
189 218 255
190 219 255
191 219 255
192 220 255
194 221 255
195 221 255
196 222 255
198 223 255
200 224 255
202 225 255
203 226 255
206 227 255
209 228 255
212 230 255
216 233 255
215 232 255
211 230 255
211 230 255
211 230 255
211 230 255
211 230 255
211 230 255
210 230 255
210 230 255
210 230 255
210 229 255
210 229 255
210 229 255
210 229 255
210 229 255
210 229 255
210 229 255
210 229 255
210 229 255
210 229 255
210 229 255
210 229 255
210 229 255
210 229 255
210 229 255
210 229 255
210 229 255
210 229 255
210 229 255
210 229 255
210 229 255
210 229 255
210 229 255
210 229 255
201 221 249
103 130 187
62 99 174
62 99 170
62 98 164
61 98 163
62 99 168
62 99 168
62 99 168
62 99 164
62 98 163
62 98 163
62 98 162
62 98 168
61 98 158
62 98 167
62 98 167
62 99 171
61 97 160
62 98 164
62 98 164
62 98 160
63 99 169
62 98 165
62 98 165
62 98 158
61 97 163
62 98 163
62 98 164
61 97 157
62 98 163
62 97 157
62 98 164
61 97 156
62 98 159
62 98 160
61 97 161
61 97 160
62 98 161
62 98 158
62 99 165
61 97 158
63 100 170
62 98 164
61 97 154
61 97 161
62 98 160
62 98 166
62 99 170
62 98 169
62 98 161
61 97 161
61 97 167
62 98 169
62 98 164
61 97 158
62 97 164
61 96 162
61 97 163
61 97 163
61 97 162
61 97 158
62 98 170
62 97 165
61 96 164
61 97 167
61 96 162
62 97 165
62 98 172
61 95 164
117 141 190
204 223 252
210 229 255
210 229 255
210 229 255
210 229 255
210 229 255
210 229 255
210 229 255
210 229 255
210 229 255
210 229 255
210 229 255
210 229 255
210 229 255
210 229 255
210 229 255
210 229 255
210 229 255
210 229 255
210 229 255
210 229 255
210 229 255
210 229 255
210 229 255
210 229 255
210 229 255
210 230 255
210 230 255
211 230 255
211 230 255
211 230 255
211 230 255
211 230 255
211 230 255
171 183 191
127 125 86
133 131 88
137 135 90
138 136 91
123 121 81
143 141 95
136 136 93
146 144 97
144 142 96
138 138 94
137 137 93
151 150 102
140 139 96
142 142 97
146 145 98
141 139 94
158 155 103
144 143 96
149 148 100
156 154 103
146 145 98
151 150 101
155 153 102
155 153 103
159 157 105
146 144 97
150 148 100
151 149 100
153 151 101
160 158 106
156 154 103
157 155 105
158 155 103
163 160 107
158 155 103
157 154 103
159 157 104
168 165 110
169 165 109
157 154 103
168 165 108
159 156 104
163 161 107
155 152 99
165 160 104
164 161 107
161 158 103
161 158 103
163 159 105
168 164 108
165 162 107
162 158 105
161 157 104
160 157 104
163 159 104
162 158 102
164 159 105
162 158 103
169 165 108
161 157 102
167 163 106
164 160 103
163 159 104
165 161 105
167 163 106
167 163 106
165 161 107
169 164 108
162 158 102
166 162 106
159 156 103
163 159 104
171 166 109
161 157 101
167 162 103
166 163 107
167 162 106
169 163 105
164 159 100
161 157 99
164 159 100
162 157 101
167 162 104
162 157 97
162 157 100
158 153 97
165 160 104
163 158 103
165 160 101
168 163 105
160 156 101
161 157 98
158 154 99
160 155 97
162 158 101
159 154 99
162 158 97
163 159 101
163 158 102
155 151 97
153 149 95
158 153 96
168 163 102
154 150 94
162 157 99
157 152 93
162 157 99
162 156 97
167 161 99
154 149 92
161 157 95
155 150 93
152 147 87
165 160 99
160 157 99
165 160 102
159 155 95
154 150 95
163 157 98
154 148 93
146 141 87
161 155 99
163 158 101
156 151 91
150 145 88
159 154 95
149 145 93
148 144 89
152 147 93
158 152 95
205 227 255
205 227 255
205 226 255
204 226 255
204 226 255
203 226 255
203 226 255
203 225 255
202 225 255
202 225 255
202 225 255
201 225 255
201 224 255
201 224 255
200 224 255
200 224 255
200 224 255
199 224 255
200 224 255
201 224 255
202 225 255
202 225 255
203 225 255
203 225 255
203 226 255
204 226 255
204 226 255
204 226 255
204 226 255
204 226 255
205 226 255
205 226 255
205 227 255
205 227 255
205 227 255
205 227 255
205 227 255
205 227 255
206 227 255
206 227 255
206 227 255
206 227 255
206 227 255
206 227 255
206 227 255
206 227 255
206 227 255
206 227 255
206 227 255
206 227 255
206 227 255
206 227 255
206 227 255
206 227 255
206 227 255
206 227 255
206 227 255
206 227 255
206 227 255
206 227 255
206 227 255
206 227 255
206 227 255
206 227 255
206 227 255
206 227 255
206 227 255
206 227 255
206 227 255
206 227 255
206 227 255
206 227 255
206 227 255
206 227 255
206 227 255
206 227 255
206 227 255
205 227 255
205 227 255
205 227 255
205 227 255
205 227 255
205 227 255
205 227 255
205 226 255
205 226 255
205 226 255
204 226 255
204 226 255
204 226 255
204 226 255
204 226 255
204 226 255
203 226 255
203 226 255
203 225 255
203 225 255
203 225 255
202 225 255
202 225 255
202 225 255
201 225 255
201 224 255
200 224 255
200 224 255
199 224 255
199 223 255
198 223 255
198 223 255
196 222 255
195 221 255
194 221 255
193 220 255
190 218 255
188 218 255
189 218 255
190 218 255
191 219 255
191 219 255
193 220 255
194 221 255
195 221 255
196 222 255
198 223 255
200 224 255
201 225 255
203 226 255
206 227 255
208 228 255
212 230 255
216 232 255
216 233 255
211 230 255
211 230 255
211 230 255
211 230 255
211 230 255
211 230 255
211 230 255
211 230 255
211 230 255
211 230 255
211 230 255
211 230 255
210 230 255
210 230 255
210 230 255
210 229 255
210 229 255
210 229 255
210 229 255
210 229 255
210 229 255
210 229 255
210 229 255
210 229 255
210 229 255
210 229 255
210 229 255
210 229 255
210 229 255
210 229 255
210 229 255
199 219 248
103 130 189
63 99 174
63 100 175
62 98 165
62 99 167
62 99 173
61 97 157
62 98 166
62 98 167
62 98 165
62 98 161
62 99 167
62 98 164
62 98 164
62 98 163
62 99 170
63 99 170
62 98 163
63 99 169
62 99 166
61 97 155
62 99 169
62 98 160
61 98 166
62 98 164
62 98 158
63 99 165
62 98 164
62 98 164
62 98 162
62 98 161
63 99 169
62 98 161
61 98 161
60 96 153
63 99 165
61 97 161
62 98 164
62 98 161
62 98 161
62 98 163
61 97 161
62 98 163
62 98 161
62 99 167
61 96 160
62 99 166
62 98 167
61 97 161
61 97 160
62 99 168
61 97 162
62 97 164
61 98 163
62 97 160
62 98 166
60 95 158
61 97 161
62 98 162
62 97 162
61 97 166
61 96 159
62 98 168
61 97 168
62 98 166
61 96 161
61 96 166
61 96 166
61 96 164
61 95 164
61 95 159
107 133 188
197 216 245
210 229 255
210 229 255
210 229 255
210 229 255
210 229 255
210 229 255
210 229 255
210 229 255
210 229 255
210 229 255
210 229 255
210 229 255
210 229 255
210 229 255
210 229 255
210 229 255
210 230 255
210 230 255
210 230 255
211 230 255
211 230 255
211 230 255
211 230 255
211 230 255
211 230 255
211 230 255
211 230 255
211 230 255
211 230 255
211 230 255
211 230 255
173 185 192
133 130 86
131 128 84
134 132 87
141 138 92
129 128 87
131 130 88
130 129 88
138 137 92
144 142 96
139 138 93
137 137 94
148 148 100
140 139 93
137 135 91
147 146 99
156 154 104
136 135 93
141 140 95
146 145 98
153 151 101
151 150 101
150 149 100
162 159 106
151 150 101
157 155 104
158 156 105
160 158 106
160 158 106
156 154 104
150 148 99
158 155 102
156 154 103
154 151 100
158 155 103
160 157 104
164 160 105
159 156 103
159 156 104
165 161 107
164 160 107
162 159 106
158 155 102
168 164 108
159 156 102
165 161 107
152 149 98
166 162 107
156 153 101
167 164 107
158 155 101
168 164 108
163 160 104
168 163 106
164 160 104
165 161 105
166 162 107
164 160 105
164 160 104
160 157 103
167 163 106
163 160 104
171 167 109
173 168 110
168 164 104
167 162 104
165 161 106
164 160 103
165 161 105
167 163 106
166 162 103
163 159 102
161 157 102
171 166 107
165 160 103
166 162 100
167 162 104
163 159 103
170 165 105
164 158 100
167 163 104
158 155 99
165 160 100
168 162 104
161 157 100
170 164 102
164 159 102
165 160 104
165 161 103
161 156 100
167 162 104
160 156 97
166 161 101
160 155 100
159 156 100
160 156 101
166 161 104
160 155 99
156 151 94
164 159 101
163 158 100
163 159 101
165 159 99
164 159 101
156 151 92
156 151 93
154 149 95
153 149 95
157 153 94
156 151 89
157 152 97
162 158 100
154 151 97
155 151 92
151 148 93
161 156 100
149 145 88
155 152 93
152 146 90
160 155 98
152 148 88
153 149 87
163 157 95
156 149 88
158 154 99
162 157 97
156 151 92
151 146 90
148 144 89
150 145 91
154 149 90
150 145 90
205 227 255
205 227 255
205 226 255
204 226 255
204 226 255
204 226 255
203 226 255
203 225 255
203 225 255
202 225 255
202 225 255
202 225 255
201 224 255
201 224 255
200 224 255
200 224 255
200 224 255
201 225 255
202 225 255
203 225 255
203 226 255
203 226 255
204 226 255
204 226 255
204 226 255
205 226 255
205 226 255
205 227 255
205 227 255
205 227 255
205 227 255
206 227 255
206 227 255
206 227 255
206 227 255
206 227 255
206 227 255
206 227 255
206 227 255
206 227 255
206 227 255
207 227 255
207 227 255
207 227 255
207 227 255
207 227 255
207 228 255
207 228 255
207 228 255
207 228 255
207 228 255
207 228 255
207 228 255
207 228 255
207 228 255
207 228 255
207 228 255
207 228 255
207 228 255
207 228 255
207 228 255
207 228 255
207 228 255
207 228 255
207 228 255
207 228 255
207 228 255
207 228 255
207 227 255
207 227 255
207 227 255
207 227 255
207 227 255
206 227 255
206 227 255
206 227 255
206 227 255
206 227 255
206 227 255
206 227 255
206 227 255
206 227 255
206 227 255
206 227 255
206 227 255
205 227 255
205 227 255
205 227 255
205 227 255
205 227 255
205 226 255
205 226 255
205 226 255
204 226 255
204 226 255
204 226 255
204 226 255
204 226 255
203 226 255
203 225 255
203 225 255
202 225 255
202 225 255
202 225 255
201 225 255
201 224 255
201 224 255
200 224 255
199 224 255
199 223 255
198 223 255
197 222 255
196 222 255
194 221 255
192 220 255
190 218 255
189 218 255
190 218 255
191 219 255
192 219 255
193 220 255
194 221 255
195 221 255
197 222 255
198 223 255
200 224 255
201 225 255
204 226 255
206 227 255
208 228 255
212 230 255
216 232 255
217 233 255
211 230 255
211 230 255
211 230 255
211 230 255
211 230 255
211 230 255
211 230 255
211 230 255
211 230 255
211 230 255
211 230 255
211 230 255
211 230 255
211 230 255
211 230 255
211 230 255
211 230 255
211 230 255
211 230 255
210 230 255
210 230 255
210 230 255
210 230 255
210 229 255
210 229 255
210 229 255
210 229 255
210 229 255
210 229 255
201 221 249
114 140 191
62 99 168
62 98 166
62 98 160
62 98 167
62 99 170
62 98 163
62 99 169
62 98 165
62 98 161
62 98 163
62 98 160
62 99 168
63 99 163
62 98 157
62 99 166
63 99 165
61 97 159
62 98 164
62 98 159
63 99 164
62 98 160
62 98 163
62 98 160
61 97 162
62 98 168
63 99 166
62 98 165
62 98 168
61 97 159
62 98 160
62 98 155
62 98 163
63 99 164
62 99 168
62 98 161
62 98 163
62 98 159
61 98 162
62 98 162
62 98 162
62 98 159
61 97 152
63 99 168
61 97 157
63 99 168
62 98 164
62 98 167
62 98 157
61 97 159
62 98 162
61 97 160
62 98 165
62 98 167
62 97 162
63 99 166
62 98 164
62 97 165
62 98 164
60 95 152
61 96 159
61 96 161
61 96 159
61 97 163
62 97 160
62 98 164
62 98 167
60 95 155
60 95 162
59 94 156
61 95 159
61 96 160
60 94 155
106 131 182
204 223 251
210 229 255
210 229 255
210 229 255
210 229 255
210 229 255
210 229 255
210 230 255
210 230 255
210 230 255
210 230 255
211 230 255
211 230 255
211 230 255
211 230 255
211 230 255
211 230 255
211 230 255
211 230 255
211 230 255
211 230 255
211 230 255
211 230 255
211 230 255
211 230 255
211 230 255
211 230 255
211 230 255
211 230 255
211 230 255
173 182 182
130 127 84
129 127 84
132 131 87
140 138 93
133 132 89
128 127 86
138 137 92
138 137 94
133 133 91
148 146 99
141 141 96
145 144 98
140 139 94
148 147 99
146 144 97
143 142 96
147 146 98
145 144 98
152 149 100
151 150 101
153 151 101
158 155 104
153 151 100
152 150 101
149 149 101
151 149 101
159 157 104
158 156 105
152 150 101
158 155 102
158 156 103
158 155 104
151 150 100
159 157 104
160 157 104
156 154 102
166 163 106
152 150 100
166 163 108
162 159 103
154 151 101
160 158 106
165 161 105
164 160 104
166 162 107
160 158 104
168 165 109
165 161 106
168 163 108
169 165 109
164 160 106
164 160 104
168 164 109
165 161 106
166 163 107
169 165 107
164 160 104
165 161 106
170 165 108
166 163 108
161 157 101
166 162 106
167 162 105
169 164 107
164 160 104
166 161 104
171 166 108
165 160 103
162 158 102
163 159 104
164 160 103
166 162 104
171 167 108
166 163 104
163 158 100
165 161 103
170 165 103
164 159 102
169 165 108
168 163 103
162 157 99
169 164 105
163 158 101
168 164 106
163 159 102
159 155 99
163 158 101
164 159 100
166 161 101
172 166 105
159 155 100
162 157 101
166 160 103
168 163 103
164 159 101
164 160 100
160 156 99
155 151 95
159 153 96
164 159 100
161 157 98
163 158 97
155 149 93
162 158 98
163 157 99
159 154 97
157 151 92
163 158 99
159 154 95
151 148 95
159 155 97
162 157 96
165 160 99
162 157 97
155 148 95
155 150 93
155 150 90
155 150 90
162 157 97
163 158 100
147 143 88
150 145 90
157 153 96
153 149 93
159 154 96
156 151 94
157 151 93
155 150 93
151 147 89
151 145 90
158 153 94
155 150 91
205 227 255
205 227 255
205 226 255
204 226 255
204 226 255
204 226 255
203 226 255
203 225 255
203 225 255
202 225 255
202 225 255
202 225 255
201 225 255
201 224 255
201 224 255
201 225 255
202 225 255
203 225 255
204 226 255
204 226 255
204 226 255
205 226 255
205 226 255
205 227 255
205 227 255
205 227 255
206 227 255
206 227 255
206 227 255
206 227 255
206 227 255
206 227 255
207 227 255
207 227 255
207 227 255
207 228 255
207 228 255
207 228 255
207 228 255
207 228 255
207 228 255
207 228 255
207 228 255
207 228 255
207 228 255
207 228 255
207 228 255
207 228 255
207 228 255
208 228 255
208 228 255
208 228 255
208 228 255
208 228 255
208 228 255
208 228 255
208 228 255
208 228 255
208 228 255
208 228 255
208 228 255
208 228 255
208 228 255
207 228 255
207 228 255
207 228 255
207 228 255
207 228 255
207 228 255
207 228 255
207 228 255
207 228 255
207 228 255
207 228 255
207 228 255
207 228 255
207 228 255
207 228 255
207 228 255
207 228 255
207 227 255
207 227 255
207 227 255
206 227 255
206 227 255
206 227 255
206 227 255
206 227 255
206 227 255
206 227 255
206 227 255
205 227 255
205 227 255
205 227 255
205 227 255
205 226 255
205 226 255
204 226 255
204 226 255
204 226 255
204 226 255
204 226 255
203 226 255
203 225 255
203 225 255
202 225 255
202 225 255
201 225 255
201 224 255
200 224 255
200 224 255
199 223 255
198 223 255
197 222 255
196 222 255
194 221 255
192 219 255
190 218 255
190 219 255
191 219 255
192 220 255
193 220 255
194 221 255
195 221 255
197 222 255
198 223 255
200 224 255
202 225 255
204 226 255
206 227 255
209 229 255
212 230 255
216 232 255
216 233 255
211 230 255
211 230 255
211 230 255
211 230 255
211 230 255
211 230 255
211 230 255
211 230 255
211 230 255
211 230 255
211 230 255
211 230 255
211 230 255
211 230 255
211 230 255
211 230 255
211 230 255
211 230 255
211 230 255
211 230 255
211 230 255
211 230 255
211 230 255
211 230 255
211 230 255
211 230 255
211 230 255
203 222 250
113 138 192
62 99 167
61 98 163
62 99 164
62 98 165
63 99 168
62 98 165
62 98 166
62 98 165
62 98 165
61 97 163
62 98 159
62 98 164
62 98 160
62 98 163
62 98 161
62 98 164
62 98 163
62 98 161
62 98 160
61 97 156
62 98 162
62 98 162
62 98 161
62 98 163
63 99 165
61 98 164
61 97 154
63 99 164
62 98 161
63 99 163
61 97 155
63 99 169
62 98 163
62 98 164
62 99 165
61 97 156
62 98 164
61 97 159
61 97 158
63 98 164
61 97 155
61 96 154
62 98 161
62 98 159
61 97 156
62 97 157
62 98 163
61 96 153
62 98 161
62 98 164
61 97 160
62 98 163
62 97 160
62 97 154
61 96 162
61 97 159
62 97 160
61 96 158
61 96 157
62 97 162
62 98 169
61 96 162
61 96 157
61 97 159
62 97 158
60 95 154
61 96 164
60 95 154
62 97 161
61 95 162
60 94 157
61 97 166
61 96 164
60 95 162
112 135 184
207 226 252
211 230 255
211 230 255
211 230 255
211 230 255
211 230 255
211 230 255
211 230 255
211 230 255
211 230 255
211 230 255
211 230 255
211 230 255
211 230 255
211 230 255
211 230 255
211 230 255
211 230 255
211 230 255
211 230 255
211 230 255
211 230 255
211 230 255
211 230 255
211 230 255
211 230 255
211 230 255
210 229 254
178 187 188
126 123 82
113 112 74
123 121 81
145 141 94
133 132 89
126 126 87
127 127 87
143 142 95
134 135 93
146 145 99
137 135 91
141 140 95
137 136 93
137 136 93
132 133 92
147 145 98
148 147 100
150 148 100
152 151 101
143 141 96
150 148 100
150 149 100
145 143 96
153 151 100
151 150 102
152 150 101
158 155 104
157 154 104
150 147 99
158 157 105
156 153 102
157 153 99
159 156 104
164 161 106
161 159 105
159 157 105
157 154 101
160 158 105
165 161 105
163 159 106
162 159 103
167 164 108
160 157 102
167 164 108
161 157 102
168 165 110
165 162 107
168 165 108
167 162 107
167 163 106
166 163 105
162 159 103
163 159 104
171 166 108
167 163 107
167 162 106
170 166 108
170 165 107
169 165 107
161 157 103
167 164 106
170 167 109
164 159 102
169 164 106
167 163 104
171 166 104
164 160 103
168 164 108
166 162 103
164 160 101
168 164 104
168 163 104
164 160 103
163 158 102
169 164 104
166 161 101
163 159 103
167 163 104
161 156 99
169 164 106
163 158 99
166 161 103
165 160 103
166 161 99
158 153 95
168 163 101
164 159 103
167 163 102
162 158 99
163 158 95
161 156 99
159 154 98
165 161 102
159 155 97
161 157 99
165 160 103
165 161 101
158 155 96
156 151 95
161 157 100
154 151 93
158 154 97
166 161 102
162 157 99
162 157 97
160 156 99
165 159 98
158 153 94
155 150 96
152 147 93
163 158 99
161 156 93
161 156 96
153 148 90
157 151 93
155 151 93
155 151 96
158 154 98
159 153 96
155 150 93
154 148 92
165 159 101
158 154 97
162 157 96
151 147 88
154 149 93
150 145 90
153 148 93
154 150 93
160 155 95
156 152 95
159 154 94
154 149 93
206 227 255
205 227 255
205 226 255
205 226 255
204 226 255
204 226 255
204 226 255
203 226 255
203 225 255
203 225 255
202 225 255
202 225 255
202 225 255
202 225 255
203 225 255
203 226 255
204 226 255
204 226 255
205 226 255
205 227 255
205 227 255
206 227 255
206 227 255
206 227 255
206 227 255
206 227 255
207 227 255
207 227 255
207 228 255
207 228 255
207 228 255
207 228 255
207 228 255
207 228 255
207 228 255
207 228 255
208 228 255
208 228 255
208 228 255
208 228 255
208 228 255
208 228 255
208 228 255
208 228 255
208 228 255
208 228 255
208 228 255
208 228 255
208 228 255
208 228 255
208 228 255
208 228 255
208 228 255
208 228 255
208 228 255
208 228 255
208 228 255
208 228 255
208 228 255
208 228 255
208 228 255
208 228 255
208 228 255
208 228 255
208 228 255
208 228 255
208 228 255
208 228 255
208 228 255
208 228 255
208 228 255
208 228 255
208 228 255
208 228 255
208 228 255
208 228 255
208 228 255
208 228 255
207 228 255
207 228 255
207 228 255
207 228 255
207 228 255
207 228 255
207 228 255
207 228 255
207 228 255
207 227 255
207 227 255
207 227 255
206 227 255
206 227 255
206 227 255
206 227 255
206 227 255
206 227 255
206 227 255
205 227 255
205 227 255
205 227 255
205 226 255
204 226 255
204 226 255
204 226 255
204 226 255
203 226 255
203 225 255
203 225 255
202 225 255
202 225 255
201 225 255
201 224 255
200 224 255
199 224 255
198 223 255
197 222 255
196 222 255
194 220 255
191 219 255
190 219 255
191 219 255
192 220 255
193 220 255
194 221 255
196 222 255
197 222 255
199 223 255
200 224 255
202 225 255
204 226 255
206 227 255
209 229 255
212 230 255
216 232 255
217 233 255
212 230 255
212 230 255
212 230 255
212 230 255
211 230 255
211 230 255
211 230 255
211 230 255
211 230 255
211 230 255
211 230 255
211 230 255
211 230 255
211 230 255
211 230 255
211 230 255
211 230 255
211 230 255
211 230 255
211 230 255
211 230 255
211 230 255
211 230 255
211 230 255
211 230 255
207 226 252
139 162 207
63 99 168
62 98 161
62 98 165
62 98 163
62 98 163
63 99 172
62 98 170
61 97 154
62 98 169
62 98 161
61 98 160
63 99 164
62 97 158
61 97 160
62 98 166
61 97 151
61 97 153
62 98 166
62 98 163
62 98 165
61 98 159
62 98 162
62 99 164
62 98 164
62 98 162
62 98 162
62 98 163
62 98 159
61 97 159
61 97 159
63 99 162
61 97 155
62 99 164
62 98 157
62 97 161
61 97 162
62 98 161
61 97 164
62 98 162
61 97 160
61 96 152
62 97 160
62 98 163
60 96 150
62 98 156
62 98 167
61 97 154
62 98 167
62 98 165
61 97 154
61 97 161
61 97 161
61 97 161
61 97 162
62 98 158
62 98 159
61 96 155
61 96 149
62 97 163
61 97 159
61 97 156
62 97 161
61 97 158
61 96 159
61 96 160
62 98 167
60 95 158
62 98 164
61 96 160
61 96 161
61 95 158
60 95 156
60 95 154
58 91 147
58 91 151
60 94 160
118 141 186
210 229 255
211 230 255
211 230 255
211 230 255
211 230 255
211 230 255
211 230 255
211 230 255
211 230 255
211 230 255
211 230 255
211 230 255
211 230 255
211 230 255
211 230 255
211 230 255
211 230 255
211 230 255
211 230 255
211 230 255
211 230 255
211 230 255
212 230 255
212 230 255
212 230 255
212 230 255
182 192 197
127 125 81
129 127 85
127 125 84
127 125 83
129 127 86
135 135 93
141 140 95
138 136 91
133 132 91
135 133 91
133 133 91
137 136 93
139 138 92
142 142 97
137 137 94
145 143 97
148 148 100
144 142 95
141 140 95
150 149 100
146 144 98
148 146 99
152 151 101
150 149 100
156 154 102
151 149 99
149 148 100
161 158 105
156 154 103
158 156 104
158 156 105
151 150 101
149 146 98
159 157 105
155 152 100
161 159 106
164 161 108
166 162 108
162 158 104
164 160 105
164 160 105
159 156 101
166 162 107
164 161 104
162 157 103
158 154 99
166 163 106
166 163 108
168 164 107
166 162 106
165 162 106
165 162 107
168 164 108
164 160 104
168 164 106
168 163 106
169 163 107
169 164 107
167 162 103
164 160 104
169 165 107
163 159 101
170 166 107
166 162 104
171 167 106
167 163 106
167 162 105
165 161 106
166 162 105
171 165 108
163 159 100
170 164 106
171 166 106
165 161 102
160 156 99
170 165 104
161 156 99
171 165 105
167 161 100
168 163 104
168 163 100
166 161 103
167 163 103
173 168 107
172 167 105
169 163 102
165 162 100
165 160 97
166 161 99
161 157 100
160 156 97
170 164 104
155 151 95
157 152 91
157 153 94
158 154 98
163 158 100
167 160 99
169 164 100
164 159 99
164 160 101
155 151 94
164 160 100
157 153 95
167 162 101
161 157 101
158 154 96
160 155 94
161 156 99
156 152 95
161 157 98
163 158 97
159 153 95
161 157 95
162 158 100
159 154 93
159 153 92
162 156 97
157 151 92
156 151 92
157 153 97
158 154 95
161 155 94
158 153 96
153 147 85
157 152 93
150 144 88
154 150 91
162 156 94
144 139 84
151 146 90
151 146 88
149 145 87
150 145 90
206 227 255
205 227 255
205 227 255
205 226 255
204 226 255
204 226 255
204 226 255
203 226 255
203 226 255
203 225 255
203 225 255
202 225 255
203 225 255
204 226 255
204 226 255
205 226 255
205 227 255
205 227 255
206 227 255
206 227 255
206 227 255
206 227 255
207 227 255
207 228 255
207 228 255
207 228 255
207 228 255
207 228 255
208 228 255
208 228 255
208 228 255
208 228 255
208 228 255
208 228 255
208 228 255
208 228 255
208 228 255
208 228 255
208 228 255
208 228 255
208 228 255
209 228 255
209 228 255
209 228 255
209 229 255
209 229 255
209 229 255
209 229 255
209 229 255
209 229 255
209 229 255
209 229 255
209 229 255
209 229 255
209 229 255
209 229 255
209 229 255
209 229 255
209 229 255
209 229 255
209 229 255
209 229 255
209 229 255
209 229 255
209 229 255
209 229 255
209 229 255
209 228 255
209 228 255
209 228 255
208 228 255
208 228 255
208 228 255
208 228 255
208 228 255
208 228 255
208 228 255
208 228 255
208 228 255
208 228 255
208 228 255
208 228 255
208 228 255
208 228 255
208 228 255
208 228 255
208 228 255
207 228 255
207 228 255
207 228 255
207 228 255
207 228 255
207 228 255
207 227 255
207 227 255
206 227 255
206 227 255
206 227 255
206 227 255
206 227 255
206 227 255
205 227 255
205 227 255
205 227 255
205 226 255
204 226 255
204 226 255
204 226 255
203 226 255
203 226 255
203 225 255
202 225 255
202 225 255
201 224 255
200 224 255
199 224 255
198 223 255
197 222 255
195 221 255
193 220 255
191 219 255
192 219 255
193 220 255
194 221 255
195 221 255
196 222 255
197 222 255
199 223 255
201 224 255
202 225 255
204 226 255
206 227 255
209 229 255
212 230 255
216 233 255
216 233 255
212 230 255
212 230 255
212 230 255
212 230 255
212 230 255
212 230 255
212 230 255
212 230 255
212 230 255
212 230 255
212 230 255
212 230 255
211 230 255
211 230 255
211 230 255
211 230 255
211 230 255
211 230 255
211 230 255
211 230 255
211 230 255
211 230 255
211 230 255
211 230 255
137 160 204
62 98 168
62 99 169
62 98 164
63 99 168
62 98 162
62 98 160
63 99 167
62 98 164
61 97 159
62 98 165
62 98 164
62 98 159
63 98 160
61 97 153
61 97 155
62 98 165
61 97 158
63 99 167
63 99 160
62 98 160
62 98 158
62 98 159
61 97 162
62 98 160
60 96 149
61 98 161
62 98 164
62 98 165
62 98 162
62 98 164
62 98 161
62 98 160
63 99 163
61 97 152
62 98 157
61 97 157
62 97 155
62 99 169
62 98 163
62 98 167
61 97 153
61 97 154
62 98 163
63 99 162
61 97 160
63 99 167
62 98 157
61 97 153
61 96 149
62 98 161
61 97 158
61 96 153
61 97 158
62 97 163
60 95 154
61 96 156
62 98 160
61 97 158
61 97 158
62 98 164
61 96 159
63 99 167
62 98 161
62 98 164
62 97 161
61 96 158
61 97 165
61 97 164
62 97 158
61 96 160
61 96 163
61 96 155
61 96 159
59 94 154
61 96 161
59 93 151
61 97 166
60 93 157
135 157 200
211 230 255
211 230 255
211 230 255
211 230 255
211 230 255
211 230 255
211 230 255
211 230 255
211 230 255
211 230 255
211 230 255
211 230 255
211 230 255
212 230 255
212 230 255
212 230 255
212 230 255
212 230 255
212 230 255
212 230 255
212 230 255
212 230 255
212 230 255
212 230 255
178 190 198
130 127 85
123 119 78
139 137 91
128 126 85
139 137 92
124 123 83
125 123 83
134 133 90
134 133 91
144 142 96
137 137 94
129 128 87
138 138 94
147 146 99
145 144 98
140 139 94
140 139 94
148 147 99
149 148 101
150 149 101
142 141 96
153 152 102
155 153 102
145 144 99
152 149 100
150 149 100
153 151 101
150 148 98
153 150 100
153 151 102
158 156 105
152 150 100
170 166 110
156 153 101
158 156 103
156 154 102
163 159 103
163 159 105
160 158 106
164 160 105
163 159 103
164 161 105
166 162 107
164 159 105
164 161 107
160 158 105
165 160 104
167 163 105
168 163 105
164 158 102
170 165 106
164 161 105
166 163 108
167 162 106
159 156 102
169 164 106
168 162 105
166 161 103
166 162 103
166 162 106
166 161 103
167 164 103
171 167 107
167 163 104
168 165 108
168 164 104
168 162 103
172 167 107
174 169 110
165 161 104
170 165 107
170 166 108
168 163 104
159 153 95
170 166 106
165 160 99
167 162 103
170 164 102
162 157 97
165 161 100
157 153 97
163 159 97
166 161 103
167 162 103
168 162 102
160 155 97
162 157 101
165 160 103
169 163 103
163 159 100
161 156 95
168 162 104
164 159 99
170 165 101
166 160 101
166 161 99
160 155 95
164 158 100
166 161 101
169 164 99
156 153 95
166 162 101
160 156 96
160 155 97
162 157 99
155 150 89
164 159 97
158 153 95
170 164 101
163 158 99
162 156 97
163 157 98
160 155 96
162 156 97
161 156 95
163 158 97
162 156 97
157 152 93
159 154 94
163 157 96
159 154 92
160 155 98
159 154 92
152 147 93
156 152 93
159 152 93
156 151 94
154 149 92
156 151 92
158 152 92
146 142 90
144 139 87
155 150 91
157 153 93
150 146 85
206 227 255
206 227 255
205 227 255
205 227 255
205 226 255
204 226 255
204 226 255
204 226 255
203 226 255
203 226 255
203 225 255
204 226 255
205 226 255
205 227 255
205 227 255
206 227 255
206 227 255
206 227 255
207 228 255
207 228 255
207 228 255
207 228 255
207 228 255
208 228 255
208 228 255
208 228 255
208 228 255
208 228 255
208 228 255
208 228 255
208 228 255
208 228 255
209 229 255
209 229 255
209 229 255
209 229 255
209 229 255
209 229 255
209 229 255
209 229 255
209 229 255
209 229 255
209 229 255
209 229 255
209 229 255
209 229 255
209 229 255
209 229 255
209 229 255
209 229 255
209 229 255
209 229 255
209 229 255
209 229 255
209 229 255
209 229 255
209 229 255
209 229 255
209 229 255
209 229 255
209 229 255
209 229 255
209 229 255
209 229 255
209 229 255
209 229 255
209 229 255
209 229 255
209 229 255
209 229 255
209 229 255
209 229 255
209 229 255
209 229 255
209 229 255
209 229 255
209 229 255
209 229 255
209 229 255
209 229 255
209 228 255
208 228 255
208 228 255
208 228 255
208 228 255
208 228 255
208 228 255
208 228 255
208 228 255
208 228 255
208 228 255
208 228 255
208 228 255
207 228 255
207 228 255
207 228 255
207 228 255
207 228 255
207 228 255
207 227 255
206 227 255
206 227 255
206 227 255
206 227 255
206 227 255
205 227 255
205 227 255
205 226 255
205 226 255
204 226 255
204 226 255
203 226 255
203 225 255
202 225 255
202 225 255
201 224 255
200 224 255
199 224 255
198 223 255
197 222 255
194 221 255
192 220 255
192 220 255
193 220 255
194 221 255
195 221 255
196 222 255
198 223 255
199 223 255
201 224 255
203 225 255
205 226 255
207 228 255
209 229 255
213 231 255
217 233 255
215 232 255
212 230 255
212 230 255
212 230 255
212 230 255
212 230 255
212 230 255
212 230 255
212 230 255
212 230 255
212 230 255
212 230 255
212 230 255
212 230 255
212 230 255
212 230 255
212 230 255
212 230 255
212 230 255
212 230 255
212 230 255
211 230 255
211 230 255
159 180 217
62 99 166
62 98 161
62 99 166
61 97 154
62 98 164
61 98 164
62 98 162
61 96 152
62 98 163
62 98 161
62 98 163
63 99 164
62 98 163
62 98 168
62 98 160
61 96 154
62 98 164
61 97 162
60 96 154
62 98 160
61 97 155
63 99 162
62 98 160
62 98 154
62 98 161
61 98 159
62 98 160
61 97 158
62 98 162
63 98 165
62 98 158
62 98 160
62 98 161
62 98 159
62 98 163
62 98 162
63 99 163
62 98 161
63 99 163
63 99 164
62 98 162
63 99 163
62 98 164
61 97 152
60 96 148
61 97 154
63 99 170
62 98 154
63 98 162
61 96 156
61 96 162
62 98 163
61 97 158
61 97 158
61 96 155
60 96 155
62 98 162
62 98 163
62 98 159
61 96 155
60 95 153
61 97 156
62 97 161
61 96 154
62 98 161
61 97 161
61 97 155
60 95 155
60 95 157
61 97 154
60 95 143
60 95 161
62 97 157
60 94 151
61 95 160
59 94 158
60 94 156
60 93 155
60 93 159
60 94 155
170 189 219
211 230 255
211 230 255
212 230 255
212 230 255
212 230 255
212 230 255
212 230 255
212 230 255
212 230 255
212 230 255
212 230 255
212 230 255
212 230 255
212 230 255
212 230 255
212 230 255
212 230 255
212 230 255
212 230 255
212 230 255
212 230 255
212 230 255
186 198 210
126 122 80
125 122 81
131 130 88
126 125 83
137 134 90
130 129 88
133 132 89
142 141 96
135 134 91
135 134 91
138 138 94
142 141 96
134 134 92
148 147 100
137 137 92
149 148 100
139 137 91
146 145 97
148 145 98
147 146 99
138 138 94
138 137 94
156 155 104
142 141 94
144 144 98
152 151 102
150 148 100
156 153 101
156 154 103
155 154 102
159 158 106
156 154 102
162 158 103
156 154 103
164 161 107
162 159 103
161 158 104
154 153 101
164 159 104
170 165 108
161 158 104
165 161 105
163 159 105
165 162 106
163 160 104
159 155 101
166 162 106
162 159 104
170 165 108
162 158 103
164 160 104
170 165 104
170 165 104
170 165 107
169 165 106
166 163 106
174 169 108
168 163 104
169 165 106
168 163 103
169 164 105
166 162 105
168 163 106
170 166 107
170 165 103
162 159 102
173 168 108
168 163 105
170 165 105
169 164 105
167 162 104
170 164 102
170 165 108
165 162 103
168 163 104
163 159 102
169 164 101
171 166 105
162 158 101
168 165 104
171 166 107
169 164 105
164 159 99
165 161 104
162 157 101
170 166 104
168 164 101
168 163 104
167 163 106
169 162 97
161 156 99
164 158 100
168 164 103
163 157 97
167 161 103
160 155 96
166 161 102
160 155 97
171 166 106
161 156 97
166 160 101
159 154 97
164 158 98
160 155 97
164 158 101
162 157 97
162 157 97
165 160 98
161 156 100
160 155 97
161 156 95
166 161 99
157 152 95
160 155 92
166 160 101
158 153 94
162 157 96
157 152 90
157 152 94
159 154 97
156 151 92
157 153 95
157 152 91
163 157 99
153 149 91
163 157 97
154 149 90
161 156 93
150 145 87
160 154 93
158 153 93
155 151 90
154 148 90
163 158 101
152 147 90
152 147 89
206 227 255
206 227 255
205 227 255
205 227 255
205 226 255
205 226 255
204 226 255
204 226 255
204 226 255
204 226 255
205 226 255
205 227 255
206 227 255
206 227 255
207 227 255
207 228 255
207 228 255
207 228 255
208 228 255
208 228 255
208 228 255
208 228 255
208 228 255
208 228 255
208 228 255
209 228 255
209 229 255
209 229 255
209 229 255
209 229 255
209 229 255
209 229 255
209 229 255
209 229 255
209 229 255
209 229 255
209 229 255
209 229 255
210 229 255
210 229 255
210 229 255
210 229 255
210 229 255
210 229 255
210 229 255
210 229 255
210 229 255
210 229 255
210 229 255
210 229 255
210 229 255
210 229 255
210 229 255
210 229 255
210 229 255
210 229 255
210 229 255
210 229 255
210 229 255
210 229 255
210 229 255
210 229 255
210 229 255
210 229 255
210 229 255
210 229 255
210 229 255
210 229 255
210 229 255
210 229 255
210 229 255
210 229 255
209 229 255
209 229 255
209 229 255
209 229 255
209 229 255
209 229 255
209 229 255
209 229 255
209 229 255
209 229 255
209 229 255
209 229 255
209 229 255
209 229 255
209 229 255
209 229 255
209 228 255
208 228 255
208 228 255
208 228 255
208 228 255
208 228 255
208 228 255
208 228 255
208 228 255
208 228 255
207 228 255
207 228 255
207 228 255
207 228 255
207 228 255
207 227 255
206 227 255
206 227 255
206 227 255
206 227 255
205 227 255
205 227 255
205 226 255
204 226 255
204 226 255
204 226 255
203 226 255
203 225 255
202 225 255
201 224 255
200 224 255
199 223 255
198 223 255
196 222 255
193 220 255
193 220 255
194 221 255
195 221 255
196 222 255
197 222 255
198 223 255
200 224 255
201 225 255
203 226 255
205 227 255
207 228 255
210 229 255
213 231 255
218 234 255
215 232 255
212 231 255
212 231 255
212 231 255
212 231 255
212 231 255
212 230 255
212 230 255
212 230 255
212 230 255
212 230 255
212 230 255
212 230 255
212 230 255
212 230 255
212 230 255
212 230 255
212 230 255
212 230 255
212 230 255
212 230 255
192 211 239
65 100 163
61 98 159
62 98 167
62 99 167
61 97 156
61 97 159
62 98 163
62 98 164
63 99 162
62 98 159
62 98 159
62 99 168
63 99 165
61 97 154
61 96 154
61 97 159
62 98 158
62 98 159
62 98 159
62 97 161
61 97 156
61 97 156
62 98 161
62 98 161
62 98 158
61 97 152
61 97 160
62 98 161
60 96 153
62 98 154
61 97 154
63 99 166
62 97 155
61 98 159
61 98 160
61 97 161
61 97 156
61 97 150
61 97 158
62 98 164
62 98 158
63 98 158
62 98 159
62 97 157
63 99 164
62 98 163
62 97 158
62 97 158
62 97 160
61 97 155
62 97 154
62 98 164
62 98 165
60 95 154
61 97 157
62 98 162
60 96 156
61 97 156
61 97 159
60 96 157
62 97 162
60 95 152
60 96 159
61 97 158
61 96 157
60 95 156
62 97 161
61 95 155
62 97 164
59 93 147
60 94 147
61 96 158
60 95 158
60 94 155
61 96 160
58 92 147
61 96 154
60 93 143
61 96 158
59 93 150
59 94 162
66 98 160
193 212 241
212 230 255
212 230 255
212 230 255
212 230 255
212 230 255
212 230 255
212 230 255
212 230 255
212 230 255
212 230 255
212 230 255
212 230 255
212 230 255
212 230 255
212 230 255
212 230 255
212 231 255
212 231 255
212 231 255
212 231 255
193 208 227
126 123 86
115 112 73
130 128 86
125 124 85
132 131 89
113 112 77
135 134 93
132 131 89
137 136 93
134 135 93
134 134 92
134 134 91
143 141 96
144 143 98
144 143 97
139 137 93
142 141 97
133 133 91
143 142 97
148 147 99
145 144 98
148 148 100
153 151 102
153 151 101
152 150 100
153 151 102
152 149 100
150 149 101
149 147 96
149 147 97
160 157 104
148 146 98
157 153 101
162 159 103
165 162 107
159 156 104
170 166 108
164 161 107
159 156 102
164 160 106
156 154 101
164 159 105
166 162 106
167 163 107
161 157 103
156 154 99
162 158 101
164 160 103
162 158 104
166 163 108
164 161 103
161 158 103
161 157 102
168 164 107
171 167 107
165 161 105
165 161 101
174 168 108
173 168 106
172 167 108
173 168 110
171 167 107
168 164 104
168 163 104
169 165 108
173 168 109
166 162 103
173 168 106
169 164 106
171 165 106
170 164 105
172 166 106
170 164 103
168 163 101
168 163 102
166 161 99
164 160 104
172 166 103
171 166 106
162 158 101
166 160 101
170 165 102
170 165 104
168 164 102
165 160 101
169 165 105
164 160 97
163 159 99
169 163 103
164 159 101
168 163 102
166 161 99
167 162 101
167 163 99
163 157 97
165 159 99
166 160 103
162 157 99
162 157 96
167 161 101
161 156 99
160 155 95
159 154 95
166 161 102
163 156 93
160 156 98
155 152 90
160 155 91
159 155 94
162 156 97
167 161 100
165 159 99
164 159 90
157 153 93
159 153 97
164 158 97
166 161 101
155 150 89
150 146 90
157 153 93
158 153 95
157 152 93
160 156 98
161 156 97
165 160 100
154 150 87
164 159 98
157 151 93
152 148 90
143 139 84
158 154 95
149 144 81
157 151 90
152 147 89
154 148 87
154 149 87
151 146 90
206 227 255
206 227 255
206 227 255
205 227 255
205 227 255
205 226 255
205 226 255
204 226 255
204 226 255
205 227 255
206 227 255
206 227 255
207 228 255
207 228 255
207 228 255
208 228 255
208 228 255
208 228 255
208 228 255
208 228 255
209 229 255
209 229 255
209 229 255
209 229 255
209 229 255
209 229 255
209 229 255
209 229 255
209 229 255
210 229 255
210 229 255
210 229 255
210 229 255
210 229 255
210 229 255
210 229 255
210 229 255
210 229 255
210 229 255
210 229 255
210 229 255
210 229 255
210 229 255
210 229 255
210 229 255
210 229 255
210 229 255
210 229 255
210 229 255
210 229 255
210 229 255
210 229 255
210 229 255
210 229 255
210 229 255
210 229 255
210 229 255
210 229 255
210 229 255
210 229 255
210 229 255
210 229 255
210 229 255
210 229 255
210 229 255
210 229 255
210 229 255
210 229 255
210 229 255
210 229 255
210 229 255
210 229 255
210 229 255
210 229 255
210 229 255
210 229 255
210 229 255
210 229 255
210 229 255
210 229 255
210 229 255
210 229 255
210 229 255
209 229 255
209 229 255
209 229 255
209 229 255
209 229 255
209 229 255
209 229 255
209 229 255
209 229 255
209 229 255
209 229 255
209 228 255
208 228 255
208 228 255
208 228 255
208 228 255
208 228 255
208 228 255
208 228 255
207 228 255
207 228 255
207 228 255
207 228 255
207 228 255
207 227 255
206 227 255
206 227 255
206 227 255
205 227 255
205 227 255
205 226 255
204 226 255
204 226 255
203 226 255
203 225 255
202 225 255
201 224 255
200 224 255
199 223 255
197 222 255
194 221 255
194 220 255
194 221 255
196 221 255
197 222 255
198 223 255
199 223 255
201 224 255
202 225 255
204 226 255
206 227 255
208 228 255
211 230 255
214 232 255
218 233 255
214 231 255
213 231 255
213 231 255
213 231 255
212 231 255
212 231 255
212 231 255
212 231 255
212 231 255
212 231 255
212 231 255
212 231 255
212 231 255
212 231 255
212 230 255
212 230 255
212 230 255
212 230 255
212 230 255
205 224 251
87 116 177
62 98 166
61 98 162
62 99 166
61 97 153
62 98 157
61 98 163
62 98 161
61 97 155
62 97 154
61 97 162
63 99 163
63 99 164
62 98 157
61 97 157
62 98 160
61 96 156
62 97 158
62 98 159
61 97 157
62 98 160
61 97 162
63 98 158
63 99 164
62 99 164
62 98 159
62 98 160
62 98 160
61 97 151
61 97 156
62 98 163
62 98 155
62 98 159
62 98 159
62 98 156
62 98 153
61 96 152
62 98 157
62 98 159
62 98 157
61 97 152
61 97 162
62 98 159
61 96 156
61 97 156
61 97 150
62 98 158
61 97 152
62 98 161
62 97 153
62 98 164
61 97 158
60 95 145
62 98 159
60 96 151
62 97 151
62 97 152
62 98 161
61 96 156
61 97 155
62 98 162
60 95 150
61 97 159
63 98 163
60 95 151
61 97 156
61 97 158
62 97 159
62 97 160
62 98 162
62 97 164
61 96 161
60 94 153
60 95 155
61 96 153
60 94 159
60 94 156
59 92 148
60 93 156
60 95 156
61 95 158
59 94 158
59 93 158
93 117 164
205 223 248
212 230 255
212 230 255
212 230 255
212 230 255
212 231 255
212 231 255
212 231 255
212 231 255
212 231 255
212 231 255
212 231 255
212 231 255
212 231 255
212 231 255
212 231 255
213 231 255
213 231 255
213 231 255
209 226 248
132 132 108
118 115 75
136 134 88
124 122 83
131 130 89
137 136 93
115 116 81
126 126 87
136 135 92
135 136 95
144 142 96
146 144 98
137 137 94
125 124 86
144 143 98
135 134 92
136 137 95
150 149 101
147 147 98
145 144 97
145 143 98
146 145 97
138 138 93
153 152 103
157 153 102
148 146 97
144 143 95
152 149 98
159 156 104
154 152 102
158 155 104
153 151 101
155 152 102
156 154 103
160 158 105
164 161 105
162 159 105
156 154 102
151 150 99
162 159 103
165 161 105
164 161 105
159 156 103
162 158 104
161 158 102
171 166 108
165 161 106
167 163 105
164 160 103
162 158 103
169 164 107
171 165 107
165 161 104
164 160 102
166 162 104
170 166 104
168 163 106
168 164 106
169 165 105
170 166 107
169 164 104
168 163 104
172 167 108
165 161 104
170 166 106
171 166 103
172 167 108
173 167 106
168 164 103
170 165 103
167 160 101
171 166 104
172 166 103
169 165 104
168 163 101
169 163 103
170 164 103
172 166 104
167 162 103
171 166 103
164 160 99
168 163 104
169 164 104
168 162 100
164 161 101
167 162 104
170 165 103
165 160 99
164 158 99
171 165 105
165 161 100
164 158 97
171 165 104
160 155 97
166 161 101
173 167 103
167 162 101
167 161 98
167 161 97
161 158 99
170 164 101
163 158 99
159 154 94
166 161 98
163 158 97
158 154 92
165 160 99
164 159 97
171 166 102
163 157 97
163 158 97
169 163 101
162 156 97
160 156 98
164 158 98
161 156 98
162 156 97
157 153 95
164 158 95
164 159 95
158 154 93
158 153 92
167 161 96
162 156 97
161 156 95
159 153 95
160 155 94
164 158 93
163 158 97
156 151 92
157 154 91
153 147 87
155 150 90
156 151 91
149 144 88
160 153 93
151 146 85
158 153 91
207 227 255
206 227 255
206 227 255
206 227 255
205 227 255
205 227 255
205 227 255
205 227 255
206 227 255
207 227 255
207 228 255
207 228 255
208 228 255
208 228 255
208 228 255
208 228 255
209 229 255
209 229 255
209 229 255
209 229 255
209 229 255
209 229 255
210 229 255
210 229 255
210 229 255
210 229 255
210 229 255
210 229 255
210 229 255
210 229 255
210 229 255
210 229 255
210 229 255
210 229 255
210 229 255
210 230 255
210 230 255
211 230 255
211 230 255
211 230 255
211 230 255
211 230 255
211 230 255
211 230 255
211 230 255
211 230 255
211 230 255
211 230 255
211 230 255
211 230 255
211 230 255
211 230 255
211 230 255
211 230 255
211 230 255
211 230 255
211 230 255
211 230 255
211 230 255
211 230 255
211 230 255
211 230 255
211 230 255
211 230 255
211 230 255
211 230 255
211 230 255
211 230 255
211 230 255
211 230 255
211 230 255
211 230 255
210 230 255
210 230 255
210 230 255
210 229 255
210 229 255
210 229 255
210 229 255
210 229 255
210 229 255
210 229 255
210 229 255
210 229 255
210 229 255
210 229 255
210 229 255
210 229 255
210 229 255
210 229 255
210 229 255
209 229 255
209 229 255
209 229 255
209 229 255
209 229 255
209 229 255
209 229 255
209 229 255
209 229 255
208 228 255
208 228 255
208 228 255
208 228 255
208 228 255
208 228 255
208 228 255
207 228 255
207 228 255
207 228 255
207 227 255
206 227 255
206 227 255
206 227 255
205 227 255
205 227 255
205 226 255
204 226 255
204 226 255
203 225 255
202 225 255
201 224 255
200 224 255
198 223 255
196 222 255
194 221 255
195 221 255
196 222 255
197 222 255
199 223 255
200 224 255
201 225 255
203 225 255
205 226 255
207 227 255
209 229 255
212 230 255
215 232 255
218 234 255
213 231 255
213 231 255
213 231 255
213 231 255
213 231 255
213 231 255
213 231 255
213 231 255
213 231 255
213 231 255
213 231 255
213 231 255
213 231 255
212 231 255
212 231 255
212 231 255
212 231 255
212 231 255
136 159 203
62 98 166
62 98 162
62 98 168
61 97 155
62 98 160
61 97 162
61 97 162
63 99 164
62 98 157
62 98 159
61 97 158
63 99 164
62 98 162
61 97 159
61 97 152
62 98 157
62 98 158
61 97 154
61 97 162
61 97 157
62 98 159
61 96 151
61 97 157
62 98 156
62 98 158
61 97 152
61 97 150
61 96 151
61 97 157
62 98 165
61 97 153
62 97 156
61 97 157
63 99 166
62 97 158
62 98 157
61 96 149
62 98 162
61 96 153
62 98 159
61 97 151
62 98 165
61 96 153
62 98 160
63 99 164
62 98 156
62 98 162
61 97 155
62 98 154
62 98 158
63 99 167
61 96 156
61 97 152
61 97 153
61 97 159
61 97 157
62 97 154
62 97 156
61 96 155
61 96 150
62 97 155
61 96 154
60 96 154
62 97 158
61 97 161
61 96 155
60 95 153
62 98 161
61 95 152
60 95 150
60 95 145
62 97 160
60 95 150
60 95 152
60 94 153
60 95 152
61 96 158
61 96 155
60 94 154
60 94 156
60 94 160
61 95 155
60 93 157
58 91 140
136 158 198
212 231 255
212 231 255
212 231 255
212 231 255
212 231 255
213 231 255
213 231 255
213 231 255
213 231 255
213 231 255
213 231 255
213 231 255
213 231 255
213 231 255
213 231 255
213 231 255
213 231 255
212 230 254
154 160 153
125 122 81
131 129 85
126 125 83
131 131 89
122 122 84
134 133 89
122 122 85
122 123 87
134 133 91
137 137 95
131 131 92
136 135 91
132 131 91
135 135 92
141 140 95
142 142 98
135 135 94
140 139 95
142 142 98
154 152 102
141 142 97
143 142 96
154 152 102
158 155 103
149 147 99
152 151 103
144 144 99
158 156 103
153 150 98
158 155 102
164 161 105
156 153 98
159 157 105
163 160 106
154 151 98
162 158 103
166 162 106
160 157 104
165 161 106
169 165 108
164 160 104
160 157 100
166 162 104
162 159 102
166 162 104
165 161 102
162 158 102
164 161 104
172 168 106
164 161 104
168 163 104
168 163 105
162 158 104
166 162 106
171 165 105
170 164 107
170 165 105
169 165 106
173 168 105
168 164 102
168 164 106
164 159 100
167 162 103
166 161 102
172 167 106
173 168 107
173 167 105
171 166 108
172 167 106
168 164 103
171 166 106
171 166 106
173 168 107
168 163 103
173 168 108
168 162 102
166 160 100
169 164 101
168 163 99
170 164 102
169 163 99
170 166 104
167 162 99
167 161 99
167 162 103
170 164 101
163 158 99
168 163 101
168 164 103
168 163 102
170 164 104
174 168 106
173 166 103
168 162 99
169 163 100
164 159 97
169 164 101
166 161 101
168 163 101
165 160 97
165 158 97
167 162 99
164 159 95
161 154 95
170 164 103
169 163 101
161 156 96
164 160 98
165 160 98
164 159 100
164 159 99
166 162 99
171 164 101
159 155 95
166 161 98
157 152 92
160 155 94
156 151 94
161 155 90
166 160 99
159 154 95
158 151 92
159 154 92
160 154 94
159 154 95
154 149 90
149 144 86
155 150 91
153 148 91
160 154 95
156 151 92
157 151 94
160 155 93
155 151 91
154 149 87
155 148 85
152 147 89
155 150 88
207 228 255
207 227 255
206 227 255
206 227 255
206 227 255
206 227 255
206 227 255
207 227 255
207 228 255
208 228 255
208 228 255
208 228 255
209 228 255
209 229 255
209 229 255
209 229 255
209 229 255
209 229 255
210 229 255
210 229 255
210 229 255
210 229 255
210 229 255
210 229 255
210 229 255
210 229 255
210 230 255
210 230 255
211 230 255
211 230 255
211 230 255
211 230 255
211 230 255
211 230 255
211 230 255
211 230 255
211 230 255
211 230 255
211 230 255
211 230 255
211 230 255
211 230 255
211 230 255
211 230 255
211 230 255
211 230 255
211 230 255
211 230 255
211 230 255
211 230 255
211 230 255
211 230 255
211 230 255
211 230 255
211 230 255
211 230 255
211 230 255
211 230 255
211 230 255
211 230 255
211 230 255
211 230 255
211 230 255
211 230 255
211 230 255
211 230 255
211 230 255
211 230 255
211 230 255
211 230 255
211 230 255
211 230 255
211 230 255
211 230 255
211 230 255
211 230 255
211 230 255
211 230 255
211 230 255
211 230 255
211 230 255
211 230 255
211 230 255
210 230 255
210 230 255
210 230 255
210 229 255
210 229 255
210 229 255
210 229 255
210 229 255
210 229 255
210 229 255
210 229 255
210 229 255
210 229 255
210 229 255
209 229 255
209 229 255
209 229 255
209 229 255
209 229 255
209 229 255
209 229 255
209 228 255
208 228 255
208 228 255
208 228 255
208 228 255
208 228 255
207 228 255
207 228 255
207 228 255
207 227 255
206 227 255
206 227 255
206 227 255
205 227 255
205 226 255
204 226 255
204 226 255
203 225 255
202 225 255
201 224 255
199 223 255
196 222 255
195 221 255
196 222 255
197 222 255
198 223 255
199 223 255
201 224 255
202 225 255
204 226 255
206 227 255
207 228 255
210 229 255
213 231 255
216 233 255
217 233 255
213 231 255
213 231 255
213 231 255
213 231 255
213 231 255
213 231 255
213 231 255
213 231 255
213 231 255
213 231 255
213 231 255
213 231 255
213 231 255
213 231 255
213 231 255
213 231 255
185 204 236
61 98 161
62 98 167
61 97 160
61 97 157
62 98 163
61 97 153
63 99 164
62 98 161
63 99 162
62 98 156
62 98 158
62 98 158
61 96 156
62 98 161
62 98 152
62 98 160
61 97 152
61 97 153
62 97 154
61 97 155
61 97 154
61 97 156
62 97 156
62 98 163
61 96 155
62 98 169
61 97 159
62 98 158
61 97 150
61 97 152
62 98 155
62 98 160
62 98 158
61 96 155
61 98 161
62 98 159
61 97 157
62 97 163
61 97 154
61 97 155
62 98 163
63 99 160
61 97 159
62 97 155
61 96 153
61 96 150
61 97 156
61 97 157
61 97 158
60 95 150
62 97 157
61 97 155
61 97 154
61 97 159
62 98 158
62 98 158
61 97 157
60 96 155
61 96 146
61 97 155
61 97 159
62 97 154
61 96 152
62 97 161
62 97 160
61 96 156
61 96 151
61 96 150
61 96 150
61 97 159
61 96 154
60 95 154
61 95 155
60 95 147
61 97 161
60 94 151
60 95 151
58 91 139
61 96 156
61 94 155
59 92 148
59 93 154
58 91 147
58 92 152
59 92 148
58 90 150
175 194 224
213 231 255
213 231 255
213 231 255
213 231 255
213 231 255
213 231 255
213 231 255
213 231 255
213 231 255
213 231 255
213 231 255
213 231 255
213 231 255
213 231 255
213 231 255
213 231 255
174 183 185
129 126 84
128 125 83
116 116 79
121 121 83
128 128 89
126 126 86
123 123 85
127 127 87
124 124 86
144 143 97
135 136 93
136 136 94
134 134 92
126 126 87
143 141 95
134 132 90
143 143 98
137 137 95
142 141 95
134 133 91
143 142 96
147 145 98
147 145 97
150 148 99
154 152 101
146 145 98
151 149 98
150 148 99
152 149 97
156 153 102
156 154 102
150 148 99
158 155 104
156 153 98
153 150 99
150 149 98
158 156 100
160 157 103
163 159 102
168 164 107
160 157 101
162 159 103
164 161 104
163 159 104
159 156 100
164 160 102
167 163 103
171 166 104
168 164 106
170 165 106
164 160 104
171 166 105
170 165 103
166 162 104
170 166 107
171 166 105
170 166 106
169 164 104
170 166 108
171 166 107
173 168 109
171 165 104
171 167 105
173 167 106
172 166 106
170 165 104
174 168 106
166 161 102
169 165 104
168 162 101
173 167 105
168 163 104
167 164 102
171 166 108
172 166 106
172 167 104
170 165 104
170 165 104
170 163 103
175 169 108
171 165 103
168 162 101
171 165 102
167 162 101
163 158 99
165 161 99
162 157 94
168 163 100
167 162 103
168 163 101
162 157 99
171 165 102
171 165 102
167 161 100
164 160 98
160 155 93
166 160 97
164 160 99
166 160 96
169 164 101
170 164 103
165 159 97
163 159 98
167 161 97
160 155 96
160 154 93
166 159 99
162 157 95
167 162 101
165 159 97
162 156 93
159 155 91
163 157 96
165 160 95
165 159 97
162 157 95
164 159 97
161 156 95
164 158 97
162 157 94
161 156 94
162 157 97
160 155 97
163 158 95
165 160 95
150 145 85
162 156 95
161 156 95
165 160 99
154 149 85
154 149 86
158 152 93
162 157 95
161 156 95
154 149 93
153 148 89
158 152 87
151 146 85
155 150 90
207 228 255
207 228 255
207 227 255
206 227 255
206 227 255
206 227 255
207 228 255
208 228 255
208 228 255
209 229 255
209 229 255
209 229 255
209 229 255
209 229 255
210 229 255
210 229 255
210 229 255
210 229 255
210 229 255
210 229 255
210 230 255
211 230 255
211 230 255
211 230 255
211 230 255
211 230 255
211 230 255
211 230 255
211 230 255
211 230 255
211 230 255
211 230 255
211 230 255
211 230 255
211 230 255
211 230 255
211 230 255
211 230 255
211 230 255
212 230 255
212 230 255
212 230 255
212 230 255
212 230 255
212 230 255
212 230 255
212 230 255
212 230 255
212 230 255
212 230 255
212 230 255
212 230 255
212 230 255
212 230 255
212 230 255
212 230 255
212 230 255
212 230 255
212 230 255
212 230 255
212 230 255
212 230 255
212 230 255
212 230 255
212 230 255
212 230 255
212 230 255
212 230 255
212 230 255
212 230 255
211 230 255
211 230 255
211 230 255
211 230 255
211 230 255
211 230 255
211 230 255
211 230 255
211 230 255
211 230 255
211 230 255
211 230 255
211 230 255
211 230 255
211 230 255
211 230 255
211 230 255
211 230 255
211 230 255
211 230 255
211 230 255
211 230 255
210 230 255
210 229 255
210 229 255
210 229 255
210 229 255
210 229 255
210 229 255
210 229 255
210 229 255
210 229 255
209 229 255
209 229 255
209 229 255
209 229 255
209 229 255
209 229 255
209 228 255
208 228 255
208 228 255
208 228 255
208 228 255
207 228 255
207 228 255
207 228 255
207 227 255
206 227 255
206 227 255
205 227 255
205 226 255
204 226 255
203 226 255
203 225 255
201 225 255
200 224 255
197 222 255
196 222 255
197 222 255
198 223 255
199 223 255
200 224 255
201 225 255
203 225 255
205 226 255
206 227 255
209 228 255
211 230 255
214 231 255
218 234 255
215 232 255
213 231 255
213 231 255
213 231 255
213 231 255
213 231 255
213 231 255
213 231 255
213 231 255
213 231 255
213 231 255
213 231 255
213 231 255
213 231 255
213 231 255
206 224 250
112 137 185
61 97 156
62 98 161
62 98 160
62 98 157
62 98 166
62 98 157
60 96 155
61 98 164
62 98 163
61 97 157
61 97 157
61 97 151
61 97 155
62 98 161
61 97 152
61 97 159
61 96 152
61 97 153
62 98 163
61 96 148
61 96 155
62 98 158
62 98 157
62 97 154
62 98 162
62 98 163
62 98 160
61 97 151
62 97 154
60 96 152
62 98 159
62 97 154
61 97 151
62 98 156
62 97 157
61 96 155
61 96 147
62 97 158
61 97 159
62 97 158
61 97 151
61 96 151
60 95 147
61 96 149
60 96 151
62 97 159
62 98 158
61 97 157
62 98 158
62 98 154
62 98 154
61 97 156
62 98 154
61 97 157
62 97 157
61 97 155
62 97 153
61 97 154
61 96 151
61 96 152
61 96 150
63 98 166
61 96 152
61 97 159
61 97 157
61 96 151
61 96 154
61 96 158
61 96 152
62 97 154
61 96 158
61 96 154
61 95 156
60 94 153
60 95 155
60 95 154
60 95 153
60 95 155
61 95 153
60 94 155
60 95 153
59 92 154
61 96 162
60 92 148
60 93 154
56 89 146
90 117 168
212 230 254
213 231 255
213 231 255
213 231 255
213 231 255
213 231 255
213 231 255
213 231 255
213 231 255
213 231 255
213 231 255
213 231 255
213 231 255
213 231 255
213 231 255
197 213 232
116 115 80
123 122 82
132 131 87
123 122 83
129 128 86
113 114 78
131 131 90
128 128 87
125 125 86
134 133 92
121 121 84
128 127 87
138 137 92
136 137 94
137 137 93
128 129 88
132 132 91
136 135 92
147 146 97
143 143 96
145 143 97
149 147 99
141 141 95
141 141 95
141 140 96
148 147 98
147 145 96
157 153 100
153 150 98
152 150 100
148 145 96
155 152 99
157 155 100
160 157 104
158 155 97
160 158 105
164 160 106
155 153 101
159 156 101
161 158 103
166 163 107
163 160 103
163 159 102
166 162 104
165 162 108
161 157 98
161 157 101
170 165 106
165 162 100
162 158 102
171 166 105
168 164 104
172 166 106
175 170 110
169 165 104
168 162 102
167 164 106
168 163 105
170 165 104
168 164 105
173 168 106
174 168 107
171 166 105
169 164 103
173 168 108
170 165 104
166 161 102
167 162 103
169 165 103
173 168 105
170 165 103
169 164 104
172 166 104
170 165 99
169 164 102
172 166 106
168 163 103
166 161 99
168 163 103
169 164 104
170 164 103
168 163 102
173 167 103
172 165 101
168 162 100
166 161 99
173 167 103
170 165 102
167 160 101
168 163 97
174 168 104
171 165 103
169 163 102
167 162 96
169 163 103
169 164 104
169 164 102
166 161 97
165 160 93
161 157 98
164 160 99
165 159 99
167 162 98
169 163 94
164 159 97
165 159 97
165 159 95
164 158 93
164 159 98
165 159 97
165 160 98
161 156 96
164 158 97
164 159 97
160 155 93
162 157 96
167 161 97
165 159 95
160 155 93
164 159 99
157 152 91
166 159 90
165 160 97
156 151 93
162 158 99
156 151 90
165 159 94
154 149 87
152 147 92
161 156 96
155 150 91
152 147 85
158 153 91
157 153 93
160 155 91
154 149 87
152 147 87
157 151 88
159 154 94
153 148 86
208 228 255
207 228 255
207 228 255
207 228 255
207 228 255
208 228 255
208 228 255
209 229 255
209 229 255
209 229 255
210 229 255
210 229 255
210 229 255
210 229 255
210 229 255
210 230 255
211 230 255
211 230 255
211 230 255
211 230 255
211 230 255
211 230 255
211 230 255
211 230 255
211 230 255
211 230 255
211 230 255
212 230 255
212 230 255
212 230 255
212 230 255
212 230 255
212 230 255
212 230 255
212 230 255
212 230 255
212 230 255
212 230 255
212 230 255
212 230 255
212 230 255
212 230 255
212 230 255
212 230 255
212 230 255
212 230 255
212 230 255
212 230 255
212 230 255
212 230 255
212 230 255
212 230 255
212 230 255
212 230 255
212 230 255
212 230 255
212 230 255
212 230 255
212 230 255
212 230 255
212 230 255
212 230 255
212 230 255
212 230 255
212 230 255
212 230 255
212 230 255
212 230 255
212 230 255
212 230 255
212 230 255
212 230 255
212 230 255
212 230 255
212 230 255
212 230 255
212 230 255
212 230 255
212 230 255
212 230 255
212 230 255
212 230 255
211 230 255
211 230 255
211 230 255
211 230 255
211 230 255
211 230 255
211 230 255
211 230 255
211 230 255
211 230 255
211 230 255
211 230 255
211 230 255
211 230 255
211 230 255
211 230 255
210 230 255
210 229 255
210 229 255
210 229 255
210 229 255
210 229 255
210 229 255
210 229 255
210 229 255
209 229 255
209 229 255
209 229 255
209 229 255
209 229 255
208 228 255
208 228 255
208 228 255
208 228 255
207 228 255
207 228 255
207 228 255
206 227 255
206 227 255
205 227 255
205 226 255
204 226 255
203 226 255
202 225 255
200 224 255
198 223 255
197 222 255
198 223 255
199 223 255
200 224 255
201 224 255
202 225 255
204 226 255
205 227 255
207 228 255
209 229 255
212 230 255
215 232 255
218 234 255
214 231 255
214 231 255
214 231 255
214 231 255
214 231 255
214 231 255
213 231 255
213 231 255
213 231 255
213 231 255
213 231 255
213 231 255
213 231 255
213 231 255
154 175 213
62 98 165
62 98 158
62 98 156
63 99 169
61 97 158
60 96 152
62 98 162
61 96 153
61 97 154
61 97 152
61 96 151
62 98 156
61 97 151
60 96 159
61 96 152
62 98 156
61 97 156
62 98 155
61 96 148
62 98 157
61 97 152
61 97 156
62 98 155
61 97 157
61 97 152
61 96 148
62 98 162
62 97 156
62 98 157
61 97 158
61 97 153
61 97 155
62 97 152
63 98 160
62 98 160
62 98 158
61 97 151
62 97 153
61 97 151
62 98 158
62 97 155
63 98 156
61 96 151
62 98 159
62 98 162
62 97 155
62 98 160
61 96 154
61 97 152
61 97 156
61 96 149
62 98 156
61 97 154
60 96 150
62 98 157
62 98 158
60 96 151
60 95 144
62 98 160
62 97 158
62 98 155
62 97 156
61 96 149
61 96 151
62 98 159
62 97 160
61 96 153
61 97 154
61 96 154
60 95 145
60 95 148
62 97 159
61 96 158
62 96 158
62 96 155
61 96 155
59 93 152
59 94 153
61 96 158
61 95 151
60 93 146
60 94 151
59 92 148
58 91 148
59 93 151
59 93 152
59 92 152
58 91 147
156 176 208
213 231 255
213 231 255
213 231 255
213 231 255
213 231 255
213 231 255
213 231 255
213 231 255
214 231 255
214 231 255
214 231 255
214 231 255
214 231 255
211 228 252
136 140 124
119 116 76
124 122 81
119 118 81
127 125 84
116 117 83
128 128 88
135 134 92
131 131 90
121 122 86
117 119 83
135 135 94
135 133 91
129 129 89
127 128 88
127 127 88
141 141 94
134 133 91
138 137 94
137 137 94
145 145 99
139 139 94
138 138 94
146 144 97
147 146 96
148 147 100
152 149 100
147 146 97
146 145 97
148 146 97
158 155 103
154 152 101
152 151 101
152 150 97
156 155 103
164 160 103
161 157 103
165 161 104
162 159 102
157 154 99
159 155 100
163 159 104
155 152 99
162 159 101
163 159 104
164 160 103
167 163 101
170 165 103
168 164 102
170 164 104
170 165 105
169 165 105
168 164 104
167 161 103
170 165 103
167 163 104
168 163 104
168 163 102
167 163 101
173 168 107
170 164 103
168 164 105
171 166 106
171 167 106
166 162 101
169 164 103
170 165 106
170 165 103
164 158 100
172 167 105
166 161 99
172 167 106
170 165 105
172 166 101
172 166 104
169 164 99
177 170 107
166 161 102
169 164 104
171 165 101
176 170 106
171 167 102
168 163 99
171 166 102
174 168 108
173 167 102
173 167 104
168 163 101
164 160 99
165 160 96
168 162 101
168 162 99
165 161 99
170 164 98
168 163 97
172 166 103
167 162 96
168 163 101
160 155 93
168 163 99
167 162 100
167 160 99
170 163 103
169 162 100
163 158 95
169 162 101
168 161 95
165 160 91
167 162 102
167 161 98
159 154 92
165 160 99
161 156 95
164 158 97
167 161 96
166 160 97
162 156 93
166 161 98
162 156 95
160 154 93
161 157 93
160 155 93
164 159 95
163 157 95
165 159 96
158 152 93
159 154 93
163 157 91
161 155 93
156 151 88
155 150 83
164 159 93
158 152 91
152 147 84
158 153 94
166 160 96
155 149 90
157 153 94
158 151 92
147 142 82
159 153 89
208 228 255
208 228 255
207 228 255
207 228 255
208 228 255
209 229 255
209 229 255
210 229 255
210 229 255
210 229 255
210 229 255
210 230 255
211 230 255
211 230 255
211 230 255
211 230 255
211 230 255
211 230 255
211 230 255
211 230 255
212 230 255
212 230 255
212 230 255
212 230 255
212 230 255
212 230 255
212 230 255
212 230 255
212 230 255
212 230 255
212 230 255
212 230 255
212 231 255
212 231 255
212 231 255
212 231 255
212 231 255
212 231 255
212 231 255
212 231 255
212 231 255
212 231 255
212 231 255
213 231 255
212 231 255
213 231 255
213 231 255
213 231 255
213 231 255
213 231 255
213 231 255
213 231 255
213 231 255
213 231 255
213 231 255
213 231 255
213 231 255
213 231 255
213 231 255
213 231 255
213 231 255
213 231 255
212 231 255
212 231 255
212 231 255
212 231 255
212 231 255
212 231 255
212 231 255
212 231 255
212 231 255
212 231 255
212 231 255
212 231 255
212 231 255
212 231 255
212 230 255
212 230 255
212 230 255
212 230 255
212 230 255
212 230 255
212 230 255
212 230 255
212 230 255
212 230 255
212 230 255
212 230 255
212 230 255
212 230 255
212 230 255
211 230 255
211 230 255
211 230 255
211 230 255
211 230 255
211 230 255
211 230 255
211 230 255
211 230 255
211 230 255
211 230 255
211 230 255
211 230 255
210 230 255
210 229 255
210 229 255
210 229 255
210 229 255
210 229 255
210 229 255
209 229 255
209 229 255
209 229 255
209 229 255
209 228 255
208 228 255
208 228 255
208 228 255
207 228 255
207 228 255
207 227 255
206 227 255
205 227 255
205 226 255
204 226 255
203 225 255
201 225 255
198 223 255
198 223 255
199 223 255
200 224 255
201 224 255
202 225 255
203 226 255
205 226 255
207 227 255
208 228 255
210 230 255
213 231 255
216 233 255
218 234 255
214 231 255
214 231 255
214 231 255
214 231 255
214 231 255
214 231 255
214 231 255
214 231 255
214 231 255
214 231 255
214 231 255
214 231 255
205 223 248
61 98 168
62 98 162
61 97 157
61 97 158
61 97 156
62 98 156
61 97 153
62 98 157
62 98 155
62 97 159
62 97 160
62 99 167
61 97 155
61 96 155
61 97 149
61 96 149
63 99 159
61 97 155
63 98 162
62 97 159
61 97 155
61 97 153
61 97 150
62 98 160
62 98 155
62 98 158
62 97 153
61 97 156
62 97 153
61 97 153
62 97 151
61 97 153
62 97 150
60 96 141
62 97 152
61 97 154
62 98 160
62 98 156
62 98 158
62 97 150
61 97 154
61 96 149
60 96 147
61 97 153
63 98 160
61 97 154
60 96 147
60 95 150
61 96 152
61 97 152
61 96 154
62 97 158
61 97 150
61 96 153
62 98 154
62 98 160
61 97 155
61 96 149
62 98 157
62 97 152
63 98 159
61 96 151
60 95 144
61 97 152
62 97 150
62 98 162
61 96 150
61 96 155
62 97 155
61 96 157
62 97 155
61 96 149
61 96 160
60 95 150
59 94 149
61 96 158
60 94 149
61 96 157
61 96 149
60 94 145
60 95 151
60 94 153
61 94 148
60 93 155
58 91 151
59 91 148
56 88 140
58 90 146
57 88 143
70 98 152
198 216 241
214 231 255
214 231 255
214 231 255
214 231 255
214 231 255
214 231 255
214 231 255
214 231 255
214 231 255
214 231 255
214 231 255
214 231 255
163 172 174
127 125 82
118 116 77
117 116 80
127 126 87
122 122 84
123 123 86
120 119 82
128 128 89
127 127 88
129 128 87
123 124 87
125 126 87
126 128 89
125 126 88
132 131 90
124 124 86
132 132 90
139 139 94
146 145 98
139 138 94
137 137 93
139 138 94
140 140 96
145 145 96
157 154 103
150 148 99
153 151 102
152 150 101
154 152 99
148 147 99
160 157 104
157 154 101
152 149 96
150 149 98
165 161 106
160 156 101
156 154 100
163 159 103
159 156 101
160 157 101
168 163 104
158 155 100
159 156 100
160 156 100
162 158 100
163 159 103
166 163 105
169 164 105
163 159 102
166 161 103
166 162 102
168 165 105
166 161 105
172 166 103
173 167 102
171 165 101
171 166 106
173 168 107
171 166 106
171 166 103
169 164 100
167 163 103
171 165 102
170 165 103
172 167 102
174 169 105
175 169 107
172 167 106
174 168 106
169 164 101
174 168 105
169 164 105
174 169 107
170 165 104
170 164 101
174 169 103
169 164 98
174 168 103
172 167 101
170 165 101
166 161 95
167 162 101
173 167 103
167 162 95
175 168 104
168 162 98
173 166 102
170 165 101
169 164 99
171 166 103
173 166 103
169 164 100
169 164 97
171 165 102
166 161 97
162 156 97
169 163 96
168 163 100
163 157 94
163 158 95
167 161 97
168 163 98
164 159 98
171 165 99
166 160 95
171 165 101
166 160 93
164 159 93
168 161 99
158 153 93
164 159 97
159 154 94
164 159 97
164 158 95
170 164 101
163 158 97
159 153 88
165 160 97
160 155 92
163 157 95
159 154 90
155 149 90
159 154 93
160 154 90
161 156 96
162 157 93
163 157 96
159 154 89
158 152 88
163 157 95
163 157 95
157 151 89
155 150 87
157 152 89
163 157 98
159 153 90
160 154 93
161 155 89
156 150 90
154 150 89
157 150 89
208 228 255
208 228 255
208 228 255
209 229 255
209 229 255
210 229 255
210 229 255
210 229 255
211 230 255
211 230 255
211 230 255
211 230 255
211 230 255
211 230 255
212 230 255
212 230 255
212 230 255
212 230 255
212 230 255
212 230 255
212 230 255
212 230 255
212 231 255
212 231 255
212 231 255
212 231 255
212 231 255
212 231 255
213 231 255
213 231 255
213 231 255
213 231 255
213 231 255
213 231 255
213 231 255
213 231 255
213 231 255
213 231 255
213 231 255
213 231 255
213 231 255
213 231 255
213 231 255
213 231 255
213 231 255
213 231 255
213 231 255
213 231 255
213 231 255
213 231 255
213 231 255
213 231 255
213 231 255
213 231 255
213 231 255
213 231 255
213 231 255
213 231 255
213 231 255
213 231 255
213 231 255
213 231 255
213 231 255
213 231 255
213 231 255
213 231 255
213 231 255
213 231 255
213 231 255
213 231 255
213 231 255
213 231 255
213 231 255
213 231 255
213 231 255
213 231 255
213 231 255
213 231 255
213 231 255
213 231 255
212 231 255
212 231 255
212 231 255
212 231 255
212 231 255
212 231 255
212 231 255
212 230 255
212 230 255
212 230 255
212 230 255
212 230 255
212 230 255
212 230 255
212 230 255
212 230 255
212 230 255
212 230 255
212 230 255
211 230 255
211 230 255
211 230 255
211 230 255
211 230 255
211 230 255
211 230 255
211 230 255
211 230 255
210 230 255
210 229 255
210 229 255
210 229 255
210 229 255
210 229 255
210 229 255
209 229 255
209 229 255
209 229 255
209 228 255
208 228 255
208 228 255
207 228 255
207 228 255
207 227 255
206 227 255
205 227 255
204 226 255
203 226 255
202 225 255
199 223 255
199 223 255
200 224 255
201 224 255
202 225 255
203 226 255
204 226 255
206 227 255
207 228 255
210 229 255
212 230 255
214 232 255
218 234 255
216 233 255
214 232 255
214 232 255
214 232 255
214 232 255
214 232 255
214 232 255
214 232 255
214 231 255
214 231 255
214 231 255
214 231 255
137 159 199
62 98 156
61 97 157
62 98 160
61 97 155
61 97 157
62 98 163
61 97 153
62 98 160
61 96 154
62 98 156
60 95 148
61 97 157
62 98 153
62 98 158
61 97 158
61 97 150
61 97 159
62 97 152
62 98 158
61 97 154
61 98 159
61 97 157
61 97 152
63 98 158
62 97 158
62 98 155
61 96 152
61 96 151
61 96 154
61 97 153
63 98 156
62 98 159
61 96 149
62 98 154
61 97 153
61 96 149
61 96 149
60 96 142
63 98 156
61 97 149
61 97 153
62 98 154
62 98 158
62 97 152
61 96 150
61 96 145
61 96 148
61 96 148
61 96 149
60 96 150
60 95 144
61 97 155
63 98 158
61 97 153
61 96 143
61 96 149
62 98 153
62 98 158
62 97 150
62 98 162
62 97 155
61 96 149
61 95 148
61 97 150
61 95 143
60 95 151
61 97 154
60 95 147
60 96 153
60 95 150
62 97 155
61 96 145
61 96 153
60 95 152
61 96 154
62 97 154
62 96 155
60 95 146
60 95 149
60 95 149
61 95 156
60 93 143
60 95 158
57 88 134
60 94 158
60 93 148
59 92 150
58 90 145
57 89 147
58 89 141
138 157 193
214 231 255
214 231 255
214 231 255
214 231 255
214 232 255
214 232 255
214 232 255
214 232 255
214 232 255
214 232 255
214 232 255
195 209 225
131 129 90
128 125 81
113 112 76
120 119 82
103 104 73
119 120 82
113 114 80
116 118 84
125 126 87
118 120 86
120 121 85
125 126 87
131 132 93
130 130 90
118 119 82
132 132 91
127 128 88
130 129 89
124 125 87
128 128 88
129 128 88
141 140 93
141 140 95
141 139 92
143 141 94
138 137 93
145 144 92
157 154 101
148 147 96
153 150 97
156 154 100
153 150 100
156 154 99
156 153 99
149 147 95
154 151 98
162 158 101
160 158 105
161 157 102
160 157 102
161 158 102
163 158 102
166 162 104
165 161 101
160 158 102
154 153 101
161 157 101
162 159 100
169 164 102
167 161 100
170 165 105
166 162 100
168 163 103
171 166 105
167 162 103
168 163 102
166 162 98
168 164 102
171 166 106
171 166 105
171 166 101
169 164 102
166 163 102
170 165 103
168 163 101
174 169 105
171 166 104
173 167 105
171 166 103
171 166 102
171 165 100
174 168 104
164 160 100
171 166 102
168 163 100
169 165 101
172 167 104
173 168 104
173 167 101
173 168 104
172 165 99
170 164 101
166 160 97
174 168 100
164 160 97
172 166 101
170 164 101
173 166 100
170 164 102
170 164 97
168 162 98
166 161 98
175 169 104
168 163 99
171 165 97
169 163 101
168 163 99
172 165 101
169 163 100
169 163 99
171 166 103
166 162 95
172 166 101
166 160 95
162 157 93
166 160 97
158 153 87
165 159 95
166 161 96
159 153 93
168 163 98
166 161 94
163 158 93
158 152 90
163 157 91
170 164 97
158 153 92
160 156 92
160 155 93
170 164 97
159 154 94
162 157 92
162 156 93
163 157 91
163 158 93
166 160 95
162 157 95
166 159 93
167 162 99
158 153 94
165 159 93
154 148 87
157 152 91
156 151 87
154 148 82
165 159 95
154 148 85
160 155 87
157 151 87
154 148 85
144 139 80
164 157 95
209 229 255
209 229 255
209 229 255
210 229 255
210 229 255
211 230 255
211 230 255
211 230 255
211 230 255
211 230 255
212 230 255
212 230 255
212 230 255
212 230 255
212 230 255
212 230 255
212 231 255
212 231 255
212 231 255
212 231 255
213 231 255
213 231 255
213 231 255
213 231 255
213 231 255
213 231 255
213 231 255
213 231 255
213 231 255
213 231 255
213 231 255
213 231 255
213 231 255
213 231 255
213 231 255
213 231 255
213 231 255
213 231 255
213 231 255
213 231 255
213 231 255
213 231 255
213 231 255
213 231 255
213 231 255
213 231 255
213 231 255
213 231 255
213 231 255
213 231 255
213 231 255
213 231 255
213 231 255
213 231 255
213 231 255
213 231 255
213 231 255
213 231 255
213 231 255
213 231 255
213 231 255
213 231 255
213 231 255
213 231 255
213 231 255
213 231 255
213 231 255
213 231 255
213 231 255
213 231 255
213 231 255
213 231 255
213 231 255
213 231 255
213 231 255
213 231 255
213 231 255
213 231 255
213 231 255
213 231 255
213 231 255
213 231 255
213 231 255
213 231 255
213 231 255
213 231 255
213 231 255
213 231 255
213 231 255
213 231 255
212 231 255
212 231 255
212 231 255
212 231 255
212 231 255
212 230 255
212 230 255
212 230 255
212 230 255
212 230 255
212 230 255
212 230 255
212 230 255
212 230 255
212 230 255
211 230 255
211 230 255
211 230 255
211 230 255
211 230 255
211 230 255
211 230 255
211 230 255
210 230 255
210 229 255
210 229 255
210 229 255
210 229 255
209 229 255
209 229 255
209 229 255
208 228 255
208 228 255
208 228 255
207 228 255
206 227 255
206 227 255
205 226 255
204 226 255
202 225 255
200 224 255
200 224 255
201 224 255
202 225 255
203 225 255
204 226 255
206 227 255
207 228 255
209 229 255
211 230 255
213 231 255
216 232 255
219 234 255
215 232 255
214 232 255
214 232 255
214 232 255
214 232 255
214 232 255
214 232 255
214 232 255
214 232 255
214 232 255
200 218 244
65 100 161
60 96 152
61 97 153
61 96 149
62 98 157
62 98 157
61 97 156
62 98 161
62 98 157
62 97 156
61 97 153
62 98 162
62 98 160
62 98 161
61 97 150
62 97 155
62 97 156
61 97 156
60 95 143
62 98 155
62 98 155
62 98 158
62 98 160
61 97 149
61 96 145
62 97 155
62 97 157
60 96 142
61 97 156
61 97 148
61 97 151
61 96 150
61 97 152
62 97 152
62 97 150
61 97 152
61 97 151
61 97 151
62 97 152
62 98 155
62 98 157
61 97 153
62 98 156
63 98 154
61 96 154
61 96 150
61 96 148
62 97 156
59 94 141
61 97 157
61 97 154
62 98 161
62 97 157
62 97 153
60 95 149
62 97 156
62 97 151
62 97 154
61 97 154
61 96 151
61 96 151
62 98 162
61 97 150
62 97 155
62 97 154
61 97 153
61 96 155
60 95 151
61 96 147
61 96 154
61 96 154
60 95 152
61 97 155
60 94 141
60 95 153
59 94 145
59 93 147
61 95 146
62 96 155
59 93 148
60 94 147
61 95 149
62 96 155
60 95 151
59 94 152
60 94 149
60 94 144
59 92 149
58 91 144
59 91 143
59 93 154
53 83 131
197 214 238
214 232 255
214 232 255
214 232 255
214 232 255
214 232 255
214 232 255
214 232 255
214 232 255
214 232 255
214 232 255
160 164 151
117 116 77
124 122 78
123 122 82
115 115 79
121 121 83
121 121 85
121 120 82
110 112 81
123 125 88
124 124 86
118 119 83
132 132 89
115 117 84
123 123 84
135 134 91
125 126 87
121 121 82
122 123 84
141 140 94
128 129 89
136 136 94
132 132 88
137 136 92
142 140 92
145 144 97
145 143 93
141 140 92
153 150 97
147 145 98
159 156 103
145 144 94
150 149 97
157 154 100
161 157 103
153 151 97
158 155 100
154 151 99
156 153 96
158 155 99
163 159 102
167 163 104
166 162 104
161 157 99
158 155 97
162 158 101
164 161 102
165 161 102
167 162 101
168 163 104
165 161 100
165 161 100
169 164 103
172 167 103
164 160 100
169 164 103
167 162 99
164 159 100
167 162 98
170 164 101
167 163 101
174 168 104
169 165 104
170 166 100
172 166 103
171 166 101
173 167 104
173 168 104
169 164 99
170 165 102
173 167 99
170 165 98
173 168 103
171 167 102
171 165 99
175 169 105
173 167 101
168 163 99
173 167 102
160 155 97
172 166 99
172 167 102
172 166 102
171 164 101
171 167 103
170 164 99
176 169 104
175 168 101
168 163 97
169 163 97
172 166 103
164 158 93
169 163 97
166 161 100
172 165 102
163 158 88
167 162 99
170 164 103
166 160 97
167 161 96
164 158 95
169 163 101
174 167 101
169 163 96
166 160 93
167 161 99
169 162 97
172 166 99
169 164 97
165 160 96
167 161 95
164 159 93
163 158 95
157 152 87
167 161 95
157 152 87
170 165 99
158 153 89
163 157 91
164 158 90
169 162 99
166 160 93
162 156 91
166 159 91
165 158 99
159 154 91
161 155 86
158 152 87
165 158 92
157 152 91
158 152 90
163 156 95
161 155 90
158 152 88
153 148 84
155 150 84
161 155 93
153 148 82
150 144 81
150 145 84
153 148 91
155 149 90
153 148 88
209 229 255
210 229 255
210 229 255
211 230 255
211 230 255
211 230 255
211 230 255
212 230 255
212 230 255
212 230 255
212 230 255
212 230 255
212 231 255
212 231 255
213 231 255
213 231 255
213 231 255
213 231 255
213 231 255
213 231 255
213 231 255
213 231 255
213 231 255
213 231 255
213 231 255
213 231 255
213 231 255
213 231 255
213 231 255
213 231 255
213 231 255
214 231 255
214 231 255
214 231 255
214 231 255
214 231 255
214 231 255
214 231 255
214 231 255
214 231 255
214 231 255
214 231 255
214 231 255
214 231 255
214 231 255
214 231 255
214 231 255
214 231 255
214 231 255
214 231 255
214 231 255
214 231 255
214 231 255
214 231 255
214 231 255
214 231 255
214 231 255
214 231 255
214 231 255
214 231 255
214 231 255
214 231 255
214 231 255
214 231 255
214 231 255
214 231 255
214 231 255
214 231 255
214 231 255
214 231 255
214 231 255
214 231 255
214 231 255
213 231 255
213 231 255
213 231 255
213 231 255
213 231 255
213 231 255
213 231 255
213 231 255
213 231 255
213 231 255
213 231 255
213 231 255
213 231 255
213 231 255
213 231 255
213 231 255
213 231 255
213 231 255
213 231 255
213 231 255
213 231 255
213 231 255
213 231 255
213 231 255
213 231 255
212 231 255
212 231 255
212 231 255
212 231 255
212 230 255
212 230 255
212 230 255
212 230 255
212 230 255
212 230 255
212 230 255
211 230 255
211 230 255
211 230 255
211 230 255
211 230 255
211 230 255
211 230 255
210 230 255
210 229 255
210 229 255
210 229 255
209 229 255
209 229 255
209 229 255
208 228 255
208 228 255
208 228 255
207 228 255
206 227 255
205 227 255
204 226 255
202 225 255
200 224 255
201 224 255
202 225 255
203 225 255
204 226 255
205 227 255
207 227 255
208 228 255
210 229 255
212 230 255
214 232 255
218 234 255
217 233 255
215 232 255
215 232 255
215 232 255
215 232 255
215 232 255
215 232 255
215 232 255
215 232 255
215 232 255
138 160 202
61 97 152
62 98 161
62 98 163
61 97 154
61 96 154
62 99 166
62 98 158
62 97 150
61 97 153
61 96 151
61 97 149
62 98 157
61 97 151
62 98 159
61 96 151
61 97 151
61 96 144
61 97 150
62 98 152
61 96 151
62 98 155
62 98 157
61 97 150
61 96 150
61 97 150
61 96 150
62 97 154
61 96 155
61 96 147
62 97 151
61 97 145
62 98 158
62 97 150
61 96 154
61 96 153
62 98 157
61 97 152
61 97 153
62 97 150
62 98 160
61 97 154
61 97 151
62 98 158
61 97 153
61 96 149
62 98 163
62 97 154
61 96 152
61 95 143
62 97 154
61 96 150
61 97 155
61 96 151
63 98 160
62 97 157
61 96 154
61 96 152
61 96 151
61 96 155
61 96 148
60 96 151
62 98 159
60 95 147
61 96 149
61 96 151
61 96 154
62 97 154
60 95 152
61 96 142
61 96 158
61 96 151
61 95 148
61 96 157
60 94 141
60 95 148
59 93 136
61 96 155
60 95 145
61 95 151
60 94 142
59 93 143
60 95 152
58 91 143
59 93 147
60 94 153
59 94 153
59 93 143
58 91 144
57 89 144
57 89 137
57 89 136
57 88 144
147 165 197
215 232 255
215 232 255
215 232 255
215 232 255
215 232 255
215 232 255
215 232 255
215 232 255
215 232 255
184 196 206
124 122 79
117 114 75
112 113 78
117 116 79
106 106 74
109 109 76
122 123 85
107 110 78
107 109 79
126 127 88
125 126 88
114 116 82
124 126 90
125 126 89
130 129 89
125 127 91
113 116 83
130 131 89
125 125 86
138 137 94
133 133 89
132 131 87
136 136 93
143 142 96
141 140 93
146 145 97
146 145 98
142 142 94
152 150 97
151 148 100
142 141 92
148 146 98
149 147 98
151 148 95
151 148 98
154 152 101
155 153 100
159 155 99
157 154 101
162 157 99
162 157 100
156 153 98
168 164 107
160 156 100
161 158 103
160 157 95
167 162 102
160 157 95
166 161 101
168 163 103
160 156 98
165 161 100
166 161 104
172 166 98
167 163 102
166 161 101
169 163 101
165 162 98
171 166 102
164 160 99
168 163 99
174 168 101
172 167 107
172 167 106
169 164 99
172 167 105
173 168 105
169 163 98
172 166 101
172 167 105
167 163 97
170 164 100
170 165 102
169 164 98
169 164 99
173 166 101
167 162 95
170 165 97
171 165 102
166 162 100
168 162 95
165 161 96
167 162 99
171 165 100
167 161 98
169 163 99
163 158 97
169 162 97
170 164 103
168 163 95
170 165 101
173 166 101
171 164 97
174 167 99
172 166 101
169 164 99
168 162 95
171 165 100
167 161 97
167 162 99
169 164 100
162 156 90
168 163 95
167 161 98
172 166 101
168 162 97
166 161 95
168 161 100
171 165 101
165 158 95
166 160 91
160 156 91
164 159 90
162 157 93
168 162 96
163 157 91
162 158 96
157 152 88
164 158 94
164 159 95
166 160 98
160 156 91
160 154 93
166 160 93
160 154 93
168 161 91
158 153 91
157 152 89
163 156 93
154 148 87
158 153 93
163 157 91
163 157 96
162 157 93
159 154 88
148 143 79
164 158 93
153 149 84
161 156 93
156 150 87
155 150 88
156 150 87
151 146 86
210 229 255
211 230 255
211 230 255
211 230 255
212 230 255
212 230 255
212 230 255
212 231 255
212 231 255
213 231 255
213 231 255
213 231 255
213 231 255
213 231 255
213 231 255
213 231 255
213 231 255
213 231 255
213 231 255
213 231 255
213 231 255
214 231 255
214 231 255
214 231 255
214 231 255
214 231 255
214 231 255
214 231 255
214 231 255
214 231 255
214 231 255
214 231 255
214 231 255
214 231 255
214 231 255
214 231 255
214 232 255
214 232 255
214 232 255
214 232 255
214 232 255
214 232 255
214 232 255
214 232 255
214 232 255
214 232 255
214 232 255
214 232 255
214 232 255
214 232 255
214 232 255
214 232 255
214 232 255
214 232 255
214 232 255
214 232 255
214 232 255
214 232 255
214 232 255
214 232 255
214 232 255
214 232 255
214 232 255
214 232 255
214 232 255
214 232 255
214 232 255
214 232 255
214 232 255
214 231 255
214 231 255
214 231 255
214 231 255
214 231 255
214 231 255
214 231 255
214 231 255
214 231 255
214 231 255
214 231 255
214 231 255
214 231 255
214 231 255
214 231 255
214 231 255
214 231 255
214 231 255
213 231 255
213 231 255
213 231 255
213 231 255
213 231 255
213 231 255
213 231 255
213 231 255
213 231 255
213 231 255
213 231 255
213 231 255
213 231 255
213 231 255
213 231 255
213 231 255
213 231 255
213 231 255
212 231 255
212 231 255
212 231 255
212 230 255
212 230 255
212 230 255
212 230 255
212 230 255
212 230 255
211 230 255
211 230 255
211 230 255
211 230 255
211 230 255
210 230 255
210 229 255
210 229 255
210 229 255
209 229 255
209 229 255
209 229 255
208 228 255
207 228 255
207 227 255
206 227 255
205 226 255
202 225 255
201 225 255
202 225 255
203 226 255
204 226 255
205 227 255
206 227 255
208 228 255
209 229 255
211 230 255
213 231 255
216 232 255
219 234 255
215 232 255
215 232 255
215 232 255
215 232 255
215 232 255
215 232 255
215 232 255
215 232 255
197 215 242
77 108 163
61 97 157
62 98 164
62 98 153
63 99 165
62 98 157
62 98 155
61 97 151
62 97 153
61 96 145
61 97 153
61 97 152
61 96 149
61 97 151
61 96 144
61 96 147
61 97 154
61 97 152
61 97 157
61 97 150
60 96 149
61 97 151
61 96 151
62 98 161
61 97 152
62 97 152
62 98 156
62 97 148
60 96 145
61 97 149
61 97 155
60 96 149
62 97 153
62 97 154
62 98 155
61 97 148
61 97 155
61 97 147
61 97 154
59 95 144
61 96 149
62 98 159
61 97 150
61 96 152
61 97 150
62 97 151
63 99 163
60 95 147
61 97 147
61 96 148
62 98 156
61 96 147
59 94 139
62 98 160
62 97 151
62 98 156
61 96 154
61 96 149
61 97 156
62 97 153
61 95 144
61 97 154
61 97 156
61 97 160
60 95 149
60 95 148
61 95 140
61 96 152
62 97 151
61 96 153
60 96 147
60 95 146
61 96 154
61 97 158
61 96 151
61 96 158
61 95 146
61 95 149
60 95 150
59 92 143
59 94 148
60 94 151
58 92 143
60 94 154
60 94 143
58 90 137
58 91 141
59 93 142
58 91 138
57 88 135
58 91 149
56 88 140
57 87 135
53 82 135
201 218 243
215 232 255
215 232 255
215 232 255
215 232 255
215 232 255
215 232 255
215 232 255
214 231 253
138 140 117
112 112 74
111 110 75
112 112 75
119 121 86
113 113 78
118 119 82
104 106 75
113 114 79
104 106 76
117 118 83
111 113 80
122 123 85
131 131 90
130 130 91
134 133 89
129 129 89
134 134 92
132 132 90
123 123 84
134 134 91
142 139 92
131 132 88
131 130 87
137 136 92
140 138 91
145 143 94
146 145 97
148 147 96
148 147 96
150 148 97
153 150 97
147 146 95
155 152 99
151 148 96
157 155 101
155 153 99
162 158 101
164 159 101
158 154 99
157 154 97
162 159 98
161 158 102
167 163 105
166 162 100
164 160 102
157 153 95
163 160 103
163 159 101
164 159 98
164 160 97
167 162 102
170 164 101
169 164 101
166 160 99
167 162 103
170 164 105
171 166 105
168 163 101
167 163 103
173 168 105
170 164 102
171 165 98
170 164 99
174 168 105
170 165 101
176 171 109
170 165 101
168 163 98
169 164 102
175 169 104
170 163 99
172 167 102
170 164 101
173 167 102
175 168 103
171 165 101
169 164 99
171 166 100
172 166 98
171 165 102
177 171 107
172 165 100
168 163 99
171 166 99
171 165 99
170 164 99
175 168 102
164 159 95
170 165 99
171 166 101
171 166 101
167 162 97
170 164 96
171 165 99
170 165 99
166 161 94
165 159 96
170 164 101
169 164 99
170 165 101
169 163 96
166 160 95
173 167 101
167 162 95
171 165 100
164 159 95
168 162 96
166 160 92
168 163 99
168 163 97
163 157 95
163 157 95
166 159 95
166 159 93
164 158 92
161 156 91
168 162 97
164 158 93
164 159 93
163 158 93
167 160 97
157 152 85
156 151 86
158 153 87
162 157 90
162 156 93
166 160 89
154 149 87
153 148 80
156 151 87
161 155 88
170 164 99
157 152 87
155 151 91
156 150 84
157 152 87
163 157 91
159 153 91
158 153 89
160 155 93
159 153 92
154 148 84
162 155 90
211 230 255
212 230 255
212 230 255
212 230 255
212 231 255
212 231 255
213 231 255
213 231 255
213 231 255
213 231 255
213 231 255
213 231 255
213 231 255
213 231 255
214 231 255
214 231 255
214 231 255
214 231 255
214 231 255
214 231 255
214 231 255
214 231 255
214 231 255
214 232 255
214 232 255
214 232 255
214 232 255
214 232 255
214 232 255
214 232 255
214 232 255
214 232 255
214 232 255
214 232 255
214 232 255
214 232 255
214 232 255
214 232 255
214 232 255
214 232 255
214 232 255
214 232 255
214 232 255
215 232 255
215 232 255
215 232 255
215 232 255
215 232 255
215 232 255
215 232 255
215 232 255
215 232 255
215 232 255
215 232 255
215 232 255
215 232 255
215 232 255
214 232 255
215 232 255
214 232 255
214 232 255
214 232 255
214 232 255
214 232 255
214 232 255
214 232 255
214 232 255
214 232 255
214 232 255
214 232 255
214 232 255
214 232 255
214 232 255
214 232 255
214 232 255
214 232 255
214 232 255
214 232 255
214 232 255
214 232 255
214 232 255
214 232 255
214 232 255
214 232 255
214 231 255
214 231 255
214 231 255
214 231 255
214 231 255
214 231 255
214 231 255
214 231 255
214 231 255
214 231 255
214 231 255
214 231 255
214 231 255
213 231 255
213 231 255
213 231 255
213 231 255
213 231 255
213 231 255
213 231 255
213 231 255
213 231 255
213 231 255
213 231 255
213 231 255
213 231 255
212 231 255
212 231 255
212 231 255
212 230 255
212 230 255
212 230 255
212 230 255
212 230 255
211 230 255
211 230 255
211 230 255
211 230 255
211 230 255
210 229 255
210 229 255
209 229 255
209 229 255
209 228 255
208 228 255
207 228 255
206 227 255
205 226 255
202 225 255
203 225 255
203 226 255
204 226 255
205 227 255
206 227 255
208 228 255
209 229 255
211 230 255
212 231 255
215 232 255
218 234 255
218 234 255
215 232 255
215 232 255
215 232 255
215 232 255
215 232 255
215 232 255
215 232 255
141 162 199
61 97 154
62 97 156
61 97 149
62 97 155
62 98 157
61 96 147
61 97 152
62 98 159
61 97 151
61 97 152
62 98 157
61 97 153
61 97 153
62 97 154
61 97 150
62 98 158
60 96 149
61 97 152
62 97 162
60 96 151
61 97 155
61 97 158
61 97 150
61 96 144
61 96 149
63 98 157
61 97 153
60 96 153
61 97 151
62 98 161
61 97 157
61 97 153
60 96 148
61 97 152
61 96 145
62 98 162
61 96 148
60 95 143
61 96 143
61 96 145
60 95 142
61 96 150
62 97 155
61 96 149
61 97 152
61 96 149
61 96 147
62 97 151
62 97 152
62 97 151
61 96 149
60 95 152
61 96 150
61 96 148
60 95 144
62 97 153
61 96 148
60 95 142
62 97 152
61 96 149
61 95 144
61 96 155
61 96 143
62 97 152
61 97 150
62 97 159
61 96 150
61 95 147
60 95 153
61 97 152
60 94 144
62 97 156
61 95 148
61 97 155
60 95 150
61 96 152
61 96 147
59 94 143
59 93 138
59 92 138
60 94 145
60 94 147
59 93 151
59 93 144
60 95 145
60 94 153
59 93 146
60 94 150
60 93 148
58 91 143
58 91 138
57 88 143
56 89 147
55 85 131
165 181 208
215 232 255
215 232 255
215 232 255
215 232 255
215 232 255
215 232 255
215 232 255
183 193 199
112 110 73
112 111 74
110 110 75
105 106 73
110 111 78
121 121 83
112 113 78
111 113 79
113 114 79
108 110 78
114 115 81
105 108 76
123 125 86
122 124 87
118 120 84
122 122 83
131 131 91
143 142 94
120 121 83
127 128 89
120 122 84
136 135 88
140 140 94
133 132 89
135 135 91
136 135 87
141 140 94
147 146 94
146 144 95
157 154 98
152 149 97
148 146 93
147 146 97
154 151 97
159 155 98
154 151 96
155 152 95
155 152 98
150 148 92
153 151 96
150 148 93
157 155 101
160 155 98
161 157 97
166 162 100
158 155 95
164 160 98
162 159 98
164 161 101
169 165 102
169 164 101
167 162 103
173 168 105
170 164 105
169 164 104
167 162 100
170 164 102
169 164 98
174 168 102
166 161 100
166 161 98
172 166 102
171 166 101
171 165 97
177 170 102
168 163 99
170 164 102
168 164 93
172 167 102
176 170 108
175 169 101
178 171 107
172 167 102
170 164 99
175 169 102
173 167 101
172 166 98
176 169 102
173 168 96
172 166 97
174 168 103
171 165 101
174 168 98
166 161 96
169 163 95
169 164 101
173 168 100
170 164 100
171 165 97
174 168 104
172 166 99
165 160 92
172 165 99
171 165 99
174 167 103
172 166 99
169 163 99
171 165 100
172 166 103
171 165 99
165 160 96
170 164 100
169 162 95
169 164 99
169 162 98
169 162 100
167 162 95
172 166 97
167 161 96
170 164 97
166 160 93
162 157 92
169 163 101
161 156 91
166 160 96
169 163 95
163 157 93
166 160 90
167 162 98
164 158 92
158 153 87
163 156 93
166 160 93
161 155 89
160 154 93
161 155 87
157 151 86
163 157 94
164 158 95
160 155 89
162 157 89
158 154 86
160 155 87
157 152 86
161 156 84
154 149 83
159 155 88
163 156 91
157 151 89
157 152 85
157 151 87
163 156 93
155 149 87
157 152 84
212 230 255
212 230 255
212 231 255
213 231 255
213 231 255
213 231 255
213 231 255
213 231 255
213 231 255
214 231 255
214 231 255
214 231 255
214 231 255
214 231 255
214 231 255
214 232 255
214 232 255
214 232 255
214 232 255
214 232 255
214 232 255
214 232 255
214 232 255
214 232 255
215 232 255
215 232 255
215 232 255
215 232 255
215 232 255
215 232 255
215 232 255
215 232 255
215 232 255
215 232 255
215 232 255
215 232 255
215 232 255
215 232 255
215 232 255
215 232 255
215 232 255
215 232 255
215 232 255
215 232 255
215 232 255
215 232 255
215 232 255
215 232 255
215 232 255
215 232 255
215 232 255
215 232 255
215 232 255
215 232 255
215 232 255
215 232 255
215 232 255
215 232 255
215 232 255
215 232 255
215 232 255
215 232 255
215 232 255
215 232 255
215 232 255
215 232 255
215 232 255
215 232 255
215 232 255
215 232 255
215 232 255
215 232 255
215 232 255
215 232 255
215 232 255
215 232 255
215 232 255
215 232 255
215 232 255
215 232 255
215 232 255
214 232 255
214 232 255
214 232 255
214 232 255
214 232 255
214 232 255
214 232 255
214 232 255
214 232 255
214 232 255
214 232 255
214 232 255
214 232 255
214 232 255
214 232 255
214 231 255
214 231 255
214 231 255
214 231 255
214 231 255
214 231 255
214 231 255
214 231 255
213 231 255
213 231 255
213 231 255
213 231 255
213 231 255
213 231 255
213 231 255
213 231 255
213 231 255
213 231 255
213 231 255
212 231 255
212 231 255
212 230 255
212 230 255
212 230 255
212 230 255
211 230 255
211 230 255
211 230 255
211 230 255
210 229 255
210 229 255
210 229 255
209 229 255
208 228 255
208 228 255
206 227 255
205 226 255
203 226 255
204 226 255
205 226 255
205 227 255
207 227 255
208 228 255
209 229 255
210 229 255
212 230 255
214 231 255
216 233 255
219 234 255
216 232 255
216 232 255
216 232 255
216 232 255
216 232 255
215 232 255
215 231 255
85 114 164
61 97 159
63 99 161
63 99 163
60 96 143
61 97 150
61 97 148
62 97 145
62 97 154
62 98 160
62 97 151
62 97 155
62 97 157
62 98 154
61 97 151
62 97 151
61 96 148
62 97 150
62 97 153
62 98 156
61 97 156
61 96 153
61 97 154
61 96 147
62 98 158
62 97 152
60 95 140
61 96 151
61 97 151
62 97 149
61 96 149
61 97 150
61 96 149
62 97 151
61 96 145
62 98 157
61 96 149
61 97 151
61 97 147
61 96 151
61 96 144
61 97 152
60 95 150
60 96 148
60 95 139
62 98 155
62 97 155
60 95 141
62 97 157
61 97 154
62 97 155
60 95 144
61 96 142
61 97 154
61 96 144
61 96 153
61 95 150
61 96 154
61 97 148
62 97 153
61 96 144
62 97 155
61 96 149
61 96 146
62 97 149
61 95 146
60 95 141
61 96 153
61 96 143
61 96 155
59 94 146
61 96 148
60 95 143
61 96 151
61 96 149
59 92 143
59 94 143
60 94 148
59 92 134
58 92 138
61 96 152
59 93 137
59 93 142
60 94 148
60 93 143
59 92 149
60 94 151
59 92 138
58 91 141
59 93 151
57 88 136
59 93 148
56 87 135
53 83 123
56 86 135
85 107 145
213 230 254
215 232 255
215 232 255
216 232 255
216 232 255
216 232 255
214 231 253
135 137 115
127 124 79
113 112 77
106 107 74
104 106 76
112 111 76
109 111 79
107 108 75
108 111 79
112 114 80
99 103 74
94 97 69
116 118 83
123 124 86
123 123 85
122 123 87
127 128 86
122 123 83
124 125 87
134 134 90
134 133 89
141 140 93
142 141 94
135 135 92
144 143 95
137 136 89
146 144 92
134 134 89
144 143 92
148 145 94
143 140 92
146 144 90
156 153 100
149 147 96
151 149 92
150 148 94
156 154 100
157 154 93
148 146 94
158 155 96
162 159 101
167 162 104
165 160 100
157 154 99
165 160 100
164 160 102
162 158 94
163 159 98
165 161 105
161 158 99
164 160 100
169 164 104
166 161 99
170 164 98
167 163 99
174 168 104
168 162 102
171 166 101
172 167 105
173 168 104
170 165 99
171 165 97
170 166 103
172 167 101
170 165 99
166 161 96
172 167 102
170 166 103
173 168 102
167 162 94
173 168 103
172 166 98
169 165 101
172 166 101
174 168 103
170 165 98
174 168 99
173 167 100
171 165 99
169 163 98
172 166 99
170 165 97
174 168 99
177 170 100
172 165 98
170 164 101
170 164 97
173 167 101
167 162 97
173 167 99
169 162 95
170 164 97
171 165 99
169 163 99
168 162 98
170 163 97
169 163 96
167 160 94
171 165 99
173 166 97
168 162 99
167 160 93
169 163 98
171 166 98
168 163 95
174 167 102
169 162 95
165 160 95
167 160 97
168 162 95
164 158 96
170 164 92
169 163 97
168 162 97
169 163 95
173 166 101
165 160 94
165 159 93
167 160 94
163 158 94
164 158 93
162 157 90
169 162 99
166 158 93
159 154 88
163 157 93
164 157 92
157 151 90
165 159 91
165 159 94
161 155 91
157 152 84
164 158 94
161 156 94
158 152 90
160 154 82
161 156 86
160 154 91
159 153 87
156 151 85
155 149 83
158 152 91
156 151 84
161 155 90
160 155 88
213 231 255
213 231 255
213 231 255
213 231 255
213 231 255
214 231 255
214 231 255
214 231 255
214 231 255
214 232 255
214 232 255
214 232 255
214 232 255
214 232 255
214 232 255
215 232 255
215 232 255
215 232 255
215 232 255
215 232 255
215 232 255
215 232 255
215 232 255
215 232 255
215 232 255
215 232 255
215 232 255
215 232 255
215 232 255
215 232 255
215 232 255
215 232 255
215 232 255
215 232 255
215 232 255
215 232 255
215 232 255
215 232 255
215 232 255
215 232 255
215 232 255
215 232 255
215 232 255
215 232 255
215 232 255
215 232 255
215 232 255
215 232 255
215 232 255
215 232 255
215 232 255
215 232 255
215 232 255
215 232 255
215 232 255
215 232 255
215 232 255
215 232 255
215 232 255
215 232 255
215 232 255
215 232 255
215 232 255
215 232 255
215 232 255
215 232 255
215 232 255
215 232 255
215 232 255
215 232 255
215 232 255
215 232 255
215 232 255
215 232 255
215 232 255
215 232 255
215 232 255
215 232 255
215 232 255
215 232 255
215 232 255
215 232 255
215 232 255
215 232 255
215 232 255
215 232 255
215 232 255
215 232 255
215 232 255
215 232 255
215 232 255
215 232 255
215 232 255
214 232 255
214 232 255
214 232 255
214 232 255
214 232 255
214 232 255
214 232 255
214 232 255
214 232 255
214 232 255
214 232 255
214 231 255
214 231 255
214 231 255
214 231 255
214 231 255
214 231 255
214 231 255
213 231 255
213 231 255
213 231 255
213 231 255
213 231 255
213 231 255
213 231 255
213 231 255
212 231 255
212 231 255
212 230 255
212 230 255
212 230 255
211 230 255
211 230 255
211 230 255
210 229 255
210 229 255
209 229 255
209 229 255
208 228 255
207 228 255
205 226 255
204 226 255
205 227 255
206 227 255
207 228 255
208 228 255
209 229 255
210 229 255
212 230 255
213 231 255
215 232 255
218 234 255
218 233 255
216 233 255
216 233 255
216 233 255
216 232 255
216 232 255
179 197 226
61 97 154
62 97 154
61 97 150
60 96 147
61 96 149
61 96 147
61 96 154
62 97 151
60 96 142
61 96 145
62 97 153
61 96 148
61 96 145
61 97 152
62 97 159
60 95 134
61 96 149
61 96 147
62 98 152
62 97 150
60 95 145
62 98 158
61 96 148
61 97 154
60 96 142
61 97 152
61 96 148
62 97 154
62 98 160
61 96 150
60 95 141
62 97 153
61 96 149
61 96 148
62 97 153
60 96 139
62 97 147
62 98 153
61 97 153
61 96 148
62 97 156
62 98 156
62 98 152
60 95 135
61 96 152
61 97 150
62 97 148
61 97 145
63 99 155
61 97 150
61 97 145
61 96 147
62 97 149
61 96 145
61 96 144
59 94 140
61 97 148
61 96 141
60 96 148
61 96 150
61 97 149
63 98 161
61 96 142
62 97 154
60 95 137
61 95 143
62 98 155
61 95 147
60 95 147
60 95 146
62 97 153
60 95 148
60 95 144
61 96 153
59 94 147
61 95 151
60 94 140
61 96 148
61 96 150
59 93 141
60 95 150
58 91 136
60 94 151
60 94 146
61 94 149
60 94 140
59 93 142
58 89 128
58 91 143
59 92 148
58 90 136
55 86 131
57 88 134
55 85 126
55 85 132
54 83 127
179 195 218
216 232 255
216 232 255
216 233 255
216 233 255
216 233 255
188 201 216
109 108 71
113 113 77
101 103 73
101 102 72
94 97 70
95 97 69
106 108 76
112 112 78
110 111 78
100 103 72
98 101 73
105 109 79
102 105 75
126 126 86
112 114 79
118 120 81
131 131 88
122 123 85
124 125 84
114 115 78
124 125 85
123 124 84
135 135 90
136 136 90
142 142 94
144 142 90
135 134 88
148 146 95
143 142 92
137 136 88
150 147 96
144 143 93
151 148 93
154 150 96
145 142 93
157 153 99
152 149 94
160 156 97
164 159 99
153 150 94
158 155 98
162 158 99
163 159 100
159 155 98
161 158 96
166 162 101
162 158 99
163 159 100
164 160 95
166 162 99
164 159 97
164 159 94
164 159 98
167 163 101
167 162 101
169 164 100
165 161 100
171 165 100
169 164 101
173 167 100
164 159 95
175 168 101
168 164 100
169 163 96
175 168 103
168 163 99
166 161 96
175 168 98
170 164 98
170 165 97
174 168 99
172 166 101
173 167 98
170 165 99
171 166 100
175 169 99
171 166 97
173 167 100
174 167 103
172 166 97
173 167 99
168 162 98
169 163 94
172 166 98
177 170 104
168 162 95
175 167 97
175 168 95
172 166 103
176 169 103
167 162 93
171 166 98
168 163 97
175 169 103
173 166 97
169 163 91
174 168 98
168 163 93
169 163 99
174 167 98
169 163 93
165 159 84
169 163 92
167 162 95
167 161 94
166 161 91
170 163 97
170 164 95
172 166 99
165 160 92
166 161 97
161 156 92
169 162 94
167 161 95
167 161 93
168 162 92
165 159 94
162 156 95
165 159 93
163 157 89
167 161 96
161 156 90
165 159 91
164 158 92
167 160 89
163 158 88
162 157 90
159 154 86
165 158 92
165 160 87
163 158 91
161 156 90
155 150 86
163 157 87
158 152 87
160 153 89
154 149 86
166 159 92
164 158 89
159 154 87
157 151 87
155 149 84
163 156 93
156 151 89
149 144 77
213 231 255
213 231 255
214 231 255
214 231 255
214 231 255
214 232 255
214 232 255
214 232 255
214 232 255
215 232 255
215 232 255
215 232 255
215 232 255
215 232 255
215 232 255
215 232 255
215 232 255
215 232 255
215 232 255
215 232 255
215 232 255
215 232 255
215 232 255
215 232 255
215 232 255
215 232 255
215 232 255
215 232 255
215 232 255
215 232 255
215 232 255
216 232 255
216 232 255
216 232 255
216 232 255
216 232 255
216 232 255
216 232 255
216 232 255
216 232 255
216 232 255
216 232 255
216 232 255
216 232 255
216 232 255
216 232 255
216 232 255
216 232 255
216 232 255
216 232 255
216 232 255
216 232 255
216 232 255
216 232 255
216 232 255
216 232 255
216 232 255
216 232 255
216 232 255
216 232 255
216 232 255
216 232 255
216 232 255
216 232 255
216 232 255
216 232 255
216 232 255
216 232 255
216 232 255
215 232 255
215 232 255
215 232 255
215 232 255
215 232 255
215 232 255
215 232 255
215 232 255
215 232 255
215 232 255
215 232 255
215 232 255
215 232 255
215 232 255
215 232 255
215 232 255
215 232 255
215 232 255
215 232 255
215 232 255
215 232 255
215 232 255
215 232 255
215 232 255
215 232 255
215 232 255
215 232 255
215 232 255
215 232 255
215 232 255
215 232 255
215 232 255
215 232 255
215 232 255
214 232 255
214 232 255
214 232 255
214 232 255
214 232 255
214 232 255
214 232 255
214 231 255
214 231 255
214 231 255
214 231 255
214 231 255
214 231 255
213 231 255
213 231 255
213 231 255
213 231 255
213 231 255
213 231 255
213 231 255
212 231 255
212 230 255
212 230 255
212 230 255
211 230 255
211 230 255
210 229 255
210 229 255
209 229 255
208 228 255
207 228 255
205 227 255
205 227 255
206 227 255
207 228 255
208 228 255
209 229 255
210 229 255
212 230 255
213 231 255
215 232 255
217 233 255
220 235 255
216 233 255
216 233 255
216 233 255
216 233 255
216 233 255
133 155 195
62 98 154
61 97 151
62 97 154
61 96 151
61 96 149
61 96 147
62 97 150
62 97 157
61 96 148
61 97 154
61 97 153
60 95 139
62 97 151
61 97 152
61 97 152
61 96 154
62 97 153
61 97 149
60 95 144
62 97 153
60 96 148
62 97 150
61 97 147
61 97 143
62 98 154
62 97 157
61 97 155
61 97 149
61 97 144
61 97 147
60 95 147
62 97 155
62 98 151
61 96 145
61 96 142
61 96 144
61 97 154
62 97 152
62 97 151
61 96 145
61 97 148
61 96 147
61 97 152
60 95 147
61 96 143
60 96 143
62 98 155
61 97 150
60 96 144
61 97 145
62 98 157
61 95 144
61 96 142
62 97 152
60 95 148
61 96 141
61 95 148
61 96 150
60 94 139
61 96 149
62 97 154
61 96 145
60 95 137
60 95 148
62 98 156
61 96 148
60 94 146
61 96 145
61 97 157
60 94 142
60 96 148
60 94 145
61 95 145
61 97 155
60 94 144
57 91 126
60 94 142
58 92 133
60 94 149
62 97 151
61 95 153
61 95 152
60 94 147
59 93 142
59 93 145
60 94 154
58 91 144
58 91 132
59 92 144
58 90 140
58 89 133
58 90 135
57 88 134
55 86 134
56 87 134
53 81 122
130 149 181
216 233 255
216 233 255
216 233 255
216 233 255
216 233 255
136 139 127
105 104 66
103 102 67
103 103 71
102 101 68
99 101 71
103 104 73
98 101 73
105 108 78
101 103 72
89 92 65
111 112 77
116 117 79
107 110 80
108 110 76
123 123 84
124 126 83
117 119 85
131 131 89
129 130 89
132 131 89
132 133 89
125 126 85
134 133 89
131 131 90
125 126 85
139 137 88
145 143 96
147 144 93
134 134 87
147 145 92
152 149 96
150 147 94
149 147 96
156 153 95
157 153 97
162 157 99
152 149 93
152 149 93
162 158 99
159 155 98
159 155 94
161 158 101
161 157 99
159 154 95
159 156 97
160 155 97
156 153 93
163 158 98
165 161 97
163 160 99
161 157 96
161 157 95
167 161 98
167 162 101
168 164 98
165 160 96
166 161 97
171 166 103
169 164 99
168 163 94
169 163 96
170 165 101
174 167 103
168 162 93
167 162 99
170 164 95
171 165 95
172 167 100
168 163 97
175 169 101
176 169 103
167 162 93
169 164 95
170 164 97
174 168 100
172 166 98
172 166 98
170 164 97
172 167 98
177 169 103
174 167 99
174 167 97
173 167 101
172 166 98
171 165 97
174 168 97
173 167 99
172 165 98
169 163 98
175 167 99
174 167 97
174 167 98
168 162 90
168 162 92
176 169 99
165 160 91
172 165 96
170 163 95
167 161 93
171 164 95
170 164 97
169 162 95
168 163 95
159 154 84
166 160 95
169 163 95
173 166 97
172 166 97
169 162 97
168 161 95
172 165 100
168 162 96
164 158 88
162 158 91
166 160 96
169 162 95
167 161 95
163 158 95
161 156 92
159 153 83
170 164 95
163 157 84
159 154 88
168 162 97
163 157 90
163 157 93
157 152 89
164 158 90
165 158 91
166 160 87
161 155 89
168 163 96
160 154 90
159 153 88
164 158 90
165 159 90
161 156 86
157 150 87
153 148 81
160 154 86
161 155 90
164 157 90
153 148 79
161 155 91
162 156 93
214 231 255
214 232 255
214 232 255
214 232 255
214 232 255
215 232 255
215 232 255
215 232 255
215 232 255
215 232 255
215 232 255
215 232 255
215 232 255
215 232 255
215 232 255
215 232 255
215 232 255
215 232 255
215 232 255
216 232 255
216 232 255
216 232 255
216 232 255
216 232 255
216 232 255
216 232 255
216 232 255
216 232 255
216 232 255
216 232 255
216 233 255
216 233 255
216 233 255
216 233 255
216 233 255
216 233 255
216 233 255
216 233 255
216 233 255
216 233 255
216 233 255
216 233 255
216 233 255
216 233 255
216 233 255
216 233 255
216 233 255
216 233 255
216 233 255
216 233 255
216 233 255
216 233 255
216 233 255
216 233 255
216 233 255
216 233 255
216 233 255
216 233 255
216 233 255
216 233 255
216 233 255
216 233 255
216 233 255
216 233 255
216 233 255
216 233 255
216 233 255
216 233 255
216 233 255
216 233 255
216 233 255
216 232 255
216 233 255
216 232 255
216 232 255
216 232 255
216 232 255
216 232 255
216 232 255
216 232 255
216 232 255
216 232 255
216 232 255
216 232 255
216 232 255
216 232 255
216 232 255
215 232 255
215 232 255
215 232 255
215 232 255
215 232 255
215 232 255
215 232 255
215 232 255
215 232 255
215 232 255
215 232 255
215 232 255
215 232 255
215 232 255
215 232 255
215 232 255
215 232 255
215 232 255
215 232 255
215 232 255
215 232 255
215 232 255
215 232 255
214 232 255
214 232 255
214 232 255
214 232 255
214 232 255
214 232 255
214 231 255
214 231 255
214 231 255
214 231 255
213 231 255
213 231 255
213 231 255
213 231 255
213 231 255
213 231 255
212 231 255
212 230 255
212 230 255
211 230 255
211 230 255
210 229 255
210 229 255
209 229 255
207 228 255
206 227 255
207 227 255
207 228 255
208 228 255
209 229 255
210 229 255
211 230 255
213 231 255
214 232 255
216 233 255
219 234 255
217 233 255
216 233 255
216 233 255
216 233 255
212 229 252
74 106 158
61 97 156
61 97 155
61 97 154
61 97 151
61 97 150
62 98 162
60 96 144
61 97 145
60 96 142
61 96 149
61 96 152
61 96 145
62 98 154
61 96 145
62 98 161
61 96 148
61 97 159
61 97 152
61 96 150
62 97 150
62 97 152
60 96 148
60 96 150
60 96 141
61 96 151
61 97 151
60 95 140
59 94 136
61 97 144
62 97 152
61 96 144
61 97 147
60 96 143
61 96 153
61 96 145
62 98 153
61 96 147
60 96 143
60 95 137
61 97 145
61 97 150
62 98 155
61 96 145
62 97 153
60 95 147
61 96 136
61 95 140
62 98 154
61 96 149
62 97 155
62 97 151
61 97 151
60 95 141
61 96 141
59 93 135
60 95 148
61 96 148
61 96 149
60 95 145
62 97 154
60 95 148
59 94 137
61 95 143
60 95 147
60 95 140
61 96 151
59 95 140
61 96 145
60 94 133
60 95 140
62 97 152
62 96 149
60 94 144
59 93 145
61 96 147
60 94 146
61 95 151
59 93 138
60 95 147
58 91 138
61 95 152
60 95 152
61 95 150
59 93 150
59 92 133
59 92 145
58 91 131
59 93 139
59 92 144
58 91 140
57 88 127
55 85 127
58 91 145
56 87 126
54 83 124
55 85 132
64 90 133
209 225 247
216 233 255
216 233 255
216 233 255
206 220 238
117 114 69
98 97 64
108 108 71
97 98 67
90 91 63
109 109 75
107 108 77
90 93 69
97 100 70
93 96 67
106 109 76
91 96 70
100 102 70
105 107 72
104 107 76
103 106 75
113 116 81
125 126 87
120 121 82
124 125 86
128 128 85
128 129 87
130 130 87
139 138 89
133 133 80
128 128 83
129 130 86
132 131 84
140 139 88
139 138 90
140 139 93
148 147 93
159 154 97
149 147 91
146 144 92
146 144 93
149 147 92
161 157 100
158 154 99
156 152 93
154 151 92
160 157 99
156 153 94
159 156 94
159 155 95
162 158 99
165 160 97
163 158 97
167 162 100
162 157 94
165 161 98
173 167 101
165 160 97
165 160 99
164 159 94
168 163 99
162 158 97
174 168 103
170 164 98
171 165 96
170 164 99
170 163 97
172 166 101
171 166 93
170 164 100
171 166 96
171 166 98
171 166 103
169 164 100
173 167 99
172 166 97
171 166 100
174 169 99
170 164 99
175 168 104
170 165 97
174 168 104
173 167 98
170 163 92
169 164 97
172 166 97
173 167 99
173 167 102
170 165 99
173 168 102
167 161 96
172 166 97
167 162 90
173 167 101
174 167 95
170 165 100
172 165 98
169 163 91
170 165 97
169 163 95
178 171 101
171 165 97
167 160 89
163 158 93
176 168 99
172 166 101
170 164 94
170 164 99
165 159 95
166 159 88
166 160 93
172 166 94
167 160 98
169 162 89
165 159 88
168 161 95
167 161 93
168 162 94
159 155 84
161 155 91
166 160 95
165 159 93
162 157 88
162 157 84
166 160 95
169 163 95
163 157 86
162 156 91
165 159 90
163 158 90
157 152 87
173 165 102
159 154 87
165 158 92
160 155 90
167 161 95
160 153 90
160 154 85
164 158 90
154 149 83
157 151 85
161 155 87
167 160 93
161 154 86
153 147 85
163 156 88
159 154 87
164 159 90
162 156 87
155 149 84
163 156 84
214 232 255
215 232 255
215 232 255
215 232 255
215 232 255
215 232 255
215 232 255
215 232 255
215 232 255
215 232 255
216 232 255
216 232 255
216 232 255
216 232 255
216 232 255
216 232 255
216 232 255
216 233 255
216 233 255
216 233 255
216 233 255
216 233 255
216 233 255
216 233 255
216 233 255
216 233 255
216 233 255
216 233 255
216 233 255
216 233 255
216 233 255
216 233 255
216 233 255
216 233 255
216 233 255
216 233 255
216 233 255
216 233 255
216 233 255
216 233 255
216 233 255
216 233 255
216 233 255
216 233 255
216 233 255
216 233 255
216 233 255
216 233 255
216 233 255
216 233 255
216 233 255
216 233 255
216 233 255
216 233 255
216 233 255
216 233 255
216 233 255
216 233 255
216 233 255
216 233 255
216 233 255
216 233 255
216 233 255
216 233 255
216 233 255
216 233 255
216 233 255
216 233 255
216 233 255
216 233 255
216 233 255
216 233 255
216 233 255
216 233 255
216 233 255
216 233 255
216 233 255
216 233 255
216 233 255
216 233 255
216 233 255
216 233 255
216 233 255
216 233 255
216 233 255
216 233 255
216 233 255
216 233 255
216 233 255
216 233 255
216 232 255
216 232 255
216 232 255
216 232 255
216 232 255
216 232 255
216 232 255
216 232 255
216 232 255
216 232 255
215 232 255
215 232 255
215 232 255
215 232 255
215 232 255
215 232 255
215 232 255
215 232 255
215 232 255
215 232 255
215 232 255
215 232 255
215 232 255
215 232 255
215 232 255
215 232 255
214 232 255
214 232 255
214 232 255
214 232 255
214 232 255
214 231 255
214 231 255
214 231 255
213 231 255
213 231 255
213 231 255
213 231 255
212 231 255
212 230 255
212 230 255
211 230 255
211 230 255
210 229 255
209 229 255
207 228 255
207 228 255
208 228 255
209 229 255
210 229 255
211 230 255
212 230 255
213 231 255
214 232 255
216 233 255
218 234 255
219 234 255
217 233 255
217 233 255
217 233 255
182 200 229
62 97 154
61 96 153
61 96 152
61 96 153
61 97 148
62 98 160
59 95 140
60 96 148
61 97 152
60 96 143
62 97 145
61 96 149
61 96 147
61 96 145
61 97 152
62 97 148
61 96 148
63 98 156
61 97 148
62 98 157
61 97 150
61 96 143
61 96 147
60 95 145
62 98 161
60 95 145
61 96 148
60 95 144
62 97 149
61 96 147
61 96 144
61 96 145
61 96 145
62 97 150
62 97 152
59 94 131
61 97 151
61 97 147
61 96 143
61 97 149
60 96 145
61 96 151
61 96 149
60 95 142
61 97 152
60 95 141
62 97 152
61 97 155
61 97 151
61 96 147
61 96 144
61 96 142
63 99 162
60 95 148
62 97 151
61 96 148
60 95 141
61 96 147
61 96 143
61 96 146
61 96 149
62 97 148
60 95 142
60 95 142
60 95 140
61 95 140
61 95 142
61 96 145
61 95 154
59 93 140
62 98 154
60 95 145
59 94 142
61 97 152
59 94 141
60 95 147
60 94 146
61 96 145
61 95 150
61 95 138
60 95 147
60 94 150
59 93 146
59 93 135
59 92 141
59 92 142
60 93 144
57 90 136
61 95 151
59 93 141
58 90 141
58 90 139
58 90 136
55 86 127
58 90 140
56 87 138
55 86 133
53 81 125
179 194 216
217 233 255
217 233 255
217 233 255
159 167 170
118 116 77
96 96 65
109 109 73
93 92 63
97 98 67
89 93 67
88 92 67
95 99 71
95 98 70
90 93 66
96 100 71
94 98 72
95 98 70
103 104 71
105 108 75
114 115 79
120 121 83
116 118 82
126 126 83
123 124 85
118 120 80
121 122 84
126 127 84
136 135 88
144 142 91
136 135 88
138 136 88
133 133 85
148 145 94
137 135 86
142 140 90
148 145 91
149 145 87
147 145 90
151 148 91
156 153 93
155 152 95
155 150 92
155 152 93
156 153 94
153 149 94
150 146 90
160 155 97
157 153 95
160 156 95
160 157 98
158 155 91
163 159 97
166 160 100
162 159 95
164 160 100
165 161 92
163 159 93
167 163 97
170 164 96
168 163 97
165 161 101
171 165 98
163 159 92
171 167 103
171 165 103
168 163 99
173 167 99
173 167 95
170 164 99
166 162 91
171 166 100
173 167 99
171 165 97
172 167 97
172 166 94
171 165 99
168 163 96
169 163 96
176 169 103
169 165 96
173 167 98
163 158 89
170 165 97
172 166 99
172 166 99
173 167 97
171 165 97
172 166 97
171 165 91
171 165 95
172 166 99
175 169 101
173 167 102
171 164 94
173 167 96
171 164 97
173 166 102
165 159 89
168 163 93
171 165 95
170 165 95
167 161 87
170 165 97
164 159 93
166 160 93
172 165 99
168 162 97
163 159 87
165 159 90
160 156 84
166 159 94
169 163 95
168 162 99
153 148 79
170 163 93
167 161 90
168 162 94
170 163 95
168 162 95
162 156 87
167 160 92
170 165 98
160 154 88
164 158 88
165 160 89
164 158 87
161 154 84
162 157 89
165 158 85
159 154 87
163 157 86
166 159 89
166 159 91
166 158 93
165 159 91
162 156 89
166 160 87
167 161 91
161 155 88
170 163 94
164 157 89
157 152 84
160 155 84
158 153 89
165 158 91
153 147 79
156 151 85
158 152 86
154 149 85
156 151 89
215 232 255
215 232 255
215 232 255
215 232 255
215 232 255
216 232 255
216 232 255
216 232 255
216 232 255
216 233 255
216 233 255
216 233 255
216 233 255
216 233 255
216 233 255
216 233 255
216 233 255
216 233 255
216 233 255
216 233 255
216 233 255
216 233 255
216 233 255
216 233 255
216 233 255
216 233 255
216 233 255
217 233 255
217 233 255
217 233 255
217 233 255
217 233 255
217 233 255
217 233 255
217 233 255
217 233 255
217 233 255
217 233 255
217 233 255
217 233 255
217 233 255
217 233 255
217 233 255
217 233 255
217 233 255
217 233 255
217 233 255
217 233 255
217 233 255
217 233 255
217 233 255
217 233 255
217 233 255
217 233 255
217 233 255
217 233 255
217 233 255
217 233 255
217 233 255
217 233 255
217 233 255
217 233 255
217 233 255
217 233 255
217 233 255
217 233 255
217 233 255
217 233 255
217 233 255
217 233 255
217 233 255
217 233 255
217 233 255
216 233 255
217 233 255
216 233 255
216 233 255
216 233 255
216 233 255
216 233 255
216 233 255
216 233 255
216 233 255
216 233 255
216 233 255
216 233 255
216 233 255
216 233 255
216 233 255
216 233 255
216 233 255
216 233 255
216 233 255
216 233 255
216 233 255
216 233 255
216 233 255
216 233 255
216 233 255
216 233 255
216 233 255
216 233 255
216 232 255
216 232 255
216 232 255
216 232 255
216 232 255
216 232 255
216 232 255
215 232 255
215 232 255
215 232 255
215 232 255
215 232 255
215 232 255
215 232 255
215 232 255
215 232 255
215 232 255
215 232 255
215 232 255
214 232 255
214 232 255
214 232 255
214 231 255
214 231 255
214 231 255
213 231 255
213 231 255
213 231 255
212 231 255
212 230 255
212 230 255
211 230 255
210 229 255
208 228 255
208 228 255
209 229 255
209 229 255
210 229 255
211 230 255
212 230 255
213 231 255
214 232 255
216 232 255
217 233 255
220 235 255
217 233 255
217 233 255
217 233 255
143 163 194
61 97 148
61 96 147
61 96 147
60 95 147
60 96 144
61 96 149
60 95 145
61 96 148
61 96 140
61 96 147
61 96 148
60 96 149
60 96 150
62 98 158
60 95 145
61 96 142
61 96 143
60 95 142
61 97 148
61 96 143
61 96 149
60 96 145
62 97 152
60 95 141
61 96 145
61 97 145
61 97 145
61 96 145
61 97 154
61 97 144
61 96 143
62 98 152
59 94 140
61 96 149
60 96 139
61 97 148
61 96 151
62 97 152
61 97 150
62 98 150
61 96 140
60 95 154
62 97 147
61 96 147
62 97 148
61 96 149
61 96 142
61 96 146
62 98 158
61 96 147
62 97 148
61 96 143
61 96 143
61 96 152
60 95 139
60 95 144
62 97 154
62 97 148
62 97 150
61 95 142
60 96 142
61 95 144
61 96 149
61 97 147
60 94 133
61 95 142
61 96 142
61 97 147
60 95 147
61 95 142
61 96 152
61 96 156
60 94 143
60 95 149
61 95 145
60 94 150
61 95 143
59 93 142
59 92 141
60 94 144
60 95 147
62 96 154
59 93 140
59 93 140
59 92 134
59 92 136
58 91 137
59 93 141
56 89 129
57 90 136
58 92 147
58 91 145
57 89 136
55 86 130
59 92 138
56 87 134
54 84 127
51 79 118
139 157 187
217 233 255
217 233 255
217 233 255
136 139 118
105 105 70
84 85 60
93 93 62
85 88 65
81 83 58
102 104 73
102 106 76
93 96 68
93 98 72
93 96 67
96 100 72
107 109 77
98 102 73
117 120 84
108 108 72
108 110 77
117 119 82
118 119 80
126 127 86
121 123 81
121 121 78
131 131 87
132 132 86
130 129 84
137 136 88
132 131 83
131 130 77
140 139 90
142 139 87
138 137 89
139 138 89
147 144 91
151 147 90
143 141 88
145 143 92
153 150 90
148 146 96
151 148 94
149 146 88
158 154 96
154 150 93
159 156 97
153 151 96
162 158 97
153 150 93
159 155 95
165 161 98
157 153 95
167 162 98
168 162 99
167 162 97
162 157 93
165 159 95
161 158 91
169 164 102
172 167 99
172 166 99
170 164 97
168 162 96
166 162 94
167 162 95
172 167 100
170 164 97
173 166 97
169 164 95
171 166 99
173 167 100
170 165 96
173 166 96
171 165 99
173 167 94
173 167 97
165 159 89
176 168 100
169 164 96
170 165 96
172 166 96
173 168 102
167 162 91
172 166 98
171 165 94
175 168 97
169 164 93
169 164 96
171 165 99
174 166 98
170 165 97
171 165 94
173 167 94
169 163 95
171 164 97
173 167 97
170 164 99
168 163 91
170 164 93
170 164 89
172 165 91
168 162 92
174 167 97
165 160 91
169 163 96
174 167 99
174 168 98
167 160 87
169 163 93
168 161 90
169 162 92
167 161 96
167 161 90
164 159 89
165 158 94
170 163 94
165 159 87
166 161 95
164 158 90
164 158 91
164 158 86
169 162 93
168 161 93
167 162 96
166 160 95
163 157 90
167 161 97
165 158 91
162 156 89
166 160 94
157 151 87
166 161 91
163 157 88
158 152 84
163 157 89
160 154 88
159 152 90
161 155 87
169 163 95
160 154 87
164 158 88
157 152 78
164 157 90
163 156 89
156 151 79
155 149 87
163 156 85
159 153 86
160 154 87
156 150 86
216 232 255
216 232 255
216 232 255
216 233 255
216 233 255
216 233 255
216 233 255
216 233 255
216 233 255
216 233 255
216 233 255
216 233 255
216 233 255
216 233 255
217 233 255
217 233 255
217 233 255
217 233 255
217 233 255
217 233 255
217 233 255
217 233 255
217 233 255
217 233 255
217 233 255
217 233 255
217 233 255
217 233 255
217 233 255
217 233 255
217 233 255
217 233 255
217 233 255
217 233 255
217 233 255
217 233 255
217 233 255
217 233 255
217 233 255
217 233 255
217 233 255
217 233 255
217 233 255
217 233 255
217 233 255
217 233 255
217 233 255
217 233 255
217 233 255
217 233 255
217 233 255
217 233 255
217 233 255
217 233 255
217 233 255
217 233 255
217 233 255
217 233 255
217 233 255
217 233 255
217 233 255
217 233 255
217 233 255
217 233 255
217 233 255
217 233 255
217 233 255
217 233 255
217 233 255
217 233 255
217 233 255
217 233 255
217 233 255
217 233 255
217 233 255
217 233 255
217 233 255
217 233 255
217 233 255
217 233 255
217 233 255
217 233 255
217 233 255
217 233 255
217 233 255
217 233 255
217 233 255
217 233 255
217 233 255
217 233 255
217 233 255
217 233 255
217 233 255
216 233 255
216 233 255
216 233 255
216 233 255
216 233 255
216 233 255
216 233 255
216 233 255
216 233 255
216 233 255
216 233 255
216 233 255
216 233 255
216 233 255
216 233 255
216 233 255
216 233 255
216 233 255
216 232 255
216 232 255
216 232 255
216 232 255
216 232 255
215 232 255
215 232 255
215 232 255
215 232 255
215 232 255
215 232 255
215 232 255
215 232 255
215 232 255
214 232 255
214 232 255
214 232 255
214 231 255
214 231 255
213 231 255
213 231 255
213 231 255
212 230 255
211 230 255
210 229 255
173 194 227
209 229 255
210 229 255
211 230 255
211 230 255
212 230 255
213 231 255
214 232 255
215 232 255
217 233 255
219 234 255
218 234 255
217 233 255
217 233 255
97 123 162
61 97 149
61 96 143
61 97 150
60 96 149
59 94 147
61 97 149
60 96 150
61 96 145
60 96 139
62 98 151
61 96 150
62 97 150
60 96 147
60 95 141
61 96 149
61 96 144
61 96 140
60 95 136
59 94 143
61 96 153
62 97 152
61 97 149
60 95 143
61 97 145
61 96 143
62 97 149
60 94 137
63 98 157
61 96 143
61 96 141
62 97 149
61 96 149
61 96 148
61 96 148
61 97 150
61 96 148
60 96 143
61 97 150
61 96 149
61 97 148
62 98 155
59 94 141
60 95 143
60 95 140
61 96 143
61 97 150
62 97 150
61 96 148
60 95 141
61 96 150
60 94 136
61 96 141
61 96 145
61 95 145
61 96 147
61 96 147
61 95 141
60 94 141
60 95 145
59 94 133
59 94 141
60 95 141
61 96 140
59 93 141
60 95 142
62 97 152
60 95 140
60 95 145
59 93 134
59 93 136
60 94 146
61 96 144
60 94 140
61 95 146
61 96 152
59 94 141
60 94 148
60 95 145
61 96 145
59 93 142
59 93 136
60 94 141
60 94 147
58 90 134
59 93 142
59 93 137
59 93 142
61 95 147
59 93 140
58 90 129
57 88 133
58 91 146
56 87 127
57 88 129
56 87 134
58 89 145
54 82 117
53 82 124
83 105 145
217 233 255
217 233 255
203 217 234
93 91 58
91 90 56
94 93 64
94 95 65
71 73 53
69 72 54
89 92 65
86 89 63
101 104 73
80 84 62
89 93 67
101 104 73
94 98 69
104 107 73
104 105 70
111 114 79
96 100 72
109 112 78
116 117 80
133 133 89
117 118 80
129 129 88
112 115 76
129 129 83
120 123 84
132 131 86
125 124 79
116 117 75
144 141 88
149 147 94
138 136 84
139 138 87
143 142 88
137 136 83
146 144 89
144 143 91
154 151 95
154 151 95
147 143 87
152 148 91
146 143 85
155 150 90
158 154 91
160 156 91
157 153 92
161 156 92
163 157 94
160 156 96
167 161 96
168 162 98
168 162 101
157 153 90
159 156 89
171 164 94
163 159 97
168 163 97
166 162 94
166 161 96
165 160 97
167 161 95
168 163 96
168 162 99
170 165 97
169 163 94
168 162 96
169 164 95
172 166 97
170 164 97
172 167 98
170 164 99
175 169 102
175 168 101
171 165 93
175 168 96
170 164 95
172 165 96
170 165 90
175 168 97
172 165 94
172 166 99
175 168 99
172 166 93
175 168 102
168 163 93
170 164 96
174 167 100
168 163 93
170 164 93
176 168 92
172 166 95
169 164 95
166 161 91
170 165 93
171 164 96
170 163 93
168 162 94
166 160 90
167 162 94
165 160 86
171 165 96
166 160 90
172 165 94
169 163 94
168 163 87
170 163 89
171 165 91
159 154 89
169 164 95
165 159 91
163 157 84
165 160 90
163 157 84
163 158 91
171 165 97
172 165 95
170 164 93
170 164 94
168 161 92
161 154 86
166 161 93
167 161 95
166 161 90
166 160 91
165 159 92
163 157 91
162 155 86
159 152 87
156 151 87
161 155 83
158 152 82
163 157 87
156 151 87
166 161 90
158 152 84
160 154 84
157 150 82
165 159 89
158 152 82
158 152 88
163 157 92
156 151 83
163 157 90
164 158 90
159 153 83
157 151 87
161 155 88
161 155 90
216 233 255
216 233 255
216 233 255
216 233 255
216 233 255
216 233 255
217 233 255
217 233 255
217 233 255
217 233 255
217 233 255
217 233 255
217 233 255
217 233 255
217 233 255
217 233 255
217 233 255
217 233 255
217 233 255
217 233 255
217 233 255
217 233 255
217 233 255
217 233 255
217 233 255
217 233 255
217 233 255
217 233 255
217 233 255
217 233 255
217 233 255
217 233 255
217 233 255
217 233 255
217 233 255
217 233 255
217 233 255
217 233 255
217 233 255
217 233 255
217 233 255
217 233 255
217 233 255
217 233 255
217 233 255
217 233 255
217 233 255
217 233 255
217 233 255
217 233 255
217 233 255
217 233 255
217 233 255
217 233 255
217 233 255
217 233 255
217 233 255
217 233 255
217 233 255
217 233 255
217 233 255
217 233 255
217 233 255
217 233 255
217 233 255
217 233 255
217 233 255
217 233 255
217 233 255
217 233 255
217 233 255
217 233 255
217 233 255
217 233 255
217 233 255
217 233 255
217 233 255
217 233 255
217 233 255
217 233 255
217 233 255
217 233 255
217 233 255
217 233 255
217 233 255
217 233 255
217 233 255
217 233 255
217 233 255
217 233 255
217 233 255
217 233 255
217 233 255
217 233 255
217 233 255
217 233 255
217 233 255
217 233 255
217 233 255
217 233 255
217 233 255
217 233 255
217 233 255
217 233 255
217 233 255
216 233 255
216 233 255
216 233 255
216 233 255
216 233 255
216 233 255
216 233 255
216 233 255
216 233 255
216 233 255
216 233 255
216 233 255
216 233 255
216 232 255
216 232 255
216 232 255
216 232 255
215 232 255
215 232 255
215 232 255
215 232 255
215 232 255
215 232 255
215 232 255
214 232 255
214 231 255
214 231 255
213 231 255
213 231 255
212 231 255
211 230 255
162 183 218
181 201 233
211 230 255
211 230 255
212 230 255
213 231 255
213 231 255
214 232 255
215 232 255
217 233 255
219 234 255
219 234 255
218 234 255
204 221 244
61 97 147
61 96 145
60 96 147
61 96 152
61 96 144
61 97 153
60 96 143
61 96 150
61 96 141
60 95 141
60 95 137
61 96 147
62 97 151
60 95 135
61 96 147
61 96 140
61 96 149
61 96 144
60 95 140
62 97 154
61 96 143
60 95 126
61 96 149
61 97 145
60 94 133
60 95 137
61 96 147
60 94 136
60 95 134
60 96 143
61 96 145
61 97 154
61 96 143
60 95 149
60 94 140
62 97 147
61 96 139
61 96 147
59 93 133
62 97 148
61 96 151
61 96 144
61 97 153
60 95 137
61 96 146
61 96 143
61 97 144
61 95 148
60 95 140
61 95 143
61 96 143
62 97 148
61 96 145
62 97 145
61 96 144
60 95 140
60 94 134
60 96 151
62 97 149
61 96 151
60 95 142
61 96 148
62 98 154
61 96 145
61 96 148
61 96 145
61 96 149
60 95 140
60 95 140
61 96 151
61 96 152
60 94 144
61 96 148
60 95 142
61 96 148
61 95 146
61 96 148
62 96 150
60 95 145
59 93 137
60 94 143
60 94 142
60 95 145
61 94 141
61 95 153
57 90 131
60 93 138
57 90 130
58 90 127
57 90 137
57 90 136
59 92 140
55 85 127
58 90 133
58 90 143
58 89 134
56 88 130
55 84 126
51 79 110
53 82 124
201 217 237
218 233 255
162 170 173
89 90 62
86 86 58
85 86 58
86 89 63
86 89 63
83 85 59
90 93 65
86 89 64
88 91 65
99 101 72
92 95 67
82 87 62
86 90 65
104 107 73
107 110 77
106 108 76
113 115 80
104 106 74
127 128 85
116 116 76
118 118 78
120 120 75
126 126 80
119 120 82
132 132 85
133 132 87
139 137 85
135 134 85
135 134 83
131 130 83
132 132 77
148 144 91
135 133 84
148 145 87
148 146 92
143 141 89
151 148 93
151 148 91
156 153 91
152 149 88
153 150 92
154 150 92
158 154 86
156 152 94
156 152 91
159 157 99
157 154 92
162 158 93
166 161 98
164 160 101
168 163 95
162 158 94
162 157 93
162 157 92
163 158 87
171 166 99
172 167 99
168 162 97
171 165 102
166 161 91
170 165 98
171 165 96
167 162 97
166 161 90
163 158 90
170 165 95
167 162 91
175 168 98
171 166 93
168 163 94
168 162 91
171 166 99
176 170 102
173 167 97
170 166 94
169 164 86
175 168 98
169 164 96
173 167 97
171 164 95
170 164 93
173 166 91
168 162 88
168 163 95
174 167 99
172 166 93
171 166 93
166 161 85
171 164 93
172 166 93
174 168 99
168 162 86
171 165 93
173 166 99
169 163 92
171 165 96
166 161 90
167 162 95
169 164 92
170 163 92
171 164 92
168 163 95
169 162 95
168 162 93
166 160 89
173 167 95
169 163 91
171 165 93
168 163 93
170 164 95
168 161 93
168 161 90
167 160 93
167 161 88
160 155 87
167 160 90
164 158 88
163 157 92
167 159 91
167 160 92
167 160 88
164 157 90
162 156 88
166 160 90
164 159 91
158 153 79
164 158 90
165 159 91
158 152 84
164 157 88
162 156 88
161 155 84
161 155 87
157 151 85
165 159 84
161 156 84
158 152 90
163 157 89
157 151 81
160 153 90
160 155 91
158 152 84
164 159 90
155 150 80
160 153 90
153 148 81
157 151 82
217 233 255
217 233 255
217 233 255
217 233 255
217 233 255
217 233 255
217 233 255
217 233 255
217 233 255
217 233 255
217 233 255
217 233 255
217 233 255
217 233 255
217 233 255
217 233 255
217 233 255
217 233 255
217 233 255
217 233 255
217 233 255
217 233 255
217 233 255
218 233 255
218 233 255
218 233 255
218 233 255
218 233 255
218 233 255
218 233 255
218 233 255
218 234 255
218 234 255
218 234 255
218 234 255
218 234 255
218 234 255
218 234 255
218 234 255
218 234 255
218 234 255
218 234 255
218 234 255
218 234 255
218 234 255
218 234 255
218 234 255
218 234 255
218 234 255
218 234 255
218 234 255
218 234 255
218 234 255
218 234 255
218 234 255
218 234 255
218 234 255
218 234 255
218 234 255
218 234 255
218 234 255
218 234 255
218 234 255
218 234 255
218 234 255
218 234 255
218 234 255
218 233 255
218 233 255
218 233 255
218 233 255
218 233 255
218 233 255
218 233 255
218 233 255
218 233 255
218 233 255
218 233 255
218 233 255
217 233 255
217 233 255
217 233 255
217 233 255
217 233 255
217 233 255
217 233 255
217 233 255
217 233 255
217 233 255
217 233 255
217 233 255
217 233 255
217 233 255
217 233 255
217 233 255
217 233 255
217 233 255
217 233 255
217 233 255
217 233 255
217 233 255
217 233 255
217 233 255
217 233 255
217 233 255
217 233 255
217 233 255
217 233 255
217 233 255
217 233 255
217 233 255
217 233 255
217 233 255
217 233 255
217 233 255
216 233 255
216 233 255
216 233 255
216 233 255
216 233 255
216 233 255
216 233 255
216 233 255
216 233 255
216 232 255
216 232 255
215 232 255
215 232 255
215 232 255
215 232 255
215 232 255
214 232 255
214 232 255
214 231 255
213 231 255
213 231 255
188 207 238
70 103 159
195 214 241
212 230 255
212 231 255
213 231 255
214 231 255
215 232 255
216 232 255
217 233 255
218 234 255
220 235 255
218 234 255
175 193 218
60 96 149
60 96 148
60 95 140
60 96 147
62 97 155
62 97 154
61 97 149
61 97 142
60 96 140
61 96 137
60 95 143
60 95 136
60 95 139
61 96 148
60 95 134
61 96 141
60 95 140
60 95 142
60 96 147
59 94 133
61 96 149
61 96 140
61 96 141
61 96 139
61 96 142
61 96 140
60 95 134
60 95 140
61 96 143
61 97 151
59 94 135
60 96 148
60 95 141
59 94 128
60 95 141
59 94 136
60 95 137
59 94 137
61 96 145
61 95 142
59 94 133
61 96 150
60 95 136
62 97 151
61 96 149
61 96 144
61 96 144
61 96 144
61 96 145
61 97 150
62 97 150
61 96 143
61 96 144
60 95 140
61 96 147
60 94 130
62 97 145
61 96 145
60 95 138
61 96 142
61 96 139
60 95 137
59 93 132
61 95 144
61 97 144
60 95 147
61 96 143
61 97 154
62 97 148
60 95 143
60 94 144
60 94 139
60 94 141
60 94 141
60 94 135
60 95 144
60 95 140
61 96 151
61 95 140
60 94 139
59 93 134
59 92 133
60 94 141
60 94 138
60 93 144
60 94 140
58 91 139
60 93 140
60 94 148
58 91 147
60 93 142
57 89 132
56 87 122
58 90 132
58 90 133
56 87 127
55 83 117
52 81 125
52 80 112
51 79 112
161 176 199
218 234 255
134 138 124
97 96 60
93 92 61
77 79 53
88 90 64
75 77 55
75 77 54
89 91 64
95 98 68
85 88 63
84 88 64
89 93 67
98 102 72
91 95 67
106 109 73
101 104 71
94 96 67
110 110 73
105 108 70
110 112 76
118 118 78
123 123 78
119 120 83
117 117 75
136 135 86
129 128 81
128 128 83
136 135 90
136 136 87
136 134 85
137 135 85
153 149 95
143 140 84
146 143 87
138 137 85
139 138 86
146 143 88
152 149 90
145 143 86
155 151 93
155 152 91
154 150 88
149 146 86
150 147 86
158 154 91
158 154 93
155 151 94
163 158 96
161 157 92
159 155 91
164 160 94
160 156 91
162 158 94
166 161 95
165 161 93
164 159 90
162 157 91
168 163 94
167 162 96
174 168 102
170 163 91
171 165 95
174 167 96
171 165 98
169 164 95
172 165 95
173 166 99
172 166 96
172 166 96
170 165 96
170 164 95
168 162 92
175 167 100
172 166 95
170 164 90
175 168 99
172 166 95
172 166 95
171 166 94
172 165 94
173 166 95
174 167 92
172 166 96
171 165 93
170 164 91
170 165 93
175 169 98
172 166 93
170 164 93
170 163 95
170 164 95
169 163 94
174 167 97
168 162 90
169 164 93
168 162 93
167 162 91
166 161 90
170 164 93
170 164 97
171 165 95
172 165 93
170 163 95
168 161 90
171 164 95
168 162 93
170 163 91
174 168 93
169 162 90
167 162 89
171 165 93
170 163 92
165 158 88
167 161 87
165 159 85
170 164 92
164 158 86
165 159 87
166 160 87
168 161 90
168 162 89
168 161 86
163 156 84
161 156 85
168 161 90
166 161 85
162 157 85
163 156 90
165 159 88
161 155 89
157 151 77
165 160 87
162 156 88
155 150 84
163 157 84
156 149 76
166 160 92
160 154 85
163 157 87
162 156 90
159 153 90
163 157 84
162 156 87
162 156 85
165 158 92
157 150 82
155 149 83
165 159 88
217 233 255
217 233 255
217 233 255
217 233 255
217 233 255
217 233 255
217 233 255
217 233 255
217 233 255
217 233 255
218 233 255
218 233 255
218 233 255
218 234 255
218 234 255
218 234 255
218 234 255
218 234 255
218 234 255
218 234 255
218 234 255
218 234 255
218 234 255
218 234 255
218 234 255
218 234 255
218 234 255
218 234 255
218 234 255
218 234 255
218 234 255
218 234 255
218 234 255
218 234 255
218 234 255
218 234 255
218 234 255
218 234 255
218 234 255
218 234 255
218 234 255
218 234 255
218 234 255
218 234 255
218 234 255
218 234 255
218 234 255
218 234 255
218 234 255
218 234 255
218 234 255
218 234 255
218 234 255
218 234 255
218 234 255
218 234 255
218 234 255
218 234 255
218 234 255
218 234 255
218 234 255
218 234 255
218 234 255
218 234 255
218 234 255
218 234 255
218 234 255
218 234 255
218 234 255
218 234 255
218 234 255
218 234 255
218 234 255
218 234 255
218 234 255
218 234 255
218 234 255
218 234 255
218 234 255
218 234 255
218 234 255
218 234 255
218 234 255
218 234 255
218 234 255
218 234 255
218 234 255
218 234 255
218 234 255
218 234 255
218 234 255
218 234 255
218 234 255
218 234 255
218 233 255
218 233 255
218 233 255
218 233 255
217 233 255
217 233 255
217 233 255
217 233 255
217 233 255
217 233 255
217 233 255
217 233 255
217 233 255
217 233 255
217 233 255
217 233 255
217 233 255
217 233 255
217 233 255
217 233 255
217 233 255
217 233 255
217 233 255
217 233 255
217 233 255
217 233 255
217 233 255
217 233 255
216 233 255
216 233 255
216 233 255
216 233 255
216 233 255
216 233 255
216 232 255
216 232 255
215 232 255
215 232 255
215 232 255
215 232 255
214 232 255
214 231 255
213 231 255
102 128 174
107 132 172
211 230 254
213 231 255
214 231 255
214 232 255
215 232 255
216 233 255
217 233 255
218 234 255
220 235 255
218 234 255
135 155 183
61 96 149
60 96 137
61 97 145
59 93 135
62 97 148
60 94 140
60 95 147
61 96 143
61 96 136
60 95 137
62 97 156
60 95 143
61 96 144
60 95 147
60 95 139
61 96 142
61 96 142
61 97 149
60 95 145
59 94 135
61 96 150
59 94 135
60 95 140
60 96 143
60 95 142
60 95 137
61 96 144
62 97 149
61 96 140
62 98 153
60 95 137
61 96 142
59 94 140
61 96 140
62 97 153
60 95 142
62 97 147
59 94 135
59 94 137
61 96 139
62 97 149
59 93 133
61 95 137
61 96 149
61 97 145
59 94 134
60 95 137
61 96 141
62 98 152
61 96 143
60 95 140
60 94 140
61 96 148
60 95 140
61 96 144
61 96 141
61 97 152
60 95 143
61 95 139
61 95 139
61 95 135
59 93 135
60 94 136
60 95 143
61 95 143
61 96 148
61 96 147
61 95 141
61 95 149
60 94 138
60 94 142
61 96 144
60 95 142
61 96 151
59 93 134
59 94 140
58 92 138
60 94 144
60 94 134
60 95 141
58 92 135
58 92 139
59 93 142
57 90 133
60 93 132
59 92 135
58 90 129
61 96 149
58 91 139
56 88 121
55 86 125
56 87 122
57 90 134
55 86 124
58 91 142
56 87 135
57 89 134
54 85 131
55 85 129
50 77 105
149 164 187
216 232 252
112 112 79
98 97 61
86 86 57
76 77 53
71 74 50
81 85 60
78 82 59
79 84 62
79 83 61
81 85 62
82 86 61
75 83 66
81 86 62
92 95 65
103 106 73
95 99 68
104 106 74
112 113 77
107 110 76
112 115 76
120 121 78
113 115 75
124 124 81
114 115 77
120 120 80
122 124 76
110 113 74
128 127 81
139 136 82
133 131 84
134 133 83
129 128 75
145 142 84
143 140 85
142 140 85
145 144 87
150 148 90
156 152 92
154 151 92
149 146 88
151 147 89
151 149 92
153 150 94
157 153 92
160 157 97
163 158 95
159 155 95
160 155 89
161 157 86
164 159 96
158 154 85
159 155 87
161 157 93
167 162 100
164 160 94
164 159 92
163 158 93
162 158 88
168 164 96
166 161 95
169 164 92
172 166 96
169 163 94
173 166 98
173 166 96
171 165 92
172 166 95
166 161 92
168 163 93
167 162 91
171 165 96
171 165 97
173 166 94
173 167 98
174 167 96
162 157 89
174 167 95
175 168 96
172 166 94
168 163 92
173 166 93
172 167 94
169 163 91
173 166 95
173 167 96
171 165 91
168 162 88
175 168 96
172 165 90
172 165 95
169 163 93
174 167 97
170 164 88
174 167 97
170 164 90
170 164 91
164 159 86
167 162 89
173 166 96
166 160 89
165 159 87
172 165 95
168 162 87
173 166 93
172 164 93
165 160 84
167 160 87
168 161 93
165 160 90
163 157 87
164 157 88
166 161 87
161 155 86
168 162 90
169 162 90
162 156 88
169 162 86
165 158 85
160 154 81
167 161 91
167 161 87
161 156 84
163 157 87
164 159 84
164 157 89
160 153 87
161 155 83
163 157 90
168 161 91
169 163 95
159 154 83
165 158 86
157 151 79
158 152 86
163 158 91
163 157 83
160 154 88
158 152 80
159 152 84
161 155 84
165 160 87
165 159 86
158 151 85
154 149 81
163 157 90
157 152 81
161 154 86
161 155 90
217 233 255
217 233 255
218 233 255
218 233 255
218 234 255
218 234 255
218 234 255
218 234 255
218 234 255
218 234 255
218 234 255
218 234 255
218 234 255
218 234 255
218 234 255
218 234 255
218 234 255
218 234 255
218 234 255
218 234 255
218 234 255
218 234 255
218 234 255
218 234 255
218 234 255
218 234 255
218 234 255
218 234 255
218 234 255
218 234 255
218 234 255
218 234 255
218 234 255
218 234 255
218 234 255
218 234 255
218 234 255
218 234 255
218 234 255
218 234 255
218 234 255
218 234 255
218 234 255
218 234 255
218 234 255
218 234 255
218 234 255
218 234 255
218 234 255
218 234 255
218 234 255
218 234 255
218 234 255
218 234 255
218 234 255
218 234 255
218 234 255
218 234 255
218 234 255
218 234 255
218 234 255
218 234 255
218 234 255
218 234 255
218 234 255
218 234 255
218 234 255
218 234 255
218 234 255
218 234 255
218 234 255
218 234 255
218 234 255
218 234 255
218 234 255
218 234 255
218 234 255
218 234 255
218 234 255
218 234 255
218 234 255
218 234 255
218 234 255
218 234 255
218 234 255
218 234 255
218 234 255
218 234 255
218 234 255
218 234 255
218 234 255
218 234 255
218 234 255
218 234 255
218 234 255
218 234 255
218 234 255
218 234 255
218 234 255
218 234 255
218 234 255
218 234 255
218 234 255
218 234 255
218 234 255
218 234 255
218 234 255
218 234 255
218 234 255
218 233 255
218 233 255
218 233 255
217 233 255
217 233 255
217 233 255
217 233 255
217 233 255
217 233 255
217 233 255
217 233 255
217 233 255
217 233 255
217 233 255
217 233 255
217 233 255
217 233 255
217 233 255
216 233 255
216 233 255
216 233 255
216 233 255
216 233 255
216 232 255
215 232 255
215 232 255
215 232 255
214 231 255
154 174 208
60 95 144
167 187 223
214 231 255
214 232 255
215 232 255
215 232 255
216 233 255
217 233 255
218 234 255
220 235 255
219 234 255
114 137 180
60 95 136
60 96 140
61 97 149
61 97 147
60 95 144
61 96 145
61 97 148
61 97 152
60 95 140
60 94 144
61 96 142
62 97 151
61 96 143
61 96 139
62 97 151
62 98 152
62 97 148
61 96 149
61 97 147
60 95 140
60 95 137
61 96 141
62 97 149
61 96 143
61 96 150
61 96 142
61 96 142
62 98 152
62 97 151
61 96 145
61 96 150
61 96 143
61 96 145
62 98 153
62 97 148
61 96 144
61 96 144
59 94 140
62 97 150
62 97 148
59 94 131
61 97 150
60 95 140
60 95 147
60 95 143
62 97 152
60 94 139
60 95 144
61 96 139
60 94 145
61 96 137
60 96 140
61 96 146
61 96 140
61 96 145
61 96 152
59 94 138
61 96 139
59 93 130
61 96 142
60 94 136
61 96 143
60 94 134
61 96 145
61 95 140
61 97 147
62 97 149
60 95 139
60 95 141
60 94 140
59 92 133
60 94 134
61 95 141
60 94 136
60 95 142
61 95 143
60 95 146
59 93 143
60 95 144
60 94 133
58 93 131
59 92 132
59 92 131
58 92 133
59 93 133
59 93 140
57 90 139
60 93 140
59 91 132
59 93 144
59 92 138
58 91 136
59 92 140
57 89 131
57 88 132
56 86 132
54 84 117
57 88 126
54 83 119
51 78 114
113 128 150
194 206 221
98 96 59
84 83 53
71 72 50
68 71 52
80 82 58
63 67 47
77 81 58
74 78 55
79 84 62
79 84 61
73 78 58
88 91 64
85 90 64
86 91 66
92 96 65
84 89 63
103 106 68
93 96 64
109 111 75
108 110 75
120 121 76
119 120 77
129 128 81
116 117 75
127 128 82
123 122 77
120 120 72
138 138 85
127 128 82
137 134 83
130 130 82
143 141 85
126 126 75
137 136 83
142 141 87
145 143 82
147 145 82
151 148 90
151 147 89
146 143 84
160 156 93
156 153 92
159 154 93
159 155 90
158 153 91
162 157 96
157 153 90
158 154 89
164 160 92
162 157 90
162 156 85
163 158 93
165 159 86
164 159 85
160 156 90
166 162 96
166 161 93
161 157 87
170 164 90
170 164 92
165 160 89
171 165 92
170 164 97
167 162 95
168 162 95
166 160 89
168 163 96
168 163 89
169 164 90
172 166 98
169 163 89
170 163 87
166 160 84
173 167 95
168 163 90
173 167 96
172 166 95
172 167 96
168 162 90
171 165 91
172 165 90
169 163 91
169 163 93
169 164 90
174 168 97
170 164 91
170 164 92
170 163 92
169 163 86
168 163 88
169 162 93
169 162 94
171 165 90
165 159 83
175 167 93
166 161 87
172 166 97
165 160 89
170 163 85
172 165 93
169 163 83
166 161 87
171 165 92
164 159 84
171 165 92
168 162 91
165 159 89
166 160 90
164 158 85
166 160 89
170 164 90
169 163 90
161 157 84
167 161 90
170 164 94
166 161 89
165 158 84
163 156 87
166 160 89
165 159 90
168 161 88
166 160 87
168 161 92
160 154 84
165 159 88
161 156 85
167 161 90
165 158 87
158 153 80
164 158 90
164 158 87
161 154 83
165 158 85
161 155 84
159 153 84
154 148 76
156 151 85
155 149 80
163 157 88
158 152 87
157 151 81
158 151 82
157 151 84
162 156 86
157 151 80
161 155 85
157 150 84
158 153 85
218 234 255
218 234 255
218 234 255
218 234 255
218 234 255
218 234 255
218 234 255
218 234 255
218 234 255
218 234 255
218 234 255
218 234 255
218 234 255
218 234 255
218 234 255
218 234 255
218 234 255
218 234 255
218 234 255
218 234 255
219 234 255
219 234 255
219 234 255
219 234 255
219 234 255
219 234 255
219 234 255
219 234 255
219 234 255
219 234 255
219 234 255
219 234 255
219 234 255
219 234 255
219 234 255
219 234 255
219 234 255
219 234 255
219 234 255
219 234 255
219 234 255
219 234 255
219 234 255
219 234 255
219 234 255
219 234 255
219 234 255
219 234 255
219 234 255
219 234 255
219 234 255
219 234 255
219 234 255
219 234 255
219 234 255
219 234 255
219 234 255
219 234 255
219 234 255
219 234 255
219 234 255
219 234 255
219 234 255
219 234 255
219 234 255
219 234 255
219 234 255
219 234 255
219 234 255
219 234 255
219 234 255
219 234 255
219 234 255
219 234 255
219 234 255
219 234 255
219 234 255
219 234 255
219 234 255
219 234 255
219 234 255
219 234 255
218 234 255
218 234 255
218 234 255
218 234 255
218 234 255
218 234 255
218 234 255
218 234 255
218 234 255
218 234 255
218 234 255
218 234 255
218 234 255
218 234 255
218 234 255
218 234 255
218 234 255
218 234 255
218 234 255
218 234 255
218 234 255
218 234 255
218 234 255
218 234 255
218 234 255
218 234 255
218 234 255
218 234 255
218 234 255
218 234 255
218 234 255
218 234 255
218 234 255
218 234 255
218 234 255
218 234 255
218 234 255
218 234 255
218 233 255
217 233 255
217 233 255
217 233 255
217 233 255
217 233 255
217 233 255
217 233 255
217 233 255
217 233 255
217 233 255
216 233 255
216 233 255
216 233 255
216 232 255
215 232 255
215 232 255
172 191 217
60 96 153
84 113 158
209 227 251
215 232 255
215 232 255
216 233 255
217 233 255
217 233 255
218 234 255
220 235 255
220 235 255
73 105 152
60 95 149
60 95 149
60 95 141
62 97 150
61 97 147
61 96 148
60 95 140
59 93 136
61 96 140
60 95 139
61 96 151
61 97 145
60 95 142
60 95 140
60 95 143
61 97 151
61 97 145
61 96 135
61 96 137
60 95 141
61 95 142
61 96 144
61 97 142
61 96 137
61 97 144
61 96 147
60 95 135
60 95 143
61 96 144
61 96 142
62 98 155
61 96 137
60 95 134
60 95 140
61 96 143
60 95 140
59 94 128
60 94 140
61 96 147
60 95 144
61 96 148
60 94 141
61 96 148
60 94 136
61 96 147
61 96 150
59 94 136
62 97 154
61 96 148
60 95 141
62 96 149
59 94 141
60 95 143
60 94 137
60 95 139
60 95 141
60 95 149
61 97 149
59 94 142
61 96 144
60 94 140
61 96 144
61 96 143
61 96 143
61 96 153
60 95 144
59 93 134
61 96 141
60 95 140
59 94 141
60 94 139
59 93 131
60 95 148
59 94 140
60 94 136
59 92 142
60 95 147
60 93 139
59 93 142
59 93 139
59 93 139
59 92 138
59 93 141
59 92 135
60 93 135
58 90 133
59 93 140
59 92 138
57 90 139
59 92 131
58 90 131
58 90 120
57 89 130
58 91 133
58 91 140
56 87 119
58 88 131
54 85 119
54 83 122
53 82 121
69 92 121
172 181 185
88 87 55
86 85 53
80 81 57
63 64 38
68 71 52
58 63 47
75 80 58
73 76 54
67 73 53
75 81 57
76 82 63
74 81 56
93 97 66
77 81 56
94 98 66
107 108 72
101 104 70
104 105 72
112 115 77
100 103 70
118 118 75
118 118 77
124 123 76
109 111 71
115 116 72
122 122 78
128 127 81
125 125 76
133 132 82
139 136 80
145 142 88
149 146 88
136 134 82
143 142 90
150 146 88
160 155 93
158 154 90
143 141 82
155 151 90
148 145 85
160 156 93
153 150 88
152 149 84
160 155 91
159 155 93
153 149 85
156 152 89
166 160 96
160 156 89
159 155 89
165 160 90
163 158 91
166 161 94
162 157 88
162 157 89
164 160 91
168 162 95
166 161 99
164 159 93
163 158 90
164 160 89
172 165 93
170 165 98
166 161 90
169 164 95
171 165 97
170 164 91
170 164 91
165 160 90
166 161 89
171 165 91
168 162 86
169 162 91
168 162 88
167 162 86
167 161 87
170 164 94
170 164 90
166 161 92
169 163 88
173 168 95
173 166 93
166 161 87
173 166 93
170 164 90
173 167 96
172 166 94
168 161 86
176 169 98
175 167 97
173 167 97
170 164 96
171 165 93
167 161 86
171 165 95
172 165 97
167 160 90
170 165 93
168 162 83
165 159 87
165 159 88
166 161 87
171 165 97
164 159 90
171 164 84
163 157 86
172 165 95
161 155 81
166 160 84
161 155 83
172 165 93
167 160 88
165 160 88
164 158 85
165 159 87
170 163 93
165 159 87
159 154 79
159 153 85
161 155 88
169 162 87
167 160 87
163 156 82
165 159 89
170 163 90
170 163 92
169 163 86
168 161 93
161 155 89
159 153 86
158 152 86
161 155 84
168 161 88
165 159 86
170 162 92
165 159 88
160 154 83
163 157 80
158 152 84
162 156 83
158 152 84
149 143 75
155 149 83
150 144 75
161 153 84
153 149 78
160 154 86
157 150 80
218 234 255
218 234 255
218 234 255
218 234 255
218 234 255
219 234 255
219 234 255
219 234 255
219 234 255
219 234 255
219 234 255
219 234 255
219 234 255
219 234 255
219 234 255
219 234 255
219 234 255
219 234 255
219 234 255
219 234 255
219 234 255
219 234 255
219 234 255
219 234 255
219 234 255
219 234 255
219 234 255
219 234 255
219 234 255
219 234 255
219 234 255
219 234 255
219 234 255
219 234 255
219 234 255
219 234 255
219 234 255
219 234 255
219 234 255
219 234 255
219 234 255
219 234 255
219 234 255
219 234 255
219 234 255
219 234 255
219 234 255
219 234 255
219 234 255
219 234 255
219 234 255
219 234 255
219 234 255
219 234 255
219 234 255
219 234 255
219 234 255
219 234 255
219 234 255
219 234 255
219 234 255
219 234 255
219 234 255
219 234 255
219 234 255
219 234 255
219 234 255
219 234 255
219 234 255
219 234 255
219 234 255
219 234 255
219 234 255
219 234 255
219 234 255
219 234 255
219 234 255
219 234 255
219 234 255
219 234 255
219 234 255
219 234 255
219 234 255
219 234 255
219 234 255
219 234 255
219 234 255
219 234 255
219 234 255
219 234 255
219 234 255
219 234 255
219 234 255
219 234 255
219 234 255
219 234 255
219 234 255
219 234 255
219 234 255
219 234 255
219 234 255
219 234 255
219 234 255
219 234 255
219 234 255
219 234 255
218 234 255
218 234 255
218 234 255
218 234 255
218 234 255
218 234 255
218 234 255
218 234 255
218 234 255
218 234 255
218 234 255
218 234 255
218 234 255
218 234 255
218 234 255
218 234 255
218 234 255
218 234 255
218 234 255
218 234 255
218 234 255
218 233 255
217 233 255
217 233 255
217 233 255
217 233 255
217 233 255
217 233 255
217 233 255
216 233 255
216 232 255
204 221 245
59 94 143
61 96 144
177 195 225
216 232 255
216 233 255
217 233 255
217 233 255
218 234 255
219 234 255
219 235 255
209 224 245
60 96 151
60 95 141
59 94 139
60 95 136
60 95 139
60 95 141
60 95 145
61 96 140
61 96 145
60 95 140
61 96 148
61 96 144
61 96 150
61 96 143
60 95 142
59 94 135
61 97 148
60 95 143
59 94 131
60 95 139
60 94 137
60 94 140
59 94 131
59 93 131
62 97 153
60 95 133
61 96 144
61 96 139
61 96 141
61 96 143
62 97 152
60 95 144
61 97 148
61 96 139
60 95 141
61 96 145
60 95 134
59 94 139
61 95 139
62 98 152
60 95 137
62 97 150
60 95 140
60 95 142
61 96 148
60 95 141
61 96 143
61 96 137
61 97 145
61 96 147
60 95 134
61 96 141
60 94 139
60 94 136
59 94 130
60 96 140
59 94 130
61 96 147
61 96 146
59 94 133
59 93 130
60 95 136
60 94 142
60 94 137
61 95 141
61 96 145
61 96 148
60 94 137
60 95 138
60 94 141
62 96 145
60 95 147
61 95 141
59 93 137
59 92 135
60 93 139
58 92 135
59 93 140
59 93 134
60 95 138
59 92 136
60 94 144
59 92 133
60 94 135
60 93 130
59 93 140
58 90 119
58 90 134
59 91 134
58 89 119
59 91 136
56 88 128
57 89 131
57 89 124
58 90 138
57 89 130
57 87 124
54 84 115
53 82 113
54 83 124
52 80 114
48 73 101
141 147 142
83 83 52
80 80 51
78 78 51
78 80 56
63 66 47
71 75 53
71 75 55
73 77 52
61 66 48
72 76 53
68 76 59
75 80 58
76 83 60
83 87 58
86 92 64
107 110 71
96 99 66
94 96 65
110 111 73
107 108 66
98 102 66
115 116 74
116 117 74
105 107 67
125 126 79
111 114 75
126 125 80
127 127 80
135 132 84
135 133 76
143 141 87
141 139 83
135 134 81
136 135 77
147 144 87
143 141 83
147 144 86
143 140 75
155 150 85
154 149 85
151 149 86
159 154 91
154 151 85
161 156 89
158 153 86
154 151 88
161 156 92
150 147 79
155 151 78
163 159 92
160 156 90
159 155 87
164 159 93
168 163 93
168 163 92
164 159 95
171 164 98
160 157 91
169 163 97
165 159 94
163 157 86
168 162 94
168 163 89
169 164 92
168 163 91
168 163 93
170 164 96
165 160 86
169 164 93
165 160 85
169 163 91
172 164 89
171 166 91
173 167 94
168 163 91
164 158 81
176 169 96
170 164 91
174 167 93
168 162 91
171 165 94
171 164 93
173 167 90
170 163 90
162 157 79
168 162 89
171 164 88
168 161 91
169 163 86
169 163 87
173 166 98
171 164 90
168 162 86
169 163 87
170 164 87
164 158 84
169 163 89
173 166 93
169 162 87
168 162 88
165 159 85
169 162 88
165 160 87
163 157 87
167 162 90
166 160 86
163 157 87
170 164 92
169 164 89
166 160 88
166 161 88
168 162 90
171 164 87
168 162 88
169 163 91
170 164 90
166 160 90
171 164 92
167 159 85
163 157 85
163 157 84
165 159 85
166 159 91
167 161 82
170 163 94
165 159 89
163 157 87
160 154 84
165 158 90
160 155 85
162 156 88
161 154 87
162 157 85
165 157 88
162 156 82
163 158 88
161 155 87
160 154 82
160 155 80
162 154 82
165 158 85
165 160 87
160 153 85
155 149 80
150 145 74
161 155 90
162 156 85
153 147 76
219 234 255
219 234 255
219 234 255
219 234 255
219 234 255
219 234 255
219 234 255
219 234 255
219 234 255
219 234 255
219 234 255
219 234 255
219 234 255
219 234 255
219 234 255
219 234 255
219 234 255
219 234 255
219 234 255
219 234 255
219 234 255
219 234 255
219 234 255
219 234 255
219 234 255
219 234 255
219 234 255
219 234 255
219 234 255
219 234 255
219 234 255
219 234 255
219 234 255
219 234 255
219 234 255
219 234 255
219 234 255
219 234 255
219 234 255
219 234 255
219 234 255
219 234 255
219 234 255
219 234 255
219 234 255
219 234 255
219 234 255
219 234 255
219 234 255
219 234 255
219 234 255
219 234 255
219 234 255
219 234 255
219 234 255
219 234 255
219 234 255
219 234 255
219 234 255
219 234 255
219 234 255
219 234 255
219 234 255
219 234 255
219 234 255
219 234 255
219 234 255
219 234 255
219 234 255
219 234 255
219 234 255
219 234 255
219 234 255
219 234 255
219 234 255
219 234 255
219 234 255
219 234 255
219 234 255
219 234 255
219 234 255
219 234 255
219 234 255
219 234 255
219 234 255
219 234 255
219 234 255
219 234 255
219 234 255
219 234 255
219 234 255
219 234 255
219 234 255
219 234 255
219 234 255
219 234 255
219 234 255
219 234 255
219 234 255
219 234 255
219 234 255
219 234 255
219 234 255
219 234 255
219 234 255
219 234 255
219 234 255
219 234 255
219 234 255
219 234 255
219 234 255
219 234 255
219 234 255
219 234 255
219 234 255
219 234 255
219 234 255
219 234 255
219 234 255
219 234 255
219 234 255
218 234 255
218 234 255
218 234 255
218 234 255
218 234 255
218 234 255
218 234 255
218 234 255
218 234 255
218 234 255
218 234 255
218 233 255
217 233 255
217 233 255
217 233 255
217 233 255
216 233 255
92 119 166
61 96 145
125 148 190
216 233 255
217 233 255
217 233 255
218 233 255
218 234 255
219 234 255
220 235 255
191 207 228
59 94 144
60 95 140
61 96 142
59 94 129
59 94 133
61 97 149
61 96 142
62 97 151
60 95 137
61 96 143
61 96 149
60 95 137
60 95 136
60 95 135
61 96 145
61 96 144
61 96 142
60 95 139
60 95 137
61 95 144
60 95 139
61 96 140
62 97 152
62 97 143
61 97 140
61 97 149
61 96 141
61 96 139
60 96 141
60 95 135
61 96 143
61 96 140
61 96 144
60 96 144
61 97 147
59 93 129
61 96 144
60 95 141
60 96 144
61 95 144
61 96 145
60 95 142
61 96 143
60 95 142
61 95 139
61 96 140
60 95 142
59 94 135
60 95 141
59 94 133
59 93 141
60 95 134
62 97 150
61 96 142
60 95 140
60 95 139
61 96 144
60 95 141
60 95 137
61 96 150
61 95 144
60 95 140
60 95 135
59 94 136
60 94 140
60 94 138
61 96 144
60 94 136
60 94 128
60 94 129
59 93 137
59 94 141
60 94 128
60 94 137
60 94 147
58 91 130
59 93 131
60 94 138
59 92 134
59 93 133
60 94 140
58 90 128
59 92 138
59 93 139
58 92 127
59 92 137
57 89 119
60 94 139
57 89 127
59 92 137
59 92 141
54 84 111
58 90 132
57 89 125
57 89 135
55 85 119
55 86 119
57 89 131
55 84 122
54 83 114
49 74 103
50 75 103
83 86 76
90 88 53
68 69 44
64 67 47
56 60 45
61 65 47
60 63 45
64 69 46
70 75 54
57 65 45
79 84 60
69 75 53
76 80 55
85 88 60
77 82 53
103 104 66
94 96 63
79 83 52
94 98 64
98 101 66
109 110 69
94 98 65
121 122 76
116 117 73
126 125 82
121 119 69
122 123 76
129 128 81
131 131 79
122 122 76
145 141 83
138 136 83
136 135 82
129 128 78
148 145 90
146 143 82
150 147 87
150 146 90
144 141 79
154 150 91
157 153 93
146 143 79
155 151 86
157 153 89
161 156 89
157 152 90
159 155 87
158 154 90
159 155 93
152 148 82
160 156 85
157 154 93
161 156 92
160 156 85
162 156 92
162 157 90
168 162 92
165 160 87
160 156 89
165 160 89
166 161 93
164 158 87
171 164 89
162 158 88
166 160 88
173 167 99
170 164 90
162 157 86
174 167 94
170 164 88
169 164 94
169 164 89
170 165 94
173 166 94
169 163 89
172 166 92
173 166 89
172 166 92
173 166 94
169 163 93
170 164 89
173 166 96
172 166 93
170 164 88
174 168 93
168 162 85
169 163 87
167 161 85
170 164 95
172 165 90
170 164 92
170 163 93
172 166 90
169 163 84
173 166 94
166 161 93
173 166 93
173 166 94
167 161 84
172 164 90
164 158 83
171 163 96
171 164 96
163 157 82
162 156 79
169 162 86
165 159 87
164 158 87
168 162 88
166 160 87
168 161 83
164 159 83
164 158 84
161 156 86
172 166 92
168 162 87
165 159 84
168 161 89
161 155 84
168 161 89
164 158 85
166 160 87
162 155 84
162 156 80
159 154 87
164 159 87
160 153 83
165 159 89
158 153 74
160 154 84
157 151 81
162 155 86
160 154 83
167 160 87
160 155 80
170 162 92
158 153 82
166 159 90
164 158 87
164 157 83
167 161 92
161 155 84
161 155 87
159 152 78
156 149 79
159 154 80
161 155 85
163 157 85
155 150 80
219 234 255
219 234 255
219 234 255
219 234 255
219 234 255
219 234 255
219 234 255
219 234 255
219 234 255
219 234 255
219 235 255
219 235 255
219 235 255
219 235 255
219 235 255
219 235 255
219 235 255
219 235 255
220 235 255
220 235 255
220 235 255
220 235 255
220 235 255
220 235 255
220 235 255
220 235 255
220 235 255
220 235 255
220 235 255
220 235 255
220 235 255
220 235 255
220 235 255
220 235 255
220 235 255
220 235 255
220 235 255
220 235 255
220 235 255
220 235 255
220 235 255
220 235 255
220 235 255
220 235 255
220 235 255
220 235 255
220 235 255
220 235 255
220 235 255
220 235 255
220 235 255
220 235 255
220 235 255
220 235 255
220 235 255
220 235 255
220 235 255
220 235 255
220 235 255
220 235 255
220 235 255
220 235 255
220 235 255
220 235 255
220 235 255
220 235 255
220 235 255
220 235 255
220 235 255
220 235 255
220 235 255
220 235 255
220 235 255
220 235 255
220 235 255
220 235 255
220 235 255
220 235 255
220 235 255
220 235 255
220 235 255
220 235 255
220 235 255
219 235 255
220 235 255
220 235 255
220 235 255
219 235 255
219 235 255
219 235 255
219 235 255
219 235 255
219 235 255
219 235 255
219 235 255
219 235 255
219 235 255
219 234 255
219 234 255
219 234 255
219 234 255
219 234 255
219 234 255
219 234 255
219 234 255
219 234 255
219 234 255
219 234 255
219 234 255
219 234 255
219 234 255
219 234 255
219 234 255
219 234 255
219 234 255
219 234 255
219 234 255
219 234 255
219 234 255
219 234 255
219 234 255
219 234 255
219 234 255
219 234 255
219 234 255
219 234 255
219 234 255
219 234 255
219 234 255
219 234 255
218 234 255
218 234 255
218 234 255
218 234 255
218 234 255
218 234 255
217 233 255
217 233 255
123 146 181
59 94 141
59 93 135
207 223 246
217 233 255
218 234 255
218 234 255
219 234 255
219 234 255
220 235 255
196 212 237
60 95 135
60 95 141
61 97 150
61 96 140
60 96 149
61 96 140
61 95 137
60 95 148
59 94 133
61 96 144
60 95 139
61 96 143
61 97 144
60 95 139
59 94 134
61 95 140
60 95 139
60 95 136
61 96 143
61 96 149
61 95 144
60 94 137
61 97 149
61 96 148
61 96 142
60 95 136
62 97 151
60 94 131
61 97 148
62 97 153
61 96 139
60 95 133
60 95 140
61 96 142
61 95 135
60 95 136
59 94 139
61 97 143
59 94 130
61 96 140
61 96 140
62 97 149
60 94 145
61 96 137
61 95 136
60 95 137
62 97 153
60 95 136
61 95 141
60 95 141
61 96 144
60 95 140
61 96 147
61 96 137
60 95 134
60 94 133
60 95 135
61 96 145
60 94 140
59 94 140
60 95 133
60 95 135
61 95 136
61 95 136
59 93 135
60 95 145
61 95 141
60 96 143
59 93 129
59 94 135
59 93 138
60 95 144
61 96 141
60 94 133
59 92 125
60 94 138
59 92 127
59 92 135
60 94 139
59 93 136
60 94 142
61 95 149
59 92 128
59 91 137
59 91 135
58 90 128
58 92 136
58 91 135
58 90 129
60 94 139
59 92 132
58 90 124
57 88 117
58 90 139
57 88 122
57 88 125
57 89 130
54 82 109
52 82 123
51 79 109
50 76 95
52 79 115
77 82 76
71 70 44
85 83 53
50 52 31
51 55 39
53 57 39
65 70 49
59 64 47
64 68 47
67 73 52
45 51 38
61 66 44
69 74 53
85 89 59
80 86 57
82 87 57
88 92 62
88 90 60
99 103 70
96 98 63
110 111 72
103 105 65
105 107 65
118 117 69
120 119 71
127 127 79
131 130 79
131 130 79
131 131 79
125 125 80
132 131 78
131 131 77
136 134 82
135 134 79
133 132 77
146 143 81
140 138 78
150 147 86
147 144 82
141 138 80
155 151 88
153 150 87
150 146 81
146 143 80
157 153 89
154 150 82
149 145 81
154 150 82
157 153 85
160 155 85
157 153 89
159 155 83
163 157 85
157 153 81
164 159 87
165 160 88
165 160 89
162 157 85
167 161 86
165 160 90
168 162 96
162 157 88
166 161 90
168 162 92
171 164 92
168 162 91
169 163 92
169 164 91
166 161 87
169 163 91
168 162 85
170 164 89
167 162 90
169 163 86
170 164 93
168 163 89
169 164 87
171 165 94
174 167 94
174 167 93
171 165 89
171 166 90
169 163 89
170 163 84
170 164 87
167 162 87
167 161 82
170 163 87
169 163 91
174 166 98
169 163 87
170 164 86
173 166 93
176 169 97
168 162 89
170 164 86
172 164 90
169 162 88
167 162 83
170 164 93
170 163 88
168 162 86
165 159 80
165 159 80
169 162 87
167 160 88
164 158 78
166 160 82
175 167 87
167 161 85
167 159 87
168 162 86
167 160 89
166 159 84
165 158 85
167 160 87
163 157 79
167 161 89
165 158 86
164 158 84
163 157 77
164 158 81
162 156 83
156 149 82
168 160 90
163 158 84
167 159 89
165 159 87
167 160 89
157 152 75
161 155 86
155 148 81
161 155 81
155 150 72
160 154 89
158 152 83
164 158 88
172 165 94
159 154 79
159 154 83
156 149 81
163 157 83
159 152 84
152 147 77
155 149 78
161 155 80
153 147 76
158 152 86
148 143 72
220 235 255
220 235 255
220 235 255
220 235 255
220 235 255
220 235 255
220 235 255
220 235 255
220 235 255
220 235 255
220 235 255
220 235 255
220 235 255
220 235 255
220 235 255
220 235 255
220 235 255
220 235 255
220 235 255
220 235 255
220 235 255
220 235 255
220 235 255
220 235 255
220 235 255
220 235 255
220 235 255
220 235 255
220 235 255
220 235 255
220 235 255
220 235 255
220 235 255
220 235 255
220 235 255
220 235 255
220 235 255
220 235 255
220 235 255
220 235 255
220 235 255
220 235 255
220 235 255
220 235 255
220 235 255
220 235 255
220 235 255
220 235 255
220 235 255
220 235 255
220 235 255
220 235 255
220 235 255
220 235 255
220 235 255
220 235 255
220 235 255
220 235 255
220 235 255
220 235 255
220 235 255
220 235 255
220 235 255
220 235 255
220 235 255
220 235 255
220 235 255
220 235 255
220 235 255
220 235 255
220 235 255
220 235 255
220 235 255
220 235 255
220 235 255
220 235 255
220 235 255
220 235 255
220 235 255
220 235 255
220 235 255
220 235 255
220 235 255
220 235 255
220 235 255
220 235 255
220 235 255
220 235 255
220 235 255
220 235 255
220 235 255
220 235 255
220 235 255
220 235 255
220 235 255
220 235 255
220 235 255
220 235 255
220 235 255
220 235 255
220 235 255
220 235 255
220 235 255
220 235 255
220 235 255
220 235 255
220 235 255
220 235 255
220 235 255
220 235 255
220 235 255
220 235 255
220 235 255
220 235 255
220 235 255
220 235 255
220 235 255
219 235 255
219 235 255
219 235 255
219 235 255
219 234 255
219 234 255
219 234 255
219 234 255
219 234 255
219 234 255
219 234 255
219 234 255
219 234 255
219 234 255
219 234 255
219 234 255
219 234 255
219 234 255
218 234 255
218 234 255
218 234 255
131 151 181
59 94 129
59 94 141
176 194 221
218 234 255
218 234 255
219 234 255
219 234 255
219 235 255
220 235 255
186 202 228
60 94 142
60 95 140
60 95 130
61 96 139
61 95 140
60 95 139
59 93 125
61 96 134
61 96 145
60 95 137
60 96 141
60 95 142
61 96 151
62 97 145
60 95 142
60 95 143
61 96 137
61 96 135
61 96 136
60 95 149
61 96 145
61 96 140
61 96 137
59 94 131
59 94 129
60 95 134
60 94 137
62 97 148
61 97 148
61 96 135
61 96 137
61 96 142
60 95 143
60 95 136
61 96 139
60 95 131
60 95 139
61 96 141
60 95 137
60 94 137
60 95 135
60 94 135
60 94 133
61 96 147
59 94 135
61 95 145
60 95 136
61 96 147
60 94 134
60 94 140
60 95 137
62 97 150
59 94 130
61 96 142
60 95 130
61 96 141
61 96 148
61 96 141
61 96 143
61 96 148
60 95 143
60 95 144
59 94 137
60 95 141
60 95 143
60 95 139
60 94 132
60 93 130
59 93 136
59 93 134
59 93 130
59 93 132
59 93 141
60 94 139
59 93 139
59 93 130
61 96 145
60 95 136
59 93 135
60 94 137
58 91 139
60 93 139
59 92 132
61 95 142
59 93 134
59 92 137
58 91 130
58 91 122
58 90 135
58 91 140
59 92 137
56 87 119
56 88 124
58 90 128
54 83 113
58 90 125
57 88 118
52 82 115
54 83 118
53 82 118
52 81 109
51 78 109
69 75 71
80 80 52
83 82 52
55 57 38
61 63 43
47 52 37
64 69 49
56 61 44
50 57 42
50 58 42
69 75 53
62 68 46
68 75 55
79 84 59
72 78 55
93 97 65
81 85 53
98 100 64
92 96 61
92 95 62
115 115 70
111 111 71
109 110 68
109 111 67
121 121 72
117 117 75
128 127 78
121 122 76
139 136 83
134 132 77
133 132 80
126 126 76
144 140 86
141 139 84
139 136 79
144 142 78
131 131 73
149 146 81
147 144 83
145 143 75
148 145 82
147 144 78
157 153 86
160 155 88
150 147 81
157 153 88
160 156 85
154 151 82
157 153 85
155 151 80
161 156 89
162 157 89
159 155 91
159 155 82
153 150 83
163 158 91
159 155 80
164 159 87
156 152 79
167 162 88
166 160 90
162 158 84
166 160 85
168 161 92
165 160 91
164 158 82
168 161 89
172 165 90
170 164 89
165 160 84
171 164 89
168 163 89
168 162 91
167 161 92
166 161 92
172 166 92
172 166 93
167 162 80
165 160 86
170 163 89
163 158 82
173 166 91
173 167 93
174 166 94
163 158 80
168 162 85
173 166 90
165 160 84
163 158 76
169 162 84
169 163 90
166 160 85
165 159 79
165 159 87
172 166 90
171 164 87
169 162 93
172 164 88
170 164 84
168 163 87
165 159 80
171 164 89
170 163 89
164 158 86
164 157 84
165 160 84
158 152 79
171 164 87
165 160 87
167 159 90
163 157 87
164 158 84
170 163 88
170 163 91
167 160 84
169 162 86
166 159 83
167 160 87
164 157 85
165 159 85
167 160 86
164 158 90
171 164 86
166 160 86
166 159 89
164 157 86
163 157 88
156 150 77
158 151 74
158 152 78
164 158 85
160 154 81
164 157 83
162 156 75
163 157 82
166 159 86
159 153 83
158 152 85
151 147 75
165 159 86
163 156 90
155 150 75
162 155 80
160 153 83
151 146 75
158 152 80
156 150 75
156 151 80
157 151 81
220 235 255
220 235 255
220 235 255
220 235 255
220 235 255
220 235 255
220 235 255
220 235 255
220 235 255
220 235 255
220 235 255
220 235 255
220 235 255
220 235 255
220 235 255
220 235 255
220 235 255
220 235 255
220 235 255
220 235 255
220 235 255
220 235 255
220 235 255
220 235 255
220 235 255
220 235 255
220 235 255
220 235 255
220 235 255
220 235 255
220 235 255
220 235 255
220 235 255
220 235 255
220 235 255
220 235 255
220 235 255
220 235 255
220 235 255
220 235 255
220 235 255
220 235 255
220 235 255
220 235 255
220 235 255
220 235 255
220 235 255
220 235 255
220 235 255
220 235 255
220 235 255
220 235 255
220 235 255
220 235 255
220 235 255
220 235 255
220 235 255
220 235 255
220 235 255
220 235 255
220 235 255
220 235 255
220 235 255
220 235 255
220 235 255
220 235 255
220 235 255
220 235 255
220 235 255
220 235 255
220 235 255
220 235 255
220 235 255
220 235 255
220 235 255
220 235 255
220 235 255
220 235 255
220 235 255
220 235 255
220 235 255
220 235 255
220 235 255
220 235 255
220 235 255
220 235 255
220 235 255
220 235 255
220 235 255
220 235 255
220 235 255
220 235 255
220 235 255
220 235 255
220 235 255
220 235 255
220 235 255
220 235 255
220 235 255
220 235 255
220 235 255
220 235 255
220 235 255
220 235 255
220 235 255
220 235 255
220 235 255
220 235 255
220 235 255
220 235 255
220 235 255
220 235 255
220 235 255
220 235 255
220 235 255
220 235 255
220 235 255
220 235 255
220 235 255
220 235 255
220 235 255
220 235 255
220 235 255
220 235 255
220 235 255
220 235 255
220 235 255
220 235 255
220 235 255
220 235 255
220 235 255
220 235 255
219 235 255
219 234 255
219 234 255
219 234 255
219 234 255
219 234 255
156 174 199
59 94 136
61 96 147
141 161 189
219 234 255
219 234 255
219 234 255
220 235 255
220 235 255
220 235 255
167 185 215
60 95 135
59 94 136
61 96 140
59 94 139
61 96 137
61 96 145
59 94 130
59 93 131
61 96 139
61 96 145
60 95 134
60 94 137
60 95 136
61 96 135
60 95 135
60 95 137
60 94 130
61 96 143
61 96 135
61 97 142
60 95 139
61 96 142
60 95 135
61 95 135
62 97 143
61 96 148
60 95 135
59 94 129
60 94 131
59 94 129
61 96 144
60 95 134
60 95 134
60 95 131
59 94 131
60 94 140
61 96 141
60 95 137
61 96 142
60 94 133
62 97 148
61 96 136
60 95 144
60 94 125
59 94 129
60 95 133
59 94 136
61 96 143
61 95 134
60 95 140
60 95 136
60 94 134
61 96 147
61 95 144
60 95 137
60 94 136
59 94 139
59 94 132
60 95 135
61 95 135
58 91 122
59 93 129
60 95 131
61 96 146
60 95 138
59 94 141
59 93 139
61 96 141
60 95 136
59 93 133
59 93 136
59 93 124
59 93 127
60 94 135
61 95 144
60 94 134
59 92 129
60 93 139
60 94 142
60 95 139
58 91 126
60 94 136
60 94 139
57 89 123
58 91 131
58 90 130
58 90 131
57 89 127
58 91 133
58 90 126
59 92 130
57 90 130
56 87 116
57 89 131
57 88 124
56 88 121
54 85 118
55 86 123
55 86 116
54 82 116
50 76 110
49 74 99
69 76 69
67 65 33
42 45 27
59 62 43
50 55 37
56 60 41
47 51 32
51 59 44
52 59 44
63 68 49
51 57 40
68 73 49
60 67 45
69 74 52
81 86 57
99 101 64
92 94 61
92 96 65
89 92 58
98 99 61
97 100 63
113 114 68
104 104 62
111 111 62
109 110 65
114 115 62
116 115 65
112 114 71
114 115 67
128 128 82
141 139 81
130 129 75
131 131 78
140 138 78
143 141 80
135 132 74
144 142 84
141 139 79
151 147 82
154 150 86
145 142 82
149 147 83
140 138 74
141 139 73
159 155 84
155 150 88
149 147 84
154 149 78
159 154 88
160 156 87
152 148 80
168 163 89
166 161 93
162 158 89
158 153 83
162 157 87
163 158 89
159 154 84
162 158 84
164 159 82
160 156 84
163 158 80
168 162 84
166 160 86
164 159 80
165 160 87
175 168 96
170 165 93
168 162 82
169 163 85
165 159 82
170 163 90
166 160 86
166 161 88
168 162 86
168 162 80
173 166 95
172 165 90
172 165 84
169 163 84
175 168 93
171 165 89
168 163 81
172 166 91
170 163 89
170 164 84
171 164 95
168 163 87
173 166 90
172 166 93
171 165 91
170 163 90
167 160 87
172 165 91
168 162 78
170 164 88
166 161 81
167 161 86
164 158 87
166 160 84
170 163 84
164 157 86
169 163 84
167 160 84
167 161 85
164 158 87
163 156 80
169 163 89
169 162 88
169 163 88
162 156 82
163 157 80
164 158 80
164 158 79
163 157 77
165 159 91
168 162 85
169 163 89
164 157 83
162 156 84
165 158 81
165 159 87
163 156 84
164 158 82
160 154 85
170 163 93
164 159 80
162 156 84
156 151 80
160 155 84
157 151 79
155 150 78
155 150 78
165 158 91
157 152 74
165 159 87
167 160 84
158 153 81
155 150 81
161 155 84
160 153 87
159 152 81
161 155 83
158 152 79
159 154 81
157 152 79
158 152 80
154 148 81
153 147 77
220 235 255
220 235 255
220 235 255
220 235 255
220 235 255
220 235 255
220 235 255
220 235 255
220 235 255
220 235 255
220 235 255
220 235 255
220 235 255
220 235 255
221 235 255
221 235 255
221 235 255
221 235 255
221 235 255
221 235 255
221 235 255
221 235 255
221 235 255
221 235 255
221 235 255
221 235 255
221 235 255
221 235 255
221 235 255
221 235 255
221 235 255
221 235 255
221 235 255
221 235 255
221 235 255
221 235 255
221 235 255
221 235 255
221 235 255
221 235 255
221 235 255
221 235 255
221 235 255
221 235 255
221 235 255
221 235 255
221 235 255
221 235 255
221 235 255
221 235 255
221 235 255
221 235 255
221 235 255
221 235 255
221 235 255
221 235 255
221 235 255
221 235 255
221 235 255
221 235 255
221 235 255
221 235 255
221 235 255
221 235 255
221 235 255
221 235 255
221 235 255
221 235 255
221 235 255
221 235 255
221 235 255
221 235 255
221 235 255
221 235 255
221 235 255
221 235 255
221 235 255
221 235 255
221 235 255
221 235 255
221 235 255
221 235 255
221 235 255
221 235 255
221 235 255
221 235 255
221 235 255
221 235 255
221 235 255
221 235 255
221 235 255
221 235 255
220 235 255
221 235 255
220 235 255
220 235 255
220 235 255
220 235 255
220 235 255
220 235 255
220 235 255
220 235 255
220 235 255
220 235 255
220 235 255
220 235 255
220 235 255
220 235 255
220 235 255
220 235 255
220 235 255
220 235 255
220 235 255
220 235 255
220 235 255
220 235 255
220 235 255
220 235 255
220 235 255
220 235 255
220 235 255
220 235 255
220 235 255
220 235 255
220 235 255
220 235 255
220 235 255
220 235 255
220 235 255
220 235 255
220 235 255
220 235 255
220 235 255
220 235 255
220 235 255
220 235 255
220 235 255
220 235 255
152 171 198
59 93 129
60 95 137
124 145 174
220 235 255
220 235 255
220 235 255
220 235 255
220 235 255
221 235 255
166 183 209
59 93 129
61 97 147
59 94 143
59 94 137
59 93 130
60 95 140
60 94 134
60 95 135
61 95 140
59 94 136
61 96 148
60 95 139
59 94 134
61 96 139
60 95 136
60 95 140
59 93 140
59 94 137
59 94 135
60 95 136
60 94 130
60 95 135
61 96 137
61 96 140
60 95 140
61 95 141
59 94 133
61 96 136
59 94 131
61 96 143
60 94 130
60 95 136
60 94 133
59 93 124
62 97 151
60 94 131
59 93 131
59 94 131
60 95 131
61 95 142
60 95 135
60 95 140
60 95 131
61 96 143
60 95 137
61 96 145
61 96 142
59 93 131
60 94 131
60 95 139
61 96 143
59 93 131
59 94 129
60 95 137
59 94 131
60 94 134
62 97 152
59 94 133
60 94 131
60 95 140
60 95 143
60 95 140
58 92 129
61 96 137
58 92 128
60 94 134
61 96 147
61 95 139
60 95 139
58 92 118
61 96 143
59 92 133
59 94 133
60 95 145
60 94 143
58 90 125
59 93 142
60 94 139
58 91 128
58 91 131
58 91 129
58 91 133
60 93 134
59 92 138
59 92 139
58 91 133
58 92 127
57 90 129
58 90 126
56 87 127
55 87 116
55 86 113
57 89 122
56 88 127
56 87 127
56 88 132
56 86 119
56 87 120
55 85 125
55 85 122
50 76 103
50 75 97
79 86 81
82 80 45
50 50 32
58 59 40
47 50 33
30 37 29
54 59 43
54 60 44
42 50 37
49 56 39
70 75 50
73 77 54
64 70 46
76 81 57
83 86 56
84 87 56
92 94 56
103 104 62
84 88 53
99 102 69
99 101 63
97 99 58
105 108 69
118 118 69
118 118 70
116 116 63
122 122 74
130 129 80
126 125 74
125 124 74
143 141 77
136 133 74
140 137 77
129 128 69
144 141 78
138 136 83
138 137 74
135 134 76
148 145 83
153 149 77
156 152 88
143 142 82
150 146 82
145 141 76
157 152 82
150 147 82
162 156 88
156 151 87
154 150 80
162 157 88
160 155 84
157 153 81
160 154 83
164 158 92
161 156 86
163 157 90
160 155 83
164 159 90
159 154 80
166 160 88
164 158 81
169 163 93
171 164 87
167 160 87
164 159 83
166 160 89
173 165 92
167 161 82
163 159 84
170 164 91
165 160 78
168 161 82
169 163 84
166 160 83
173 166 90
172 165 91
171 165 88
168 162 82
173 166 91
166 159 80
175 167 93
169 162 84
170 164 89
172 165 91
168 163 87
168 161 84
172 165 87
169 163 85
166 160 84
169 163 84
170 163 88
169 163 84
171 164 86
167 161 85
168 162 84
167 161 88
172 165 90
167 161 84
168 161 82
167 161 88
172 165 91
167 161 88
169 162 84
172 165 84
162 157 83
170 163 85
169 162 87
164 157 82
166 160 85
163 157 82
165 158 88
166 160 82
167 161 84
163 157 81
163 158 84
170 162 88
163 157 80
167 160 84
162 157 78
169 162 84
164 158 86
163 156 84
164 157 82
165 159 86
166 160 84
169 163 92
161 155 82
157 150 86
161 155 84
161 154 81
160 153 77
163 157 81
162 155 82
159 153 78
159 153 84
161 155 81
165 158 87
161 154 85
159 153 78
154 149 77
157 152 75
162 155 84
154 148 73
167 160 90
162 156 82
159 154 81
166 159 90
161 154 84
156 150 78
221 235 255
221 235 255
221 235 255
221 235 255
221 235 255
221 235 255
221 235 255
221 235 255
221 235 255
221 235 255
221 235 255
221 235 255
221 235 255
221 235 255
221 235 255
221 235 255
221 235 255
221 235 255
221 235 255
221 235 255
221 235 255
221 235 255
221 235 255
221 235 255
221 235 255
221 235 255
221 235 255
221 235 255
221 235 255
221 235 255
221 235 255
221 235 255
221 235 255
221 235 255
221 235 255
221 235 255
221 235 255
221 235 255
221 235 255
221 235 255
221 235 255
221 235 255
221 235 255
221 235 255
221 235 255
221 235 255
221 235 255
221 235 255
221 235 255
221 235 255
221 235 255
221 235 255
221 235 255
221 235 255
221 235 255
221 235 255
221 235 255
221 235 255
221 235 255
221 235 255
221 235 255
221 235 255
221 235 255
221 235 255
221 235 255
221 235 255
221 235 255
221 235 255
221 235 255
221 235 255
221 235 255
221 235 255
221 235 255
221 235 255
221 235 255
221 235 255
221 235 255
221 235 255
221 235 255
221 235 255
221 235 255
221 235 255
221 235 255
221 235 255
221 235 255
221 235 255
221 235 255
221 235 255
221 235 255
221 235 255
221 235 255
221 235 255
221 235 255
221 235 255
221 235 255
221 235 255
221 235 255
221 235 255
221 235 255
221 235 255
221 235 255
221 235 255
221 235 255
221 235 255
221 235 255
221 235 255
221 235 255
221 235 255
221 235 255
221 235 255
221 235 255
221 235 255
221 235 255
221 235 255
221 235 255
221 235 255
221 235 255
221 235 255
221 235 255
221 235 255
221 235 255
221 235 255
221 235 255
221 235 255
221 235 255
221 235 255
221 235 255
221 235 255
221 235 255
221 235 255
221 235 255
221 235 255
221 235 255
221 235 255
221 235 255
221 235 255
220 235 255
220 235 255
173 190 215
60 95 144
60 94 139
112 135 164
220 235 255
220 235 255
221 235 255
221 235 255
221 235 255
221 235 255
144 163 194
59 93 125
60 95 133
59 93 130
60 95 135
60 95 130
59 94 128
60 95 135
61 95 142
61 95 139
61 96 148
61 96 144
61 96 142
60 95 139
58 92 125
62 97 147
60 95 136
60 95 130
60 94 135
60 95 142
61 95 140
62 97 142
60 95 140
60 95 131
59 94 130
60 95 134
59 94 134
59 94 137
61 95 137
60 95 135
61 96 145
61 95 136
60 95 137
60 94 135
61 96 134
58 92 122
60 95 131
61 96 147
60 95 133
60 95 135
62 97 147
61 96 142
60 95 134
61 96 140
61 96 139
60 95 142
59 94 133
59 94 128
58 92 125
59 94 130
61 96 143
60 94 134
59 94 129
61 96 147
60 95 138
60 95 132
62 97 147
60 94 139
59 93 130
60 94 133
59 93 129
60 94 134
60 95 136
60 95 141
60 94 133
59 94 139
61 95 135
60 94 131
61 96 143
60 94 142
60 94 142
60 94 135
59 92 131
59 91 125
59 93 135
60 95 142
58 91 123
59 92 128
59 92 131
58 91 126
58 91 134
60 94 137
59 93 138
59 93 135
58 90 123
59 93 137
59 92 129
56 88 113
58 90 123
58 92 123
57 88 125
58 90 126
57 88 128
57 89 128
55 86 119
55 85 119
55 87 130
55 84 121
53 82 121
56 86 123
52 79 107
49 75 100
47 71 92
71 80 77
68 68 42
73 73 45
46 48 29
41 44 29
51 55 31
47 52 33
59 63 39
48 54 37
61 66 45
59 64 43
58 65 44
58 65 46
70 75 45
68 73 47
74 79 50
89 91 55
99 101 62
88 92 57
97 99 64
105 106 66
97 101 65
108 108 64
106 107 66
114 114 64
106 107 61
110 109 60
116 116 65
128 127 69
125 124 75
122 122 67
133 130 74
134 131 75
133 131 75
130 128 67
134 133 76
140 137 74
137 135 81
150 146 81
154 149 80
155 151 84
148 143 82
145 142 79
149 145 78
152 148 81
155 151 83
156 152 80
156 152 84
159 154 81
158 153 83
157 153 86
153 150 76
166 161 87
156 151 79
161 156 83
158 153 83
159 154 84
163 157 85
163 158 86
169 162 90
164 158 87
167 161 86
165 160 90
165 159 82
167 161 82
167 161 86
170 164 88
169 162 90
161 156 77
166 160 78
167 160 85
167 161 78
168 163 86
171 164 86
171 164 86
167 162 82
169 162 83
170 163 89
173 165 89
167 160 81
167 161 84
169 163 82
171 164 85
167 160 85
175 167 97
170 163 90
166 160 83
171 164 87
172 166 88
169 163 83
167 161 83
172 165 85
170 164 90
170 163 92
169 163 86
166 159 80
171 164 84
169 162 84
169 163 87
168 161 92
167 160 87
167 160 84
164 157 81
166 160 89
168 161 87
165 160 87
167 160 84
169 162 84
168 161 84
161 156 79
163 157 81
166 159 86
171 164 90
167 161 80
154 149 70
166 159 86
162 156 82
165 158 82
162 156 82
161 155 82
165 158 85
154 149 73
169 162 87
165 158 83
165 158 85
162 156 84
159 153 78
162 156 82
171 164 88
160 154 79
158 151 77
165 159 87
154 148 77
165 159 88
159 152 82
161 154 84
158 153 79
153 145 74
162 155 76
156 150 75
159 152 80
160 154 81
162 155 83
154 149 71
160 154 79
160 154 83
147 142 75
155 149 72
151 145 75
221 236 255
221 236 255
221 236 255
221 236 255
221 236 255
221 236 255
221 236 255
221 236 255
221 236 255
221 236 255
221 236 255
221 236 255
221 236 255
221 236 255
221 236 255
221 236 255
221 236 255
221 236 255
221 236 255
221 236 255
221 236 255
221 236 255
221 236 255
221 236 255
221 236 255
221 236 255
221 236 255
221 236 255
221 236 255
221 236 255
221 236 255
221 236 255
221 236 255
221 236 255
221 236 255
221 236 255
221 236 255
221 236 255
221 236 255
221 236 255
221 236 255
221 236 255
221 236 255
221 236 255
221 236 255
221 236 255
221 236 255
221 236 255
221 236 255
221 236 255
221 236 255
221 236 255
221 236 255
221 236 255
221 236 255
221 236 255
221 236 255
221 236 255
221 236 255
221 236 255
221 236 255
221 236 255
221 236 255
221 236 255
221 236 255
221 236 255
221 236 255
221 236 255
221 236 255
221 236 255
221 236 255
221 236 255
221 236 255
221 236 255
221 236 255
221 236 255
221 236 255
221 236 255
221 236 255
221 236 255
221 236 255
221 236 255
221 236 255
221 236 255
221 236 255
221 236 255
221 236 255
221 236 255
221 236 255
221 236 255
221 236 255
221 236 255
221 236 255
221 236 255
221 236 255
221 236 255
221 236 255
221 236 255
221 236 255
221 236 255
221 236 255
221 236 255
221 236 255
221 236 255
221 236 255
221 236 255
221 236 255
221 236 255
221 236 255
221 236 255
221 236 255
221 236 255
221 236 255
221 236 255
221 236 255
221 236 255
221 236 255
221 236 255
221 236 255
221 236 255
221 236 255
221 236 255
221 236 255
221 236 255
221 236 255
221 236 255
221 236 255
221 236 255
221 236 255
221 236 255
221 236 255
221 236 255
221 236 255
221 236 255
221 236 255
221 235 255
221 236 255
221 235 255
172 188 213
58 93 122
59 93 128
122 143 171
221 236 255
221 236 255
221 236 255
221 236 255
221 236 255
221 236 255
149 167 190
58 93 131
59 94 134
60 95 135
60 95 139
60 94 134
60 95 130
60 95 140
60 95 134
60 95 144
60 94 130
61 95 145
60 95 139
59 93 130
60 95 136
59 94 133
59 94 128
61 96 131
60 95 139
60 95 137
60 95 136
61 96 141
60 96 137
61 96 140
60 95 139
59 94 129
61 96 143
60 95 129
60 94 133
60 94 137
61 96 141
58 93 130
60 95 130
59 94 126
61 96 141
61 96 144
61 96 139
60 95 139
60 94 136
59 93 129
61 96 140
60 95 134
62 97 147
60 94 133
60 96 142
60 95 137
59 94 133
61 95 137
60 94 133
61 96 141
59 93 128
59 93 133
60 94 134
60 95 142
59 94 130
59 94 136
59 93 131
60 95 140
59 93 128
60 94 136
58 92 125
59 94 130
59 92 135
60 95 138
61 95 139
61 96 145
59 93 134
61 96 141
59 93 128
60 94 139
60 94 142
59 92 141
60 94 132
59 94 134
60 94 136
60 95 140
59 92 124
60 94 139
59 92 135
60 94 136
58 91 117
58 91 132
59 93 132
59 92 134
59 93 131
58 90 124
58 90 132
58 91 131
59 91 128
59 91 133
58 91 128
58 90 127
57 89 124
56 87 114
57 88 121
56 87 118
55 84 122
55 85 114
54 84 117
53 83 121
53 82 110
52 80 108
49 75 103
44 60 60
86 83 43
57 59 32
33 38 23
36 39 21
45 49 27
31 42 28
49 55 35
42 48 30
53 60 42
59 65 38
65 71 52
55 62 44
78 81 53
77 82 58
72 76 50
73 79 47
96 98 57
90 93 57
94 97 57
97 100 64
106 106 59
108 109 63
112 112 64
104 106 65
116 116 65
114 114 59
128 126 77
125 124 67
128 128 74
135 133 76
128 128 76
140 137 77
135 133 71
134 131 70
134 133 73
137 134 70
149 146 81
150 145 82
147 143 75
140 137 73
146 143 71
137 136 69
145 141 82
152 148 77
151 147 83
154 151 83
151 147 85
156 152 80
156 152 75
165 159 85
157 151 77
154 150 80
165 160 85
158 153 75
163 157 86
157 153 80
165 158 86
166 160 88
163 157 86
161 156 80
160 155 78
168 162 85
160 155 80
170 164 88
167 161 86
170 163 91
166 159 86
164 159 82
172 165 89
169 163 85
170 164 88
165 159 80
169 163 82
169 162 82
169 164 89
167 161 82
167 161 88
168 162 83
168 162 89
163 158 82
167 161 79
173 165 87
169 162 87
172 164 86
171 165 94
171 164 86
167 161 80
172 165 82
174 166 90
169 162 88
171 164 88
172 165 89
167 161 82
169 162 88
171 165 87
167 161 81
170 163 87
167 161 84
168 161 82
167 159 87
167 161 81
170 163 87
165 157 74
164 158 80
164 159 79
166 159 81
171 164 90
161 155 78
163 157 84
160 154 80
168 160 86
157 151 79
171 164 90
166 159 80
171 163 87
166 159 80
168 161 83
165 158 84
163 157 75
164 158 85
167 161 87
162 156 82
163 157 82
165 158 83
168 161 81
158 152 78
164 157 87
165 159 80
161 154 78
159 152 76
166 159 79
164 157 85
162 157 81
165 159 84
161 154 86
158 152 79
160 153 79
161 154 80
155 150 75
157 151 80
156 150 77
149 143 67
161 154 80
156 150 76
157 150 75
155 150 75
160 153 83
156 150 79
222 236 255
222 236 255
222 236 255
222 236 255
222 236 255
222 236 255
222 236 255
222 236 255
222 236 255
222 236 255
222 236 255
222 236 255
222 236 255
222 236 255
222 236 255
222 236 255
222 236 255
222 236 255
222 236 255
222 236 255
222 236 255
222 236 255
222 236 255
222 236 255
222 236 255
222 236 255
222 236 255
222 236 255
222 236 255
222 236 255
222 236 255
222 236 255
222 236 255
222 236 255
222 236 255
222 236 255
222 236 255
222 236 255
222 236 255
222 236 255
222 236 255
222 236 255
222 236 255
222 236 255
222 236 255
222 236 255
222 236 255
222 236 255
222 236 255
222 236 255
222 236 255
222 236 255
221 236 255
222 236 255
222 236 255
222 236 255
222 236 255
222 236 255
222 236 255
222 236 255
222 236 255
222 236 255
222 236 255
222 236 255
222 236 255
222 236 255
222 236 255
222 236 255
222 236 255
222 236 255
222 236 255
222 236 255
222 236 255
222 236 255
222 236 255
222 236 255
222 236 255
222 236 255
222 236 255
222 236 255
222 236 255
222 236 255
222 236 255
222 236 255
222 236 255
222 236 255
222 236 255
222 236 255
222 236 255
222 236 255
222 236 255
222 236 255
222 236 255
222 236 255
222 236 255
222 236 255
222 236 255
222 236 255
222 236 255
222 236 255
222 236 255
222 236 255
222 236 255
222 236 255
222 236 255
222 236 255
222 236 255
222 236 255
222 236 255
222 236 255
222 236 255
222 236 255
222 236 255
222 236 255
222 236 255
222 236 255
222 236 255
222 236 255
222 236 255
222 236 255
222 236 255
222 236 255
222 236 255
222 236 255
222 236 255
222 236 255
222 236 255
222 236 255
222 236 255
222 236 255
222 236 255
222 236 255
222 236 255
222 236 255
222 236 255
222 236 255
222 236 255
222 236 255
169 186 211
59 94 140
59 93 130
104 127 157
222 236 255
222 236 255
222 236 255
222 236 255
222 236 255
222 236 255
155 173 198
61 95 135
60 95 140
59 93 131
60 95 139
60 95 135
60 95 137
61 96 142
58 92 117
59 93 136
59 94 133
61 96 136
59 94 129
61 96 141
61 96 137
60 95 137
60 94 133
61 96 139
61 95 137
59 93 128
59 94 126
60 95 128
60 94 131
60 95 135
61 96 140
60 94 136
60 95 141
60 95 137
59 93 122
59 93 134
59 94 128
60 95 144
61 96 144
61 96 143
60 95 141
60 95 139
59 93 128
60 95 131
61 96 142
58 93 126
61 95 129
61 96 143
60 95 137
60 95 142
59 93 130
60 94 131
60 95 135
59 94 136
60 95 139
60 94 129
61 96 142
59 94 132
61 95 133
60 95 137
61 96 142
60 95 140
60 94 131
59 93 139
60 94 129
58 92 133
61 95 140
60 95 133
60 94 137
59 93 130
60 93 126
59 93 134
60 95 134
60 94 131
60 95 143
60 94 139
61 96 143
59 92 125
60 94 134
60 95 136
60 95 129
61 95 134
59 92 132
58 91 131
60 93 130
58 91 132
59 93 130
58 90 128
59 93 136
58 92 131
58 91 119
60 94 142
58 90 128
57 89 131
59 92 142
57 89 130
59 91 136
58 90 124
56 88 128
57 89 130
56 88 123
54 83 120
54 84 116
53 82 104
53 82 118
54 83 111
54 82 109
55 84 115
50 76 99
46 57 55
71 70 39
48 50 32
49 50 32
44 47 30
40 46 31
33 41 28
47 52 32
43 49 29
53 58 35
49 55 33
66 70 41
78 80 46
60 67 45
69 74 49
91 92 56
82 86 48
83 87 50
79 83 53
94 97 60
101 102 65
94 97 55
107 107 63
105 107 63
124 123 71
113 114 63
119 120 70
114 114 66
121 121 66
122 121 68
138 136 71
133 132 72
132 130 73
124 123 67
133 131 76
141 138 76
132 130 73
140 137 75
149 145 83
145 142 77
147 144 80
148 143 79
150 147 75
151 147 77
147 144 71
145 142 77
152 148 82
159 154 75
158 154 82
154 150 77
155 150 78
157 153 84
148 145 76
158 153 80
162 156 87
167 160 89
157 152 81
165 160 86
156 152 77
159 153 85
164 158 82
165 160 82
169 162 89
163 158 87
167 160 86
163 159 82
169 163 90
166 160 80
166 161 87
167 161 85
167 161 87
171 164 86
167 161 82
163 158 80
166 160 80
171 165 88
174 167 89
171 165 86
169 162 82
171 164 84
168 161 80
170 163 82
170 163 84
167 161 85
171 165 87
170 163 84
167 161 89
169 163 84
169 162 82
170 164 90
167 160 78
169 163 83
166 160 78
164 157 75
169 162 83
170 163 86
169 163 85
166 160 84
163 157 80
166 159 79
169 162 85
171 164 84
165 159 84
168 162 80
166 160 85
163 158 80
168 162 80
164 158 82
161 155 76
168 161 82
163 157 76
164 157 80
161 156 78
162 156 78
163 157 79
162 155 84
159 153 80
166 158 84
167 160 81
163 156 74
167 161 81
159 153 78
158 153 75
158 152 76
168 161 85
163 156 81
161 155 81
163 156 82
167 161 85
155 150 74
163 156 76
159 153 78
163 156 82
161 154 78
160 154 77
159 154 81
163 155 80
153 147 76
163 157 81
153 148 80
156 149 79
156 150 75
159 152 75
155 150 75
156 150 78
146 141 74
153 147 75
155 148 75
167 160 84
222 236 255
222 236 255
222 236 255
222 236 255
222 236 255
222 236 255
222 236 255
222 236 255
222 236 255
222 236 255
222 236 255
222 236 255
222 236 255
222 236 255
222 236 255
222 236 255
222 236 255
222 236 255
222 236 255
222 236 255
222 236 255
222 236 255
222 236 255
222 236 255
222 236 255
222 236 255
222 236 255
222 236 255
222 236 255
222 236 255
222 236 255
222 236 255
222 236 255
222 236 255
222 236 255
222 236 255
222 236 255
222 236 255
222 236 255
222 236 255
222 236 255
222 236 255
222 236 255
222 236 255
222 236 255
222 236 255
222 236 255
222 236 255
222 236 255
222 236 255
222 236 255
222 236 255
222 236 255
222 236 255
222 236 255
222 236 255
222 236 255
222 236 255
222 236 255
222 236 255
222 236 255
222 236 255
222 236 255
222 236 255
222 236 255
222 236 255
222 236 255
222 236 255
222 236 255
222 236 255
222 236 255
222 236 255
222 236 255
222 236 255
222 236 255
222 236 255
222 236 255
222 236 255
222 236 255
222 236 255
222 236 255
222 236 255
222 236 255
222 236 255
222 236 255
222 236 255
222 236 255
222 236 255
222 236 255
222 236 255
222 236 255
222 236 255
222 236 255
222 236 255
222 236 255
222 236 255
222 236 255
222 236 255
222 236 255
222 236 255
222 236 255
222 236 255
222 236 255
222 236 255
222 236 255
222 236 255
222 236 255
222 236 255
222 236 255
222 236 255
222 236 255
222 236 255
222 236 255
222 236 255
222 236 255
222 236 255
222 236 255
222 236 255
222 236 255
222 236 255
222 236 255
222 236 255
222 236 255
222 236 255
222 236 255
222 236 255
222 236 255
222 236 255
222 236 255
222 236 255
222 236 255
222 236 255
222 236 255
222 236 255
223 236 255
223 236 255
223 236 255
223 236 255
173 189 211
59 94 126
59 93 118
121 141 169
223 236 255
223 236 255
222 236 255
222 236 255
222 236 255
222 236 255
155 173 198
61 96 147
60 94 133
59 94 129
58 92 129
58 92 124
60 95 130
61 95 133
59 93 129
58 93 126
59 94 134
59 93 125
60 95 131
61 96 140
60 94 135
58 93 130
59 93 121
61 96 141
59 93 130
60 94 128
59 93 135
59 94 126
58 93 121
60 95 142
60 94 133
62 97 145
61 96 141
60 94 134
59 94 130
59 93 126
59 93 124
59 93 128
60 94 133
59 94 129
60 95 134
60 94 131
59 93 130
59 94 136
60 95 135
60 95 130
59 94 133
59 94 130
59 93 131
58 92 124
60 95 134
58 92 118
62 97 147
59 94 130
58 91 121
59 93 133
60 95 140
60 95 143
59 94 130
59 93 133
60 95 136
60 95 130
59 93 132
59 93 126
58 92 128
59 92 125
58 92 126
58 92 125
61 97 145
59 94 133
60 94 140
59 92 134
58 92 128
60 94 132
60 94 135
58 91 118
58 92 128
59 93 126
59 93 131
60 93 128
57 90 120
60 94 139
59 93 135
60 93 133
60 94 138
59 93 139
58 92 129
58 90 132
58 91 133
56 88 119
59 92 131
59 92 136
58 91 122
58 91 118
58 91 129
57 89 124
56 88 121
58 91 134
57 88 124
56 87 119
57 88 124
55 86 124
56 86 121
56 86 115
55 83 113
50 77 100
52 79 97
49 76 98
48 73 87
63 71 70
71 69 41
60 60 34
43 46 23
48 52 28
56 59 35
40 45 30
35 40 18
53 57 35
51 54 28
58 62 37
59 64 38
58 65 48
66 70 34
73 77 45
67 75 50
76 80 52
81 86 49
84 87 51
93 96 52
91 94 54
105 106 61
98 100 57
104 105 55
109 110 61
119 118 68
119 118 61
114 114 66
121 121 66
124 122 69
129 129 73
127 126 71
127 125 64
132 130 67
124 123 61
132 129 71
125 125 66
136 134 71
148 144 78
142 139 72
145 143 71
138 136 69
145 142 76
149 144 70
151 148 76
149 145 76
151 148 78
153 150 78
155 151 76
151 147 70
150 147 76
150 146 72
152 148 76
153 148 78
164 158 84
166 160 89
161 156 77
162 157 87
162 157 82
159 154 78
158 153 79
165 159 82
164 157 76
158 154 79
161 156 71
165 159 81
160 155 78
165 159 82
170 163 86
166 160 81
164 158 78
163 157 81
171 164 93
173 165 90
166 161 84
171 164 89
169 162 86
160 155 72
167 161 80
166 159 83
173 165 90
170 164 86
167 161 84
171 164 87
164 159 78
168 162 80
168 162 87
165 159 80
169 162 87
169 163 87
166 161 79
171 164 86
165 160 77
165 159 80
165 159 80
168 162 79
166 159 79
165 159 82
164 158 79
171 163 90
174 166 89
171 164 88
166 159 79
169 162 84
170 163 87
169 162 86
160 154 80
164 158 75
166 160 81
160 155 75
168 161 84
169 161 90
165 159 80
165 158 78
161 154 75
164 157 80
163 156 78
160 154 81
160 154 80
169 163 82
164 157 79
165 159 85
163 156 81
164 157 80
164 158 83
156 150 78
165 159 80
162 156 75
161 154 82
165 158 79
158 152 78
162 157 80
164 158 82
163 156 81
163 157 84
163 157 80
159 153 75
156 150 75
161 154 79
157 151 78
165 159 82
151 146 67
160 154 79
154 148 73
155 150 73
161 154 83
155 150 78
158 151 71
155 150 80
222 236 255
222 236 255
222 236 255
222 236 255
222 236 255
222 236 255
222 236 255
222 236 255
222 236 255
222 236 255
222 236 255
222 236 255
222 236 255
222 236 255
222 236 255
222 236 255
222 236 255
222 236 255
222 236 255
222 236 255
222 236 255
222 236 255
222 236 255
222 236 255
222 236 255
222 236 255
222 236 255
222 236 255
222 236 255
222 236 255
222 236 255
222 236 255
222 236 255
222 236 255
222 236 255
222 236 255
222 236 255
222 236 255
222 236 255
222 236 255
222 236 255
222 236 255
222 236 255
222 236 255
222 236 255
222 236 255
222 236 255
222 236 255
222 236 255
222 236 255
222 236 255
222 236 255
222 236 255
222 236 255
222 236 255
222 236 255
222 236 255
222 236 255
222 236 255
222 236 255
222 236 255
222 236 255
222 236 255
222 236 255
222 236 255
222 236 255
222 236 255
222 236 255
222 236 255
222 236 255
222 236 255
222 236 255
222 236 255
222 236 255
222 236 255
222 236 255
222 236 255
222 236 255
222 236 255
222 236 255
222 236 255
222 236 255
222 236 255
222 236 255
222 236 255
222 236 255
222 236 255
222 236 255
222 236 255
222 236 255
222 236 255
222 236 255
222 236 255
222 236 255
222 236 255
222 236 255
222 236 255
222 236 255
222 236 255
222 236 255
222 236 255
222 236 255
222 236 255
222 236 255
222 236 255
222 236 255
222 236 255
222 236 255
222 236 255
222 236 255
222 236 255
222 236 255
222 236 255
222 236 255
222 236 255
222 236 255
222 236 255
222 236 255
222 236 255
223 236 255
223 236 255
223 236 255
223 236 255
223 236 255
223 236 255
223 236 255
223 236 255
223 236 255
223 236 255
223 236 255
223 236 255
223 236 255
223 236 255
223 237 255
223 237 255
223 237 255
223 237 255
224 237 255
165 181 202
58 92 125
59 94 130
162 178 203
224 237 255
223 237 255
223 237 255
223 236 255
223 236 255
222 236 255
157 175 199
58 92 124
59 94 129
61 96 140
60 95 137
59 93 125
59 94 135
60 94 137
60 95 131
61 97 145
59 94 130
61 96 149
61 97 145
60 95 133
60 95 137
59 94 130
61 96 136
59 93 126
59 93 131
61 97 148
60 94 131
60 94 137
59 93 128
61 95 140
59 93 122
60 94 129
60 94 133
59 94 131
60 95 133
60 95 130
60 95 131
59 93 124
60 95 131
60 94 131
60 95 131
58 93 126
59 94 131
60 94 135
60 95 141
60 94 130
60 94 126
59 94 130
59 93 133
59 93 133
58 91 126
59 94 128
59 94 139
60 95 134
61 96 141
59 94 129
61 95 140
59 94 130
59 94 136
59 94 134
60 94 136
60 95 134
59 93 131
60 94 121
58 92 118
58 92 133
60 95 140
60 95 137
59 94 134
58 91 128
58 92 129
59 93 134
58 92 118
59 93 125
59 93 136
59 93 131
60 94 135
59 92 133
59 93 121
61 95 137
60 95 134
60 94 137
60 93 135
57 89 115
58 92 132
58 92 133
60 93 136
59 92 126
58 92 129
57 90 117
58 91 128
57 90 119
57 90 124
59 92 132
56 88 121
58 91 126
56 88 119
57 88 129
56 87 121
56 88 125
55 86 116
55 85 112
53 82 106
54 84 118
52 81 108
53 81 114
55 83 121
52 80 108
47 71 88
58 66 63
84 83 45
53 53 19
54 56 25
47 50 31
35 40 24
53 57 29
36 42 18
40 46 25
56 62 34
51 57 32
56 63 40
67 71 45
69 72 41
70 74 39
70 74 45
76 81 49
94 94 53
87 89 50
94 96 54
95 96 52
99 100 61
98 101 58
113 113 61
123 122 70
116 117 66
117 117 58
120 120 69
126 123 65
122 121 60
124 122 67
129 128 73
119 119 68
135 132 73
141 137 69
136 133 71
135 134 67
137 133 70
155 150 77
142 139 73
149 145 79
144 140 76
146 142 75
143 140 72
141 139 75
152 148 68
151 147 80
155 150 77
150 146 75
152 148 75
157 151 82
152 148 76
151 147 78
160 155 83
156 152 80
162 157 82
158 153 81
154 149 68
164 158 73
158 154 81
165 159 82
164 159 80
163 158 79
165 158 81
166 161 81
155 150 72
164 159 76
161 155 75
164 158 81
162 156 78
169 163 87
165 158 82
170 163 87
167 161 85
168 162 84
168 162 85
170 163 85
168 161 79
165 160 81
165 159 72
169 163 89
167 161 79
166 160 77
168 162 78
165 158 83
165 158 78
170 163 82
167 161 80
173 165 85
167 160 80
164 158 77
168 162 85
166 160 80
163 157 79
171 165 89
170 163 84
163 158 80
169 163 79
168 162 81
164 158 80
169 162 89
170 163 83
172 165 89
165 159 83
160 154 74
167 160 81
166 160 80
162 158 77
165 159 81
164 157 81
171 165 85
171 164 89
165 158 84
163 157 75
166 160 78
164 158 84
158 153 75
166 159 84
162 154 81
163 157 80
161 155 79
163 156 77
159 154 73
160 155 73
160 154 79
168 161 84
158 153 75
160 155 79
160 153 77
157 150 75
158 152 73
160 153 76
159 153 81
162 155 80
165 158 84
158 152 72
159 152 77
163 157 83
166 159 80
161 155 80
149 144 68
157 151 75
157 151 76
158 151 76
145 139 70
155 148 77
163 155 84
157 150 73
161 154 80
223 236 255
223 236 255
223 236 255
223 236 255
223 236 255
223 236 255
223 236 255
223 236 255
223 236 255
223 236 255
223 236 255
223 236 255
223 236 255
223 236 255
223 236 255
223 236 255
223 236 255
223 236 255
223 236 255
223 236 255
223 236 255
223 236 255
222 236 255
223 236 255
223 236 255
223 236 255
223 236 255
222 236 255
222 236 255
223 236 255
222 236 255
222 236 255
222 236 255
222 236 255
222 236 255
222 236 255
222 236 255
222 236 255
222 236 255
222 236 255
222 236 255
222 236 255
222 236 255
222 236 255
222 236 255
222 236 255
222 236 255
222 236 255
222 236 255
222 236 255
222 236 255
222 236 255
222 236 255
222 236 255
222 236 255
222 236 255
222 236 255
222 236 255
222 236 255
222 236 255
222 236 255
222 236 255
222 236 255
222 236 255
222 236 255
222 236 255
222 236 255
222 236 255
222 236 255
222 236 255
222 236 255
222 236 255
223 236 255
223 236 255
223 236 255
223 236 255
223 236 255
223 236 255
223 236 255
223 236 255
223 236 255
223 236 255
223 236 255
223 236 255
223 236 255
223 236 255
223 236 255
223 236 255
223 236 255
223 236 255
223 236 255
223 236 255
223 236 255
223 236 255
223 236 255
223 236 255
223 236 255
223 236 255
223 236 255
223 236 255
223 236 255
223 236 255
223 236 255
223 236 255
223 236 255
223 236 255
223 236 255
223 236 255
223 236 255
223 236 255
223 236 255
223 236 255
223 236 255
223 236 255
223 236 255
223 236 255
223 236 255
223 236 255
223 237 255
223 237 255
223 237 255
223 237 255
223 237 255
223 237 255
223 237 255
223 237 255
223 237 255
223 237 255
223 237 255
223 237 255
223 237 255
223 237 255
224 237 255
224 237 255
224 237 255
224 237 255
224 237 255
217 232 234
129 150 156
58 92 126
58 92 118
180 196 206
224 237 255
224 237 255
224 237 255
223 237 255
223 236 255
222 236 255
164 181 203
59 94 130
60 95 129
59 93 136
59 93 124
60 95 130
60 94 135
59 94 126
59 94 129
57 91 113
60 94 129
59 92 128
59 93 129
60 95 131
59 94 134
59 93 137
60 94 133
60 95 135
59 93 130
59 94 133
60 95 129
59 94 135
61 95 139
59 94 124
58 92 117
58 91 125
59 93 128
60 95 126
59 94 134
59 94 130
60 95 139
59 94 130
59 93 130
60 95 133
60 95 142
59 93 129
60 95 135
61 96 142
59 93 125
60 94 137
60 95 130
59 93 128
60 95 136
59 93 129
58 91 124
60 95 133
59 92 120
60 95 137
60 94 136
59 93 128
59 94 126
60 94 125
60 94 133
59 93 133
61 96 147
60 95 134
60 95 134
59 93 136
60 95 134
60 95 136
58 92 120
59 93 129
59 93 121
60 94 138
60 94 133
57 90 124
59 93 125
57 91 122
60 94 133
60 94 138
58 92 130
60 94 138
59 93 133
58 92 120
59 92 128
57 90 117
59 93 128
58 92 130
59 93 126
59 93 136
60 93 134
58 91 129
59 92 131
58 91 126
57 89 119
59 92 133
59 93 131
57 89 126
55 87 118
58 91 117
57 90 123
58 91 124
57 89 113
56 88 107
56 87 122
56 88 134
55 86 117
54 83 100
51 79 112
55 85 114
50 77 91
50 76 105
50 77 93
75 83 68
76 75 31
59 60 25
39 43 22
44 48 21
42 46 20
37 44 31
43 48 27
39 50 36
49 54 30
61 65 37
70 73 36
53 60 35
69 74 44
74 79 47
88 91 53
88 90 52
87 90 52
93 95 50
76 80 46
104 106 59
93 95 53
102 103 52
97 99 58
101 102 53
112 111 53
107 108 54
128 126 71
121 120 61
127 125 63
121 121 66
128 127 63
124 123 65
124 123 62
124 123 62
144 141 74
143 138 71
134 130 71
142 137 72
140 136 71
142 139 72
145 140 72
143 139 68
145 141 73
146 144 74
147 144 79
153 148 75
159 154 80
160 155 78
154 150 78
160 155 83
163 157 84
146 142 70
156 151 73
150 147 72
159 154 81
162 157 82
154 149 82
153 149 75
159 154 79
166 160 81
163 157 79
167 161 82
167 161 80
166 160 84
162 156 77
166 161 81
168 161 88
160 155 80
168 160 82
160 155 80
170 163 83
164 158 82
163 158 78
168 161 85
163 158 76
163 157 80
163 157 75
165 159 81
164 158 75
164 158 82
165 159 78
168 161 79
169 162 78
171 164 84
166 160 78
167 160 82
169 162 86
165 158 70
164 157 79
164 158 80
170 163 86
166 159 81
167 161 80
166 160 80
160 154 75
170 162 82
167 161 84
167 161 87
164 157 82
166 159 81
166 160 81
167 161 78
163 158 76
163 157 75
166 159 85
166 159 84
162 156 81
172 164 87
162 156 84
167 160 83
164 158 80
160 154 76
163 157 80
165 159 79
165 158 81
162 157 76
156 149 70
159 153 75
160 155 81
165 158 81
160 153 75
160 155 79
154 148 69
160 155 71
160 153 78
158 151 78
151 145 73
170 163 86
161 154 80
159 152 72
152 147 76
156 150 76
164 158 85
157 151 78
164 157 84
163 156 84
158 152 72
152 147 72
162 156 77
153 148 65
160 154 76
158 151 76
164 157 82
159 152 79
158 151 81
163 156 79
152 146 72
158 151 78
223 237 255
223 237 255
223 237 255
223 237 255
223 237 255
223 237 255
223 237 255
223 237 255
223 237 255
223 237 255
223 237 255
223 237 255
223 237 255
223 236 255
223 236 255
223 236 255
223 236 255
223 236 255
223 236 255
223 236 255
223 236 255
223 236 255
223 236 255
223 236 255
223 236 255
223 236 255
223 236 255
223 236 255
223 236 255
223 236 255
223 236 255
223 236 255
223 236 255
223 236 255
223 236 255
223 236 255
223 236 255
223 236 255
223 236 255
223 236 255
223 236 255
223 236 255
223 236 255
223 236 255
223 236 255
223 236 255
223 236 255
223 236 255
223 236 255
223 236 255
223 236 255
223 236 255
223 236 255
223 236 255
223 236 255
223 236 255
223 236 255
223 236 255
223 236 255
223 236 255
223 236 255
223 236 255
223 236 255
223 236 255
223 236 255
223 236 255
223 236 255
223 236 255
223 236 255
223 236 255
223 236 255
223 236 255
223 236 255
223 236 255
223 236 255
223 236 255
223 236 255
223 236 255
223 236 255
223 236 255
223 236 255
223 236 255
223 236 255
223 236 255
223 236 255
223 236 255
223 236 255
223 236 255
223 236 255
223 236 255
223 236 255
223 236 255
223 237 255
223 237 255
223 237 255
223 237 255
223 237 255
223 237 255
223 237 255
223 237 255
223 237 255
223 237 255
223 237 255
223 237 255
223 237 255
223 237 255
223 237 255
223 237 255
223 237 255
223 237 255
223 237 255
223 237 255
223 237 255
223 237 255
223 237 255
223 237 255
223 237 255
223 237 255
223 237 255
223 237 255
223 237 255
223 237 255
224 237 255
224 237 255
224 237 255
224 237 255
224 237 255
224 237 255
224 237 255
224 237 255
224 237 255
224 237 255
224 237 255
224 237 255
222 236 250
209 225 209
194 213 153
175 199 36
102 128 114
59 94 126
58 91 121
164 188 36
181 203 99
208 224 204
224 237 255
224 237 255
223 237 255
223 236 255
173 189 212
59 93 128
59 94 134
60 95 136
57 91 122
59 93 133
61 96 145
58 92 117
58 93 124
59 93 125
61 95 133
60 95 129
60 95 133
59 94 124
60 94 130
61 95 133
58 92 125
59 94 131
59 94 121
60 94 122
61 96 142
59 94 121
59 93 126
59 93 126
61 95 141
60 95 139
60 95 135
59 93 120
60 95 137
60 95 141
60 94 135
59 94 126
59 93 130
60 94 135
59 93 133
60 95 141
60 94 135
60 95 134
61 96 136
59 93 126
58 92 129
60 94 131
60 95 136
62 97 139
60 95 136
60 94 134
60 94 131
59 93 125
60 95 137
60 95 134
59 94 136
60 95 143
58 92 129
60 94 134
59 93 125
59 93 126
60 94 131
59 94 135
58 91 118
59 93 133
60 94 130
60 95 134
61 95 131
59 92 115
59 94 130
59 92 125
59 93 136
59 93 135
58 91 133
60 94 135
58 92 122
59 93 136
59 92 122
60 94 136
57 90 116
60 95 131
57 90 122
58 90 118
58 92 132
58 92 117
59 92 132
58 91 129
58 92 122
56 88 119
57 89 119
57 88 116
58 91 122
56 88 125
56 87 112
57 89 118
57 88 122
57 89 123
55 87 117
56 86 116
54 86 119
56 86 116
54 83 106
51 79 104
53 83 102
54 83 118
55 84 110
49 75 91
49 74 88
63 69 48
74 72 29
60 60 32
54 56 24
44 47 21
35 41 19
53 55 28
48 50 21
54 58 27
47 51 30
42 51 30
57 62 35
64 70 44
63 66 33
70 73 41
67 71 40
77 80 44
92 95 56
86 88 50
81 85 47
102 102 53
81 84 41
102 103 49
112 110 55
111 111 54
95 98 51
115 115 62
114 114 59
113 115 60
111 110 61
127 126 66
118 117 61
120 118 64
127 126 62
128 127 68
127 125 62
139 135 73
142 138 75
135 132 73
145 140 72
144 140 73
137 135 70
150 146 74
141 138 67
151 147 75
155 150 78
148 144 75
149 144 71
149 144 71
152 148 76
153 149 72
147 143 67
156 150 71
156 151 77
158 152 77
158 153 71
164 157 79
159 153 77
166 160 82
157 151 75
161 155 78
166 160 82
158 153 75
160 154 70
165 160 82
163 157 75
159 154 71
166 160 82
166 159 80
165 159 80
157 153 68
167 160 83
162 156 80
171 164 85
166 161 71
166 161 80
164 159 83
169 162 81
168 162 86
165 159 77
163 157 77
166 160 80
169 161 82
162 157 73
166 160 79
164 158 80
167 161 81
169 163 80
168 162 77
168 161 81
171 165 86
167 161 78
170 163 77
165 158 76
162 157 73
166 159 82
163 156 75
168 162 79
170 162 84
163 157 82
166 159 73
168 163 78
163 157 78
166 160 80
166 159 84
161 155 81
168 161 83
162 155 77
166 160 74
168 161 85
167 160 81
161 155 75
167 160 78
157 152 78
161 154 71
158 152 76
165 159 80
151 146 66
168 162 80
157 151 75
158 152 75
164 158 83
164 157 78
161 155 75
165 159 80
164 157 75
160 153 75
167 160 83
160 153 75
150 146 64
159 152 72
159 152 75
164 157 78
158 151 79
156 150 69
156 150 79
150 144 69
161 155 78
159 153 76
163 156 82
158 152 76
160 154 78
146 141 71
161 154 77
153 147 70
150 144 73
162 156 81
156 150 76
150 143 71
224 237 255
224 237 255
224 237 255
224 237 255
223 237 255
223 237 255
223 237 255
223 237 255
223 237 255
223 237 255
223 237 255
223 237 255
223 237 255
223 237 255
223 237 255
223 237 255
223 237 255
223 237 255
223 237 255
223 237 255
223 237 255
223 237 255
223 237 255
223 237 255
223 237 255
223 237 255
223 237 255
223 237 255
223 237 255
223 237 255
223 237 255
223 237 255
223 237 255
223 237 255
223 237 255
223 237 255
223 237 255
223 237 255
223 237 255
223 237 255
223 237 255
223 237 255
223 237 255
223 237 255
223 237 255
223 237 255
223 237 255
223 237 255
223 237 255
223 237 255
223 237 255
223 237 255
223 237 255
223 237 255
223 237 255
223 237 255
223 237 255
223 237 255
223 237 255
223 237 255
223 237 255
223 237 255
223 237 255
223 237 255
223 237 255
223 237 255
223 237 255
223 237 255
223 237 255
223 237 255
223 237 255
223 237 255
223 237 255
223 237 255
223 237 255
223 237 255
223 237 255
223 237 255
223 237 255
223 237 255
223 237 255
223 237 255
223 237 255
223 237 255
223 237 255
223 237 255
223 237 255
223 237 255
223 237 255
223 237 255
223 237 255
223 237 255
223 237 255
223 237 255
223 237 255
223 237 255
223 237 255
223 237 255
223 237 255
223 237 255
223 237 255
223 237 255
223 237 255
223 237 255
223 237 255
223 237 255
224 237 255
224 237 255
224 237 255
224 237 255
224 237 255
224 237 255
224 237 255
224 237 255
224 237 255
224 237 255
224 237 255
224 237 255
224 237 255
224 237 255
224 237 255
224 237 255
224 237 255
224 237 255
224 237 255
224 237 255
224 237 255
224 237 255
224 237 255
224 237 255
220 233 242
208 224 206
204 221 194
190 210 133
176 199 36
174 197 0
174 198 0
175 198 0
71 102 115
59 93 130
95 122 110
174 197 0
176 199 0
174 198 0
195 214 159
224 237 254
224 237 255
223 236 255
195 211 231
58 92 120
59 93 118
58 92 120
59 93 122
58 92 120
59 93 125
59 94 133
60 94 131
60 94 131
60 95 131
60 95 129
58 92 122
59 94 130
59 94 125
58 93 126
60 94 137
60 95 128
61 96 148
60 94 136
61 96 141
60 94 133
60 95 135
60 95 133
59 94 131
59 93 134
58 92 121
60 94 133
59 93 130
60 94 128
60 95 131
59 93 133
60 94 136
59 93 125
60 95 130
59 94 130
61 96 143
60 94 126
58 92 125
60 94 136
58 92 128
59 93 130
60 94 135
59 93 133
61 95 139
60 94 134
60 94 129
61 96 135
58 92 122
60 94 130
61 96 141
60 94 137
60 95 133
59 93 122
60 94 133
60 94 135
60 94 131
58 92 130
59 93 124
60 94 134
60 94 134
61 95 141
60 94 134
59 94 128
60 94 142
59 94 126
61 96 141
58 92 124
57 91 118
60 94 132
59 93 134
59 93 127
60 94 131
60 93 138
60 94 137
59 93 124
59 94 129
58 91 120
56 87 112
57 90 118
59 93 132
58 91 125
58 91 124
58 92 124
57 89 120
58 90 127
59 92 129
57 89 122
56 88 111
56 88 121
57 89 129
56 88 127
55 85 109
55 85 117
54 83 103
54 84 116
54 83 101
55 86 115
53 82 103
52 81 110
49 74 82
49 76 100
45 69 79
92 96 76
72 72 37
61 61 29
58 59 13
46 48 18
54 56 18
38 43 22
45 51 23
51 54 23
42 49 29
42 48 22
51 57 32
64 67 37
62 67 34
75 79 40
66 73 41
84 86 42
87 89 45
75 80 45
86 88 54
99 100 51
92 95 47
112 112 57
101 101 57
105 104 58
110 109 55
124 124 67
108 109 56
119 119 61
117 116 54
125 122 63
134 131 66
125 125 69
132 129 71
126 125 65
133 131 62
133 132 60
136 133 71
139 135 67
137 134 66
137 135 70
137 134 66
136 133 65
136 133 69
142 140 74
147 142 70
153 148 77
148 143 72
145 142 65
151 147 69
147 143 73
148 145 68
155 150 75
153 149 76
160 154 72
157 153 87
159 154 78
159 154 78
164 158 77
164 158 78
161 156 76
164 158 72
166 160 86
160 154 73
162 156 73
166 159 82
166 159 83
162 156 70
163 157 77
165 159 76
163 157 76
164 157 78
167 159 85
166 160 87
167 160 82
160 155 75
169 163 82
164 158 73
162 155 75
166 160 80
172 165 85
167 161 78
167 161 84
170 164 82
164 157 77
168 161 75
166 159 79
168 161 81
159 154 75
165 159 78
163 157 75
164 158 72
167 160 83
170 164 78
164 158 74
169 161 84
165 157 78
163 156 69
167 160 81
169 163 79
166 158 78
164 158 78
166 160 84
165 160 80
160 155 77
164 158 78
161 155 78
160 154 75
164 157 78
170 163 85
161 154 76
163 157 77
166 160 78
167 160 84
163 157 76
162 156 75
163 157 76
161 155 77
163 157 78
159 153 71
163 156 80
163 157 78
162 156 78
166 159 74
165 159 80
158 152 77
159 153 76
163 157 80
156 151 74
161 155 74
156 150 74
153 148 67
154 149 71
157 150 79
161 154 80
158 152 78
157 152 76
160 153 76
153 148 74
151 146 72
156 151 73
156 150 74
155 150 75
158 150 75
152 146 72
155 148 72
155 149 73
158 152 75
157 152 76
224 237 255
224 237 255
224 237 255
224 237 255
224 237 255
224 237 255
224 237 255
224 237 255
224 237 255
224 237 255
224 237 255
224 237 255
224 237 255
224 237 255
224 237 255
224 237 255
224 237 255
224 237 255
224 237 255
224 237 255
224 237 255
224 237 255
224 237 255
223 237 255
223 237 255
223 237 255
223 237 255
223 237 255
223 237 255
223 237 255
223 237 255
223 237 255
223 237 255
223 237 255
223 237 255
223 237 255
223 237 255
223 237 255
223 237 255
223 237 255
223 237 255
223 237 255
223 237 255
223 237 255
223 237 255
223 237 255
223 237 255
223 237 255
223 237 255
223 237 255
223 237 255
223 237 255
223 237 255
223 237 255
223 237 255
223 237 255
223 237 255
223 237 255
223 237 255
223 237 255
223 237 255
223 237 255
223 237 255
223 237 255
223 237 255
223 237 255
223 237 255
223 237 255
223 237 255
223 237 255
223 237 255
223 237 255
223 237 255
223 237 255
223 237 255
223 237 255
223 237 255
224 237 255
224 237 255
224 237 255
224 237 255
224 237 255
224 237 255
224 237 255
224 237 255
224 237 255
224 237 255
224 237 255
224 237 255
224 237 255
224 237 255
224 237 255
224 237 255
224 237 255
224 237 255
224 237 255
224 237 255
224 237 255
224 237 255
224 237 255
224 237 255
224 237 255
224 237 255
224 237 255
224 237 255
224 237 255
224 237 255
224 237 255
224 237 255
224 237 255
224 237 255
224 237 255
224 237 255
224 237 255
224 237 255
224 237 255
224 237 255
224 237 255
224 237 255
224 237 255
224 237 255
224 237 255
224 237 255
224 237 255
222 235 249
216 231 231
210 226 212
198 216 167
193 212 144
181 203 92
174 197 0
175 198 0
175 198 0
174 198 0
175 198 0
175 198 0
175 198 0
169 192 31
59 93 120
60 95 129
140 163 74
176 198 0
174 197 0
172 196 0
174 198 0
207 223 201
224 237 255
223 236 255
214 228 249
60 95 135
60 94 131
60 94 125
60 94 128
59 93 124
58 92 126
60 94 135
59 93 121
59 93 121
59 94 128
61 96 136
59 93 121
60 95 135
61 95 140
59 94 129
59 93 135
60 94 130
61 96 139
60 94 137
58 92 120
59 92 130
60 94 133
60 94 137
59 93 129
60 95 139
61 95 134
61 96 143
60 95 135
59 94 130
58 92 120
59 93 131
59 94 124
59 93 124
59 94 122
58 92 126
60 94 128
60 93 136
57 91 121
60 95 141
60 95 136
58 92 124
58 92 121
59 93 122
60 94 137
60 95 126
61 96 139
59 93 133
59 93 133
58 92 124
59 93 129
58 92 114
61 96 139
60 94 131
58 92 124
60 94 128
59 93 128
58 92 131
60 94 134
58 91 128
59 94 135
59 93 132
59 93 128
60 94 136
60 94 124
60 94 133
60 94 133
58 92 126
60 93 126
58 91 120
59 92 133
59 93 125
58 92 122
57 90 115
58 91 132
58 92 125
60 94 133
56 88 117
59 92 130
59 93 130
57 90 123
57 89 115
57 90 118
58 91 129
56 88 109
59 92 139
59 92 120
57 90 126
58 91 125
58 90 134
57 89 124
57 90 132
58 90 130
55 86 113
56 86 117
55 86 119
57 88 126
53 82 105
52 82 103
51 78 93
47 72 84
46 71 81
47 70 77
143 149 138
88 85 42
65 63 34
38 40 11
48 50 16
57 59 19
38 44 23
42 48 27
51 56 27
58 62 32
49 56 26
53 58 29
61 64 33
76 78 38
72 75 36
77 78 30
75 78 40
79 83 43
83 86 39
92 93 50
95 98 46
89 91 56
103 103 53
97 98 51
117 116 57
112 112 57
110 109 55
115 116 63
130 129 61
106 107 54
123 122 61
122 121 59
128 125 59
121 120 55
136 133 66
124 123 61
132 129 62
131 129 61
142 138 73
136 133 56
142 139 70
147 143 73
143 140 63
145 141 71
146 143 67
153 148 77
148 143 71
145 140 61
152 148 72
143 139 64
149 144 73
151 146 73
155 150 79
157 153 70
150 146 75
159 154 74
149 146 63
145 142 65
156 151 75
156 151 66
158 153 72
160 155 75
165 159 78
154 149 74
163 156 78
164 158 78
162 156 80
166 159 74
162 157 73
166 159 83
166 160 80
163 158 73
166 160 77
163 156 74
161 156 77
168 161 83
165 158 79
167 161 79
169 161 79
164 158 79
166 160 78
163 157 75
167 161 79
160 155 69
164 158 74
166 160 77
168 162 76
167 162 80
169 162 79
165 159 80
164 158 79
166 159 77
165 159 70
169 161 77
160 153 71
167 161 80
162 156 75
167 161 79
167 161 75
168 161 77
169 162 83
166 159 83
165 158 73
167 160 78
165 158 82
164 156 80
172 165 89
161 155 73
162 155 77
164 158 76
163 157 79
162 155 80
164 157 82
158 153 75
165 157 74
166 158 80
163 156 81
158 152 78
163 157 77
162 156 80
162 155 79
164 158 79
165 158 80
160 153 79
167 159 83
154 149 67
162 155 78
158 153 75
156 150 75
157 150 77
158 151 75
164 157 82
159 153 75
154 148 67
159 153 80
162 156 75
162 155 76
158 152 79
157 150 79
155 149 75
156 150 76
162 155 80
156 150 74
154 148 71
152 145 70
159 154 77
154 148 80
156 150 75
156 151 74
224 237 255
224 237 255
224 237 255
224 237 255
224 237 255
224 237 255
224 237 255
224 237 255
224 237 255
224 237 255
224 237 255
224 237 255
224 237 255
224 237 255
224 237 255
224 237 255
224 237 255
224 237 255
224 237 255
224 237 255
224 237 255
224 237 255
224 237 255
224 237 255
224 237 255
224 237 255
224 237 255
224 237 255
224 237 255
224 237 255
224 237 255
224 237 255
224 237 255
224 237 255
224 237 255
224 237 255
224 237 255
224 237 255
224 237 255
224 237 255
224 237 255
224 237 255
224 237 255
224 237 255
224 237 255
224 237 255
224 237 255
224 237 255
224 237 255
224 237 255
224 237 255
224 237 255
224 237 255
224 237 255
224 237 255
224 237 255
224 237 255
224 237 255
224 237 255
224 237 255
224 237 255
224 237 255
224 237 255
224 237 255
224 237 255
224 237 255
224 237 255
224 237 255
224 237 255
224 237 255
224 237 255
224 237 255
224 237 255
224 237 255
224 237 255
224 237 255
224 237 255
224 237 255
224 237 255
224 237 255
224 237 255
224 237 255
224 237 255
224 237 255
224 237 255
224 237 255
224 237 255
224 237 255
224 237 255
224 237 255
224 237 255
224 237 255
224 237 255
224 237 255
224 237 255
224 237 255
224 237 255
224 237 255
224 237 255
224 237 255
224 237 255
224 237 255
224 237 255
224 237 255
224 237 255
224 237 255
224 237 255
224 237 255
224 237 255
224 237 255
224 237 255
224 237 255
224 237 255
224 237 255
225 237 255
223 236 250
221 235 246
208 224 203
211 226 215
199 216 173
192 212 149
187 207 122
187 207 120
179 201 51
174 197 0
176 199 0
173 197 0
176 198 0
172 197 0
174 198 0
175 198 0
176 199 0
174 197 0
175 198 0
173 197 0
175 198 0
173 197 0
148 171 57
57 90 114
81 110 117
174 197 0
171 195 0
174 198 0
173 196 0
173 197 0
184 205 102
224 237 255
223 236 255
223 236 255
90 115 142
58 92 121
59 94 126
60 95 135
58 92 121
59 93 126
60 95 137
59 93 125
61 95 144
57 91 122
60 95 136
61 95 136
59 93 129
59 93 131
58 92 120
59 93 120
58 93 118
59 94 121
60 95 137
59 94 125
59 93 134
60 95 134
59 94 122
59 93 120
59 93 129
59 93 124
60 94 131
59 93 124
60 94 131
59 94 128
59 94 125
59 93 124
60 95 134
59 94 130
59 94 129
60 94 124
60 95 126
61 95 131
59 94 124
59 93 122
59 94 130
60 94 133
59 92 129
61 96 140
60 94 131
59 93 122
58 92 125
59 93 131
57 90 121
60 94 134
59 93 129
59 93 122
59 93 120
59 93 132
60 94 133
60 94 130
59 93 130
57 90 114
59 93 130
58 91 124
60 93 135
59 92 129
59 92 128
58 92 122
60 94 131
59 93 129
57 90 116
58 92 121
59 94 129
58 92 125
59 93 133
58 92 121
59 93 135
59 93 131
59 92 126
58 90 123
56 89 115
59 92 134
58 91 123
58 90 125
59 92 124
55 86 112
58 90 131
58 92 118
58 90 118
58 91 126
58 89 118
56 88 113
57 88 118
57 89 118
57 88 121
55 86 102
54 84 110
55 85 117
55 84 107
54 83 109
55 85 115
53 81 109
54 83 106
50 76 98
49 75 92
89 105 121
177 186 195
91 88 42
72 70 30
61 61 18
66 64 27
47 49 22
57 59 8
42 46 14
44 49 22
50 56 31
47 54 31
50 57 28
67 71 33
62 66 34
70 73 35
67 71 38
70 74 39
82 84 34
80 84 43
83 85 39
88 92 49
87 89 48
89 92 46
94 98 49
105 104 57
106 106 50
109 110 54
113 114 49
121 118 54
123 123 62
129 126 67
123 122 70
129 127 63
128 125 60
138 134 70
131 129 59
139 136 65
134 131 66
128 127 56
138 136 60
132 129 65
132 129 61
145 141 66
143 140 66
147 143 68
152 147 69
141 138 66
146 141 69
145 140 60
152 148 73
147 143 65
151 146 74
150 144 69
154 149 67
153 148 77
162 156 79
159 154 71
152 146 71
154 149 68
157 152 76
162 156 73
158 152 71
158 152 70
162 156 75
158 152 69
164 158 78
159 153 68
165 159 80
159 153 71
158 152 71
164 157 78
163 158 79
166 159 79
161 156 66
163 158 70
163 157 73
165 160 76
167 160 80
161 156 79
162 156 75
163 157 76
164 157 77
163 156 71
167 160 76
169 161 80
168 162 81
162 156 76
170 162 83
163 157 82
162 155 73
166 159 82
166 160 80
165 158 80
167 159 80
168 162 80
170 163 81
163 156 77
160 155 67
165 159 80
166 159 82
163 157 76
163 157 77
161 155 75
161 154 78
166 159 83
167 159 77
165 159 74
161 154 71
164 157 76
167 160 83
159 154 68
166 160 78
164 157 80
160 154 73
159 153 79
151 148 68
164 157 80
161 155 76
162 155 75
160 154 71
168 161 78
150 144 67
157 150 74
163 157 83
160 154 71
160 154 76
162 154 78
161 155 81
163 155 83
157 152 64
156 150 74
162 156 75
157 151 72
156 149 72
155 148 73
156 150 73
160 153 77
157 151 75
160 154 75
164 156 82
159 152 76
153 147 71
156 150 71
158 152 75
153 146 71
158 151 74
160 154 74
158 151 75
152 147 70
212 227 218
223 236 252
225 238 255
225 238 255
225 237 255
225 237 255
225 237 255
225 237 255
225 237 255
224 237 255
224 237 255
224 237 255
224 237 255
224 237 255
224 237 255
224 237 255
224 237 255
224 237 255
224 237 255
224 237 255
224 237 255
224 237 255
224 237 255
224 237 255
224 237 255
224 237 255
224 237 255
224 237 255
224 237 255
224 237 255
224 237 255
224 237 255
224 237 255
224 237 255
224 237 255
224 237 255
224 237 255
224 237 255
224 237 255
224 237 255
224 237 255
224 237 255
224 237 255
224 237 255
224 237 255
224 237 255
224 237 255
224 237 255
224 237 255
224 237 255
224 237 255
224 237 255
224 237 255
224 237 255
224 237 255
224 237 255
224 237 255
224 237 255
224 237 255
224 237 255
224 237 255
224 237 255
224 237 255
224 237 255
224 237 255
224 237 255
224 237 255
224 237 255
224 237 255
224 237 255
224 237 255
224 237 255
224 237 255
224 237 255
224 237 255
224 237 255
224 237 255
224 237 255
224 237 255
224 237 255
224 237 255
224 237 255
224 237 255
224 237 255
224 237 255
224 237 255
224 237 255
224 237 255
224 237 255
224 237 255
224 237 255
224 237 255
224 237 255
224 237 255
224 237 255
224 237 255
224 237 255
224 237 255
224 237 255
224 237 255
225 237 255
225 237 255
225 237 255
222 235 249
221 235 245
214 229 223
210 226 211
211 226 212
205 222 193
203 220 186
195 213 155
191 210 135
189 209 130
183 204 95
176 199 44
175 198 0
175 198 0
176 199 0
173 197 0
175 198 0
175 198 0
174 198 0
173 197 0
173 197 0
175 198 0
175 198 0
176 199 0
174 198 0
176 199 0
173 197 0
174 198 0
175 198 0
175 198 0
174 198 0
173 197 0
174 198 0
175 198 0
125 149 74
55 88 107
137 161 76
172 196 0
173 196 0
175 198 0
174 197 0
176 199 0
175 198 0
219 233 242
223 236 255
223 237 255
119 140 167
60 95 139
59 93 128
57 91 118
58 92 126
58 92 125
57 90 108
59 93 131
59 94 125
59 93 128
60 94 130
58 92 121
59 94 133
59 93 121
59 93 125
59 93 130
58 92 117
59 94 126
60 94 133
59 93 129
60 94 129
59 93 134
60 95 131
59 93 122
59 94 115
59 93 122
58 91 120
61 96 140
59 94 133
60 94 135
59 93 114
59 93 121
60 95 137
60 95 130
57 91 120
59 93 128
57 91 111
58 92 124
58 92 131
58 92 122
59 93 130
59 93 121
58 93 126
60 95 136
60 94 129
59 93 128
60 95 143
58 92 121
60 94 139
60 95 136
59 93 117
59 93 133
60 94 137
60 95 137
58 92 128
60 95 129
57 90 120
59 93 121
58 91 117
59 93 125
60 94 126
58 91 126
59 93 132
59 92 123
59 94 133
57 90 115
58 92 129
60 93 129
58 92 129
60 94 142
59 92 128
59 93 134
58 91 120
58 92 132
57 91 129
57 89 117
57 90 116
56 89 110
58 90 117
58 91 121
57 90 119
59 93 138
57 89 128
58 91 122
56 87 107
57 90 117
57 89 122
59 91 131
56 88 118
55 87 112
56 87 116
57 88 118
54 84 109
55 86 116
55 85 111
55 86 112
55 85 127
51 79 103
50 77 93
52 79 98
50 75 87
126 139 152
199 210 220
74 72 40
70 69 23
65 66 20
57 58 18
52 52 15
44 50 20
37 42 19
47 52 26
54 57 22
67 68 21
56 61 28
66 70 31
60 64 24
63 68 38
72 75 36
69 73 36
74 78 38
84 86 44
95 95 38
99 98 43
89 92 48
109 107 54
107 106 58
102 102 42
102 102 45
113 112 60
106 107 58
117 116 56
126 124 59
111 111 52
118 118 59
123 121 55
125 123 60
120 120 61
127 125 68
134 131 61
124 122 57
134 130 69
141 137 70
136 133 65
140 137 71
140 137 65
142 138 65
141 138 66
140 137 65
150 145 75
143 141 68
151 146 70
149 145 67
148 143 72
155 149 69
153 148 74
156 151 69
159 153 72
157 151 72
150 145 71
153 148 72
163 156 78
161 155 73
156 150 69
160 154 70
163 157 75
169 163 76
165 159 80
158 153 75
157 151 69
164 158 75
164 158 78
159 154 68
163 157 71
164 158 75
160 154 80
156 151 71
164 158 73
164 158 79
168 161 76
162 156 72
166 160 76
162 156 71
167 160 78
166 159 78
166 159 73
163 157 74
163 156 75
165 159 81
163 157 74
164 157 79
164 158 80
165 157 78
157 152 70
161 155 71
162 157 73
168 161 77
159 153 74
165 158 73
168 161 78
162 156 67
163 157 71
160 154 71
165 158 75
162 155 78
165 159 73
163 157 75
165 159 71
163 156 70
158 152 68
163 157 75
159 153 72
163 156 80
159 153 69
159 154 65
166 160 79
160 153 74
170 163 83
162 155 71
156 151 63
158 153 71
158 151 75
157 152 70
164 157 79
155 150 67
157 151 68
164 157 77
160 152 73
156 150 71
159 154 68
163 157 77
159 152 76
156 150 71
158 152 74
158 152 71
157 151 73
159 152 76
159 152 70
155 149 75
159 152 71
158 151 75
157 151 72
149 144 70
157 151 68
155 149 72
151 144 68
155 149 70
157 151 77
144 139 66
153 147 67
155 148 72
156 150 67
175 198 0
176 199 44
184 205 102
189 209 130
198 216 171
201 219 182
212 228 220
211 227 215
218 232 236
222 235 246
225 238 255
225 238 255
225 238 255
225 238 255
225 238 255
225 237 255
225 237 255
225 237 255
225 237 255
225 237 255
225 237 255
225 237 255
225 237 255
225 237 255
224 237 255
224 237 255
224 237 255
224 237 255
224 237 255
224 237 255
224 237 255
224 237 255
224 237 255
224 237 255
224 237 255
224 237 255
224 237 255
224 237 255
224 237 255
224 237 255
224 237 255
224 237 255
224 237 255
224 237 255
224 237 255
224 237 255
224 237 255
224 237 255
224 237 255
224 237 255
224 237 255
224 237 255
224 237 255
224 237 255
224 237 255
224 237 255
224 237 255
224 237 255
224 237 255
224 237 255
224 237 255
224 237 255
224 237 255
224 237 255
224 237 255
224 237 255
224 237 255
224 237 255
224 237 255
224 237 255
224 237 255
224 237 255
224 237 255
224 237 255
224 237 255
224 237 255
224 237 255
224 237 255
225 237 255
225 237 255
225 237 255
225 237 255
225 237 255
225 237 255
225 237 255
225 237 255
222 235 249
221 234 244
216 231 230
215 230 227
212 227 218
209 225 207
207 223 201
205 221 194
205 222 196
202 219 181
200 217 177
195 213 151
195 214 161
186 207 122
181 203 88
180 202 72
178 200 62
173 197 0
176 199 0
174 198 0
174 198 0
174 198 0
175 198 0
174 198 0
173 197 0
176 199 0
173 197 0
175 198 0
174 197 0
173 197 0
175 198 0
175 198 0
175 198 0
175 198 0
175 198 0
174 198 0
174 198 0
175 198 0
176 199 0
173 197 0
174 197 0
174 197 0
173 197 0
175 198 0
175 198 0
172 196 0
173 196 0
174 198 0
172 194 0
173 196 0
175 198 0
94 121 97
94 120 97
171 194 18
174 198 0
172 195 0
172 195 0
174 197 0
174 198 0
173 197 0
216 231 233
222 236 255
224 237 255
150 167 185
58 91 118
60 95 134
58 92 110
59 93 121
61 95 131
60 95 125
58 92 118
59 93 120
60 94 125
61 95 136
59 94 128
60 95 133
57 91 115
58 93 122
59 93 130
58 92 122
61 95 134
59 93 126
59 93 129
60 94 130
58 92 126
60 94 128
59 93 131
60 95 133
59 93 126
59 93 128
60 95 135
60 94 128
59 93 122
60 95 122
59 93 120
59 93 128
60 94 129
57 91 117
56 89 110
59 93 125
59 93 115
59 94 122
59 93 122
60 94 126
60 94 131
60 94 134
59 93 118
58 91 117
58 92 120
60 94 135
60 94 133
58 92 135
59 93 129
59 93 121
60 94 133
59 92 134
60 94 135
60 94 134
60 93 127
61 95 132
59 93 136
59 92 120
58 93 118
59 93 133
57 89 120
58 92 133
57 91 123
60 93 128
58 91 122
58 91 113
57 91 114
56 89 120
60 94 129
57 90 120
58 92 122
58 92 117
57 89 116
60 94 137
58 91 124
58 91 123
56 88 116
58 91 120
57 90 125
58 91 126
58 91 124
57 90 115
56 88 118
58 90 121
56 88 120
56 88 115
53 84 107
56 88 109
55 87 121
57 87 116
53 82 96
56 87 121
54 84 111
55 85 112
53 81 105
54 83 107
55 84 109
51 79 100
50 76 90
48 73 90
139 153 168
223 236 254
83 82 42
68 68 32
52 52 11
57 60 14
55 58 21
61 63 19
42 47 17
40 47 25
57 62 25
48 54 27
64 69 25
64 65 16
69 72 37
65 70 35
75 78 31
70 76 43
85 86 40
80 82 39
89 89 43
88 89 42
94 95 45
89 92 46
92 93 40
91 94 33
104 104 51
105 105 50
109 107 54
136 133 68
114 113 53
114 114 50
120 119 59
126 125 64
130 127 68
124 122 55
125 123 58
139 135 71
131 129 56
135 133 56
134 132 62
135 131 59
130 127 53
148 143 75
143 139 69
149 146 66
146 142 67
145 141 63
143 139 62
153 149 69
145 141 71
153 148 68
152 148 72
150 145 75
156 150 78
145 142 67
152 146 70
153 148 71
156 151 64
156 151 67
155 150 64
152 146 61
159 153 75
151 146 62
159 153 72
158 153 69
164 157 78
158 153 73
164 158 82
161 155 76
159 154 71
158 152 70
160 155 72
160 154 66
159 154 67
156 150 71
164 157 67
166 159 78
163 156 75
166 160 80
162 155 74
162 156 68
164 157 75
160 154 74
160 155 63
162 156 71
165 159 80
161 155 68
161 155 71
161 155 76
163 156 69
165 159 75
164 157 70
162 156 72
165 159 80
167 159 80
163 156 68
159 152 74
159 154 70
164 158 72
160 155 69
165 158 79
158 153 69
162 155 73
164 158 78
162 156 75
164 158 72
165 158 78
161 155 71
161 154 75
164 157 80
167 160 82
160 153 75
166 160 76
164 157 77
160 154 77
160 154 72
163 156 75
162 156 75
161 155 74
157 152 66
162 156 79
159 153 74
152 146 67
160 154 70
162 156 77
164 157 81
161 154 75
166 159 80
157 151 76
155 149 65
156 150 70
160 153 71
157 151 72
159 153 73
161 154 72
151 145 65
150 145 68
148 142 66
160 154 70
154 148 76
164 157 83
162 155 76
149 144 68
156 150 66
152 145 75
156 150 71
151 145 67
160 154 76
155 148 72
174 198 0
174 198 0
175 198 0
176 199 0
175 198 0
175 198 0
174 197 0
174 198 0
172 197 0
173 197 0
176 199 44
183 204 92
183 204 99
188 209 130
195 214 155
199 217 171
201 219 181
204 221 188
206 222 196
206 222 196
214 229 223
214 228 221
214 229 224
216 231 230
221 234 244
221 235 245
223 236 249
223 236 250
224 236 252
225 238 255
225 238 255
225 238 255
225 238 255
225 238 255
225 237 255
225 238 255
225 237 255
225 237 255
225 237 255
225 237 255
225 237 255
225 237 255
225 237 255
225 237 255
225 237 255
225 237 255
225 237 255
225 237 255
225 237 255
225 237 255
225 237 255
225 237 255
225 237 255
225 237 255
225 237 255
225 237 255
225 237 255
225 237 255
225 237 255
223 236 250
222 235 248
223 236 250
221 234 242
217 231 230
217 231 233
219 233 238
215 230 224
211 226 214
210 226 212
211 226 214
209 224 206
207 223 199
207 223 198
200 218 179
202 219 182
198 216 167
196 215 161
191 211 144
191 210 137
187 208 130
193 212 147
186 206 114
183 205 99
177 200 62
179 201 76
174 198 0
174 198 0
174 198 0
175 198 0
174 198 0
174 198 0
175 198 0
174 198 0
175 198 0
174 198 0
173 197 0
175 198 0
174 198 0
175 198 0
173 197 0
173 197 0
174 198 0
174 198 0
176 199 0
174 198 0
174 197 0
174 198 0
175 198 0
174 197 0
174 197 0
176 199 0
175 198 0
176 199 0
174 197 0
174 197 0
176 198 0
176 198 0
174 198 0
176 199 0
173 197 0
175 198 0
173 197 0
174 198 0
175 198 0
173 197 0
175 198 0
174 198 0
174 197 0
173 197 0
174 198 0
172 196 0
171 195 0
173 196 0
173 197 0
170 195 0
171 195 0
162 184 44
64 95 107
155 178 51
170 194 0
173 196 0
173 197 0
172 195 0
173 196 0
174 197 0
175 198 0
216 231 233
221 235 250
221 235 246
175 192 191
57 91 115
59 93 126
58 91 115
60 95 126
57 90 120
58 92 124
60 94 126
58 91 126
59 94 125
59 93 124
59 92 122
58 92 121
57 90 120
59 93 122
58 92 111
59 94 126
58 92 130
59 94 126
60 94 131
59 94 128
58 92 117
59 93 117
59 93 122
58 92 120
59 93 124
60 94 130
59 93 128
59 93 120
61 95 140
60 94 130
60 94 130
60 94 130
59 93 130
58 92 121
61 95 131
59 93 126
57 91 118
59 94 136
60 94 134
60 95 141
58 93 128
59 94 126
58 92 128
60 94 133
59 93 124
59 93 128
57 91 129
58 92 121
59 93 128
58 93 120
59 93 131
60 95 133
60 94 125
59 92 125
59 93 124
56 90 115
59 93 124
59 93 133
59 93 125
58 91 124
58 91 124
58 91 115
59 93 128
58 92 125
59 92 126
58 92 117
58 92 130
58 91 124
59 93 125
58 91 123
61 96 139
58 90 124
59 93 126
59 92 134
58 91 123
57 89 117
57 90 116
59 93 132
58 91 130
57 90 120
58 91 119
58 90 125
58 91 119
59 92 123
57 89 125
58 91 129
57 90 124
57 89 125
56 87 110
57 89 127
56 88 120
54 85 112
55 84 108
54 83 98
54 83 100
55 85 107
49 76 100
52 79 112
46 70 74
45 68 83
169 183 179
214 229 227
135 141 125
82 81 31
70 69 22
65 64 18
53 54 20
53 54 16
49 52 14
54 57 22
53 56 18
46 50 22
54 59 28
59 64 26
59 63 27
72 73 24
62 66 21
76 79 36
76 78 35
85 89 46
92 93 44
90 92 44
104 103 46
92 93 39
96 97 50
101 103 47
103 103 47
108 107 41
104 103 52
120 119 48
119 117 55
116 116 59
121 120 56
128 126 54
130 127 59
129 126 56
140 136 63
139 135 63
140 136 69
132 130 66
138 133 63
140 137 60
132 130 62
132 130 55
143 138 69
144 140 66
147 143 64
146 141 70
148 144 67
147 142 59
141 137 67
152 148 69
156 150 71
154 149 72
156 151 70
146 143 61
154 149 70
155 149 72
147 142 60
153 148 67
153 147 70
156 151 68
153 149 68
161 154 72
159 154 69
163 157 78
161 155 75
156 150 71
160 155 70
158 152 72
166 160 72
164 158 74
154 149 66
160 154 69
161 155 71
165 159 76
160 155 68
161 155 74
163 156 65
162 156 76
163 157 74
163 157 83
162 155 76
165 159 68
158 152 65
166 159 75
156 150 72
163 157 75
164 158 71
163 157 73
163 157 74
161 155 68
165 159 77
163 157 71
161 155 75
163 157 80
166 160 75
158 152 69
164 159 73
160 154 75
161 155 74
168 161 79
164 157 73
162 155 74
158 152 73
157 150 74
161 154 74
167 159 77
164 157 79
157 151 67
162 155 76
163 156 75
165 159 75
160 153 73
163 156 72
158 152 72
161 154 68
155 149 74
160 153 77
156 151 69
159 153 71
162 156 74
161 154 75
164 157 79
156 151 73
164 157 72
161 154 74
159 153 71
157 151 65
154 147 72
161 154 77
162 156 76
154 147 71
150 145 63
155 150 70
156 150 66
154 148 72
160 154 72
147 142 64
154 148 71
156 150 75
152 147 66
156 148 73
153 146 70
158 151 72
156 150 72
151 144 75
155 148 76
155 148 73
159 152 75
173 197 0
174 197 0
174 198 0
173 197 0
174 198 0
176 199 0
174 198 0
175 198 0
175 198 0
175 198 0
175 198 0
174 198 0
174 198 0
175 198 0
173 197 0
174 198 0
174 198 0
174 197 0
174 198 0
175 198 0
174 197 0
174 198 0
176 198 0
175 198 0
174 198 0
174 198 0
174 197 0
174 197 0
175 198 0
176 199 44
178 200 51
178 201 57
177 200 51
180 202 76
181 203 84
182 204 92
183 204 95
183 205 99
184 205 102
183 205 102
185 206 105
183 204 95
183 204 95
180 203 99
187 208 125
184 205 99
184 205 105
181 203 88
181 203 80
178 201 76
182 204 88
181 203 84
179 202 80
180 202 80
180 202 76
176 199 36
176 199 44
175 198 0
175 198 0
173 197 0
174 198 0
175 198 0
174 198 0
175 198 0
175 198 0
174 198 0
175 198 0
174 197 0
174 197 0
174 197 0
175 198 0
174 197 0
174 197 0
174 198 0
175 198 0
174 198 0
175 198 0
175 198 0
173 197 0
175 198 0
173 197 0
175 198 0
175 198 0
175 198 0
174 197 0
173 197 0
174 198 0
174 197 0
174 197 0
173 197 0
175 198 0
176 198 0
174 198 0
175 198 0
174 198 0
174 198 0
175 198 0
174 198 0
174 198 0
176 199 0
174 197 0
174 197 0
175 198 0
174 197 0
174 198 0
176 199 0
174 198 0
173 197 0
176 199 0
174 197 0
174 197 0
173 197 0
175 198 0
173 197 0
174 198 0
174 197 0
176 199 0
173 197 0
175 198 0
173 197 0
174 198 0
173 197 0
175 198 0
174 197 0
172 196 0
173 197 0
174 197 0
172 195 0
173 197 0
174 197 0
172 196 0
172 196 0
172 196 0
173 197 0
172 196 0
169 192 0
134 157 67
141 164 62
166 189 0
170 193 0
170 194 0
173 197 0
172 196 0
174 197 0
173 197 0
175 198 0
219 233 242
203 220 194
174 198 0
163 187 36
58 91 118
59 94 120
59 94 120
59 93 131
57 90 122
59 93 125
58 92 120
59 93 126
59 93 122
58 92 122
57 91 124
58 92 122
60 94 130
59 93 126
59 93 128
60 94 130
59 94 125
59 93 120
59 94 133
59 93 122
59 93 129
59 93 122
60 95 129
59 93 129
60 94 126
58 92 118
58 92 121
58 92 122
58 91 113
58 91 113
60 94 131
58 91 122
59 93 134
59 93 128
59 93 130
59 93 128
58 92 118
59 93 122
60 94 134
59 92 124
59 93 124
59 93 129
59 93 124
59 92 114
58 91 124
60 94 133
59 93 129
57 90 111
59 93 124
59 93 128
59 93 126
58 91 117
58 92 124
60 94 131
58 92 120
58 92 121
59 93 122
59 93 130
59 93 130
57 90 118
58 92 114
58 91 121
60 93 130
59 92 124
59 92 118
57 89 113
60 93 127
59 94 128
57 90 121
59 93 125
58 92 121
58 91 129
59 92 123
57 89 128
57 89 113
57 89 119
57 89 115
57 90 119
59 92 119
57 90 126
57 89 122
55 86 110
55 86 108
56 89 119
59 93 126
57 88 121
55 85 112
55 86 112
55 87 117
53 83 98
53 82 104
56 87 123
54 83 100
52 80 102
52 81 109
50 77 97
50 77 102
51 79 86
49 74 81
47 71 97
162 183 26
173 197 0
139 153 25
82 81 31
76 75 24
77 75 23
56 58 17
62 63 22
45 49 16
51 54 20
52 55 19
59 62 17
58 61 22
64 67 23
67 69 25
76 79 28
60 63 31
67 69 26
69 72 26
89 91 34
76 79 27
88 89 43
94 94 35
94 95 41
96 97 47
104 104 41
97 98 40
107 108 50
105 104 50
109 108 49
122 120 52
112 113 52
120 119 53
107 107 46
120 118 53
126 122 58
125 123 55
136 133 51
135 133 62
133 130 56
136 132 55
134 130 58
142 138 65
135 131 60
142 137 58
144 140 64
145 140 67
134 130 54
148 144 71
151 146 72
145 140 64
148 144 65
143 140 58
145 141 69
159 154 77
152 147 66
151 146 64
150 146 64
155 150 67
157 151 66
156 151 69
158 152 68
153 148 67
152 147 60
162 156 68
165 158 72
161 155 71
165 157 78
157 152 68
160 154 70
163 157 71
153 148 62
157 151 66
159 154 66
160 155 64
158 153 65
165 158 76
153 148 57
159 154 58
164 158 77
164 158 77
163 156 70
169 161 78
165 159 73
166 160 69
155 150 65
163 156 72
161 154 66
156 151 65
161 155 69
160 154 71
159 153 73
163 157 69
160 154 73
165 158 71
160 155 67
166 159 75
164 157 78
163 157 72
156 148 67
164 158 72
156 150 69
165 158 75
163 157 74
162 156 74
161 155 73
162 156 72
161 154 75
166 159 75
158 152 59
166 159 72
159 153 67
161 154 76
163 157 72
163 156 75
156 150 75
155 149 65
157 151 71
159 153 70
156 150 68
158 153 75
163 156 75
162 156 64
162 156 76
156 151 69
159 153 73
156 150 71
147 141 63
157 150 71
153 147 67
157 151 74
158 150 72
159 153 73
156 150 69
156 150 72
154 149 74
165 158 77
157 151 73
158 151 74
149 144 65
160 152 74
155 149 75
151 145 69
161 153 75
158 150 80
148 143 62
155 148 70
156 150 75
150 144 63
157 152 77
173 197 0
176 199 0
175 198 0
174 198 0
175 198 0
172 196 0
173 197 0
174 198 0
175 198 0
173 197 0
175 198 0
175 198 0
173 197 0
175 198 0
174 198 0
175 198 0
174 197 0
174 198 0
174 198 0
175 198 0
173 197 0
174 198 0
174 198 0
173 197 0
174 198 0
174 198 0
173 197 0
174 198 0
175 198 0
177 199 0
174 198 0
174 198 0
174 197 0
174 197 0
175 198 0
174 198 0
174 198 0
173 197 0
175 198 0
173 197 0
175 198 0
175 198 0
175 198 0
175 198 0
175 198 0
177 199 0
174 198 0
174 198 0
175 198 0
175 198 0
173 197 0
175 198 0
175 198 0
175 198 0
174 198 0
174 198 0
176 198 0
174 197 0
175 198 0
174 198 0
175 198 0
175 198 0
174 197 0
173 197 0
174 198 0
175 198 0
174 198 0
174 197 0
175 198 0
175 198 0
173 197 0
172 196 0
173 197 0
175 198 0
175 198 0
174 197 0
173 197 0
174 197 0
175 198 0
174 197 0
173 197 0
173 196 0
173 197 0
173 197 0
173 197 0
174 198 0
175 198 0
174 198 0
175 198 0
175 198 0
175 198 0
174 197 0
174 197 0
174 197 0
176 199 0
174 197 0
174 198 0
173 197 0
174 197 0
174 198 0
173 197 0
174 197 0
174 198 0
174 198 0
174 198 0
175 198 0
174 198 0
175 198 0
172 196 0
174 197 0
175 198 0
175 198 0
175 198 0
173 197 0
174 197 0
173 197 0
172 196 0
174 197 0
175 198 0
174 197 0
174 197 0
174 197 0
173 197 0
174 197 0
172 196 0
172 196 0
174 197 0
172 196 0
173 197 0
172 195 0
172 196 0
169 193 0
170 194 0
175 198 0
169 193 0
167 189 0
139 163 51
163 186 0
169 191 0
172 196 0
168 192 0
172 195 0
172 195 0
174 197 0
174 198 0
177 200 67
223 237 255
184 205 111
174 198 0
174 198 0
76 107 124
58 92 125
59 92 124
58 92 124
59 93 124
59 93 125
60 94 124
59 93 130
57 90 105
60 94 128
57 89 108
59 94 130
58 93 115
59 93 122
58 91 120
58 92 121
60 94 128
60 94 128
59 94 125
57 91 115
58 92 114
60 94 136
59 93 134
59 93 113
59 93 133
60 95 139
60 94 126
59 94 126
58 92 124
58 92 124
57 91 114
58 92 129
59 92 117
60 94 129
58 92 124
61 95 136
58 92 126
60 94 122
59 93 128
59 92 124
59 93 131
59 93 124
58 92 121
59 92 124
59 93 117
59 93 129
60 95 135
58 91 125
60 95 139
59 92 122
57 90 117
57 90 121
60 94 131
58 91 124
59 92 121
57 90 124
60 95 129
58 91 118
59 94 140
58 91 122
58 91 118
58 92 128
60 93 125
59 92 125
58 91 122
58 91 114
57 90 117
58 92 128
58 93 124
58 91 120
58 91 127
57 90 110
58 91 121
58 91 110
59 92 128
57 89 126
57 89 119
57 89 114
57 89 107
59 92 126
57 88 106
57 90 126
58 92 116
58 91 119
56 89 106
55 85 112
55 86 110
56 87 120
56 87 113
55 86 120
56 87 115
54 84 105
55 86 122
53 81 102
53 82 93
54 84 103
51 78 96
47 71 99
48 73 88
69 89 60
173 197 0
173 197 0
165 184 19
94 91 29
86 85 31
76 74 28
71 71 17
66 67 21
61 62 11
53 57 17
57 59 12
64 64 17
67 70 22
66 68 24
71 73 25
77 79 23
71 73 23
71 74 27
78 81 26
82 84 35
78 81 38
87 87 38
100 101 40
106 106 40
98 98 43
99 100 39
99 97 40
107 107 45
114 113 50
114 113 48
120 118 56
122 120 57
120 119 51
128 125 58
126 125 55
119 117 54
120 118 60
131 127 52
128 127 63
129 126 52
138 133 61
124 123 48
145 141 58
140 137 55
145 141 60
142 139 65
143 138 62
150 145 66
143 139 62
145 141 62
144 140 58
149 145 61
143 139 60
153 148 71
145 141 66
150 145 62
152 147 62
143 138 62
158 152 64
158 152 71
155 150 67
154 149 64
157 152 65
157 151 64
153 149 68
156 151 67
163 156 71
164 158 76
162 156 77
158 153 68
153 147 58
162 156 72
161 155 71
160 154 71
163 157 63
164 158 71
158 153 64
157 150 62
160 154 71
163 156 75
161 155 77
165 158 72
164 157 74
164 158 74
160 155 73
160 154 71
163 156 71
160 155 65
155 151 62
157 151 67
167 160 74
162 156 68
165 158 68
159 153 71
164 158 76
162 156 70
157 151 71
157 152 72
160 153 72
167 160 75
163 156 76
158 152 63
168 162 73
158 152 73
166 160 77
160 153 73
161 155 66
164 157 80
164 156 74
161 154 75
161 155 69
164 158 75
152 147 63
159 152 71
166 159 77
161 154 72
160 153 74
159 153 67
160 153 71
158 151 76
154 148 66
154 149 69
161 155 78
163 156 78
153 147 66
152 147 65
156 150 70
151 145 62
155 149 72
156 149 75
158 153 71
154 148 65
154 149 64
156 150 68
156 150 75
160 152 71
155 149 67
148 141 69
154 147 66
154 148 71
152 145 72
152 145 69
157 151 75
155 149 66
155 149 74
155 149 70
152 146 68
149 143 66
148 142 63
156 150 75
174 198 0
175 198 0
175 198 0
175 198 0
175 198 0
174 197 0
172 197 0
174 198 0
176 199 0
173 197 0
174 198 0
175 198 0
173 197 0
174 198 0
175 198 0
174 198 0
176 198 0
175 198 0
175 198 0
175 198 0
175 198 0
175 198 0
173 197 0
173 197 0
173 197 0
175 198 0
175 198 0
175 198 0
174 197 0
174 198 0
175 198 0
175 198 0
174 198 0
173 197 0
173 197 0
174 198 0
174 198 0
174 198 0
173 197 0
174 197 0
175 198 0
174 198 0
175 198 0
175 198 0
174 198 0
174 198 0
174 197 0
174 198 0
173 197 0
173 197 0
175 198 0
176 198 0
175 198 0
174 198 0
173 197 0
175 198 0
173 197 0
175 198 0
174 198 0
175 198 0
173 197 0
174 198 0
176 199 0
176 198 0
175 198 0
175 198 0
175 198 0
173 197 0
174 197 0
173 197 0
176 198 0
175 198 0
173 197 0
174 198 0
173 197 0
174 198 0
175 198 0
175 198 0
173 197 0
174 198 0
174 197 0
174 198 0
174 198 0
174 197 0
173 197 0
175 198 0
172 196 0
176 199 0
174 197 0
174 198 0
174 197 0
176 198 0
176 198 0
175 198 0
175 198 0
176 198 0
174 198 0
175 198 0
176 198 0
174 197 0
173 197 0
174 198 0
174 197 0
175 197 0
176 199 0
173 196 0
175 198 0
172 196 0
173 197 0
176 199 0
175 198 0
173 196 0
175 198 0
176 198 0
174 197 0
174 198 0
173 197 0
173 196 0
173 196 0
175 197 0
174 197 0
174 198 0
174 197 0
172 196 0
175 198 0
172 196 0
174 197 0
171 194 0
174 197 0
175 197 0
171 195 0
174 197 0
172 195 0
173 196 0
170 194 0
166 189 0
164 187 0
162 184 0
164 187 0
166 190 0
168 192 0
171 194 0
171 195 0
173 197 0
173 197 0
187 207 125
217 231 238
174 197 0
174 198 0
173 197 0
119 143 95
59 93 114
58 92 122
58 92 122
57 90 114
58 92 117
58 92 124
59 93 117
58 92 114
56 90 111
59 93 121
58 92 126
59 93 121
59 93 126
59 93 113
58 92 110
61 95 133
59 93 122
58 92 124
58 92 126
59 93 124
58 93 114
58 92 130
58 92 111
58 93 122
58 91 111
57 91 115
59 92 117
59 93 128
59 93 128
57 90 114
59 93 124
60 94 125
58 92 110
58 92 118
59 92 126
58 92 125
59 92 120
60 95 134
59 93 121
60 94 129
60 94 131
59 93 120
60 94 131
59 93 126
57 90 114
57 91 117
60 94 134
59 93 128
59 92 128
58 92 129
59 93 125
58 92 129
58 92 122
60 93 130
58 92 122
57 90 113
58 92 120
58 92 126
58 92 130
59 92 123
56 88 110
57 90 118
57 91 126
58 92 120
59 93 122
59 92 122
58 91 122
57 90 117
58 91 120
59 92 126
58 92 121
58 91 120
57 89 117
56 89 115
59 92 128
58 92 128
57 89 118
58 92 125
56 87 107
57 88 117
55 86 117
55 87 102
56 88 118
57 90 121
56 88 114
56 87 112
56 87 113
53 84 96
55 86 108
53 83 115
53 83 108
53 83 108
55 86 115
52 81 98
53 81 108
50 76 105
51 77 86
48 73 84
110 130 53
175 198 0
175 198 0
173 197 0
101 105 23
75 74 23
79 79 27
66 65 14
57 58 10
61 61 17
61 62 17
63 63 17
64 65 13
62 65 21
58 60 15
63 65 26
68 70 23
67 70 22
78 80 29
73 76 34
69 73 29
81 83 33
81 84 40
93 94 40
88 90 39
97 97 42
93 94 41
108 107 44
110 109 45
127 124 54
112 111 48
126 124 55
116 115 49
109 109 44
119 118 52
115 114 43
121 118 48
122 120 53
131 128 52
125 124 46
132 129 57
129 127 52
137 133 62
138 134 59
139 135 58
135 131 60
148 142 67
141 138 56
133 130 51
141 138 58
141 136 61
142 138 58
141 137 59
153 148 67
148 143 67
149 144 66
145 141 62
144 140 54
148 143 62
150 145 55
157 152 70
157 151 66
156 151 68
142 138 63
153 147 56
159 152 67
154 149 69
158 152 65
161 155 63
154 148 60
154 148 63
163 156 71
162 156 70
160 153 68
162 157 71
155 150 64
160 154 71
162 155 75
158 151 71
157 151 66
160 154 70
159 152 71
163 156 72
167 160 75
166 158 72
162 157 64
161 154 74
159 153 64
162 155 63
165 158 74
156 151 63
163 156 67
160 154 75
161 155 72
165 158 76
161 155 65
162 155 76
163 156 72
160 154 63
167 159 75
163 157 72
155 148 62
155 149 64
162 155 76
162 156 68
163 156 73
163 156 70
164 158 75
162 155 74
162 155 65
160 154 75
157 150 61
158 152 64
157 151 66
162 155 75
157 151 66
160 155 72
157 150 66
156 150 65
155 150 68
162 155 74
161 155 71
153 147 66
159 153 68
158 152 66
154 149 66
157 151 72
155 150 68
160 154 69
154 148 66
158 152 65
158 151 71
154 149 67
159 152 75
157 150 72
162 155 75
157 151 69
159 152 72
147 142 62
149 143 66
151 145 65
150 143 68
157 151 69
146 140 60
157 151 71
149 143 72
159 152 76
164 157 76
153 148 65
159 152 73
155 149 71
175 198 0
175 198 0
174 198 0
173 197 0
173 197 0
173 197 0
174 197 0
175 198 0
175 198 0
175 198 0
174 198 0
174 198 0
174 198 0
175 197 0
174 198 0
172 197 0
175 198 0
174 198 0
174 197 0
175 198 0
175 198 0
173 197 0
176 199 0
173 197 0
176 198 0
173 197 0
173 197 0
174 198 0
175 198 0
176 198 0
173 197 0
174 198 0
175 198 0
175 198 0
175 198 0
174 198 0
176 199 0
176 199 0
173 197 0
176 199 0
175 198 0
175 198 0
175 198 0
176 198 0
173 197 0
175 198 0
174 198 0
175 198 0
173 197 0
175 198 0
175 198 0
173 197 0
175 198 0
175 198 0
174 197 0
175 198 0
174 198 0
174 198 0
174 197 0
175 198 0
174 198 0
175 198 0
174 198 0
175 198 0
174 197 0
175 198 0
174 198 0
174 198 0
173 197 0
174 198 0
173 197 0
174 198 0
173 197 0
174 198 0
176 198 0
175 198 0
175 198 0
174 198 0
174 198 0
174 198 0
175 198 0
175 198 0
174 198 0
174 198 0
175 198 0
173 197 0
174 197 0
173 197 0
176 199 0
173 197 0
174 198 0
173 197 0
174 197 0
174 198 0
174 197 0
176 199 0
174 197 0
174 198 0
175 198 0
174 197 0
174 198 0
175 198 0
176 199 0
173 197 0
172 197 0
175 198 0
174 198 0
173 197 0
174 197 0
175 198 0
175 198 0
174 197 0
174 197 0
175 198 0
170 194 0
173 197 0
174 197 0
174 198 0
174 197 0
173 197 0
176 199 0
175 198 0
172 196 0
173 196 0
173 197 0
173 196 0
176 198 0
170 194 0
173 197 0
172 195 0
170 194 0
170 193 0
168 192 0
169 193 0
165 190 0
163 185 0
166 190 0
157 180 0
166 189 0
167 190 0
173 196 0
171 195 0
174 197 0
173 197 0
174 198 0
200 218 179
198 217 175
174 198 0
174 198 0
173 197 0
144 168 72
58 92 108
58 91 122
58 91 111
57 91 113
57 91 111
57 91 120
58 93 121
59 93 122
58 92 110
57 91 111
59 92 121
58 92 126
57 91 114
57 91 107
58 92 114
59 94 114
58 92 126
59 93 124
58 92 120
58 92 120
57 90 115
59 92 122
59 93 120
58 92 115
57 91 115
59 93 124
59 93 128
57 91 126
59 94 121
57 91 110
59 93 120
60 94 130
58 91 115
60 95 126
59 93 128
57 91 126
58 91 117
59 93 125
58 91 114
60 95 131
59 93 130
59 94 128
60 94 133
59 92 128
60 94 131
58 92 117
60 95 134
59 92 124
57 90 110
60 94 133
57 91 114
59 93 120
58 92 121
60 94 131
59 92 117
58 92 126
59 93 125
58 92 122
58 92 114
58 92 115
58 92 126
57 90 117
58 91 114
59 92 125
58 91 123
56 90 118
58 92 122
59 93 128
57 90 121
58 92 123
58 91 123
58 91 110
57 90 115
58 90 128
58 90 117
57 89 109
57 90 115
55 86 109
54 85 103
57 89 114
54 86 106
57 89 117
56 87 119
57 89 128
55 87 117
55 87 112
56 87 118
57 88 113
55 86 111
52 81 99
56 87 113
53 83 102
52 80 97
53 82 98
50 77 94
51 78 93
49 75 93
48 73 78
138 159 37
175 198 0
174 198 0
174 197 0
141 151 37
89 87 31
69 68 21
70 69 22
61 60 23
58 60 14
63 65 16
68 69 17
71 71 12
58 60 12
58 59 13
67 69 24
70 75 30
80 82 24
75 77 27
68 71 24
85 85 31
88 90 31
97 97 42
90 91 35
102 101 37
76 77 20
104 104 40
99 99 45
98 100 39
103 104 45
120 117 57
114 113 47
121 120 53
99 98 38
113 113 51
123 119 50
114 113 50
130 127 55
128 125 55
128 125 52
136 133 54
135 132 50
132 128 55
138 134 58
133 129 61
138 135 60
142 138 64
148 143 63
134 131 58
144 139 63
142 137 57
141 138 59
151 146 56
141 137 60
152 146 63
144 140 55
142 137 59
149 143 65
150 145 54
149 144 60
159 153 68
152 148 60
153 148 64
147 143 67
152 147 63
153 147 63
153 148 62
157 151 70
148 142 60
152 147 61
153 149 62
154 149 61
163 156 71
163 156 70
159 152 68
162 155 70
166 160 70
161 155 72
161 154 73
158 152 69
158 152 65
158 152 67
166 158 80
157 151 65
160 153 66
167 161 80
157 151 65
161 156 65
157 151 58
159 152 64
162 156 78
158 153 63
159 154 64
157 151 58
161 154 65
168 161 77
167 160 75
162 157 73
159 152 63
165 159 76
158 152 65
160 154 61
157 151 58
163 157 74
159 153 73
163 157 65
161 154 75
158 152 70
162 155 70
159 152 71
161 155 75
154 148 67
161 154 69
163 156 74
163 156 76
161 155 74
161 155 73
160 153 71
159 152 68
160 154 64
165 158 74
160 153 69
159 153 69
159 152 73
154 148 68
159 153 69
152 147 65
161 154 73
156 149 65
158 152 73
157 150 70
159 154 67
155 148 65
152 146 73
163 155 80
157 150 66
153 147 66
155 149 64
154 147 70
147 142 64
158 152 70
154 149 70
153 146 70
148 142 66
153 146 75
153 147 62
155 149 69
150 143 73
150 145 63
149 143 70
153 147 65
175 198 0
175 198 0
175 198 0
173 197 0
174 198 0
174 197 0
175 198 0
174 197 0
174 198 0
175 198 0
176 199 0
174 197 0
175 198 0
173 197 0
175 198 0
174 198 0
175 198 0
176 198 0
174 197 0
176 199 0
175 198 0
174 198 0
173 197 0
173 197 0
174 198 0
176 199 0
174 198 0
175 198 0
173 196 0
174 198 0
173 196 0
175 198 0
175 198 0
173 197 0
175 198 0
174 197 0
176 198 0
175 198 0
173 196 0
175 198 0
175 198 0
175 198 0
175 198 0
174 197 0
173 197 0
174 197 0
173 197 0
175 198 0
173 197 0
173 197 0
174 197 0
177 199 0
176 198 0
174 198 0
175 198 0
173 197 0
175 198 0
176 199 0
175 198 0
174 198 0
175 198 0
175 198 0
175 198 0
173 197 0
174 197 0
176 198 0
174 198 0
176 199 0
175 198 0
175 198 0
176 199 0
174 198 0
175 198 0
175 198 0
175 198 0
175 198 0
173 197 0
175 198 0
174 198 0
175 198 0
174 198 0
175 198 0
175 198 0
173 197 0
174 198 0
174 198 0
173 197 0
174 197 0
175 198 0
171 195 0
174 198 0
174 197 0
175 198 0
174 198 0
175 198 0
173 197 0
175 198 0
173 197 0
175 198 0
173 197 0
172 196 0
175 198 0
174 198 0
173 197 0
176 199 0
173 197 0
173 197 0
175 198 0
175 198 0
175 198 0
172 196 0
173 197 0
175 198 0
174 197 0
173 197 0
175 198 0
173 197 0
175 198 0
173 196 0
173 197 0
173 197 0
174 197 0
170 194 0
169 194 0
172 195 0
171 195 0
171 195 0
174 197 0
172 196 0
170 193 0
170 194 0
170 194 0
172 195 0
168 192 0
159 183 0
154 177 0
159 182 0
163 186 0
166 190 0
168 191 0
170 193 0
169 192 0
172 196 0
174 198 0
174 197 0
216 231 233
182 204 92
174 197 0
176 199 0
174 197 0
172 195 0
69 100 115
57 91 121
57 91 110
58 91 115
57 91 117
59 93 117
56 89 108
58 92 114
59 93 121
58 92 113
59 93 121
57 91 124
59 93 124
58 92 120
59 93 121
61 95 130
59 93 115
58 91 125
60 95 137
58 91 110
59 93 121
58 92 118
59 93 120
57 91 103
58 92 118
58 92 128
58 92 120
58 91 122
60 94 134
59 94 131
56 89 108
59 93 130
58 92 124
58 92 126
59 92 120
59 93 121
60 94 129
59 93 130
57 91 111
61 95 135
59 94 122
58 91 118
58 92 121
59 93 125
57 90 113
58 91 121
58 92 120
58 91 125
57 90 110
58 91 110
58 92 126
58 92 122
58 92 125
58 91 124
59 94 126
58 91 124
57 90 118
59 93 126
58 91 124
57 90 115
58 92 124
57 89 115
59 93 130
59 93 122
58 90 117
58 92 120
58 92 126
59 93 120
55 87 113
58 91 120
58 90 117
56 89 117
58 91 124
56 88 110
59 92 132
55 87 104
56 87 106
57 90 121
56 88 114
57 89 120
57 88 120
55 86 105
55 86 120
55 85 105
56 88 110
56 87 113
56 87 113
55 86 111
54 83 99
55 86 109
52 81 104
53 82 93
56 86 110
51 79 98
48 74 80
50 78 91
49 75 89
49 68 56
174 197 0
173 197 0
175 198 0
175 198 0
161 182 21
90 88 29
78 77 25
76 74 19
66 67 15
61 62 13
66 67 14
61 62 15
70 71 16
66 69 16
80 80 15
68 68 12
73 75 26
75 77 23
71 72 24
73 75 29
81 82 26
68 72 33
93 93 33
88 90 39
94 96 35
102 102 44
95 95 31
96 96 35
117 116 45
108 106 40
109 108 38
114 113 51
107 106 42
112 111 40
110 109 38
123 120 52
128 125 48
119 117 50
133 129 60
127 124 48
114 113 40
122 120 50
133 130 54
138 135 62
138 134 53
136 133 53
140 136 49
141 137 58
130 128 56
146 141 61
146 141 62
147 143 61
151 146 62
143 140 59
147 143 59
147 143 61
149 145 64
143 139 57
144 140 58
147 142 69
147 142 63
154 148 67
148 142 57
150 145 59
151 146 63
160 154 64
152 148 61
157 151 57
153 147 69
157 151 67
154 149 65
159 153 64
162 156 67
154 148 62
157 151 63
164 158 68
155 149 62
165 158 72
163 157 72
155 150 58
159 153 68
156 150 59
167 160 79
168 160 78
161 154 69
155 149 59
160 155 57
156 150 61
161 154 66
159 152 69
160 154 65
156 151 62
161 155 68
167 158 75
160 153 71
163 155 75
155 149 61
159 153 68
158 152 59
162 156 68
163 156 71
161 154 68
160 153 70
166 158 80
156 151 70
158 152 60
158 152 64
156 151 65
159 152 62
164 157 70
159 153 71
154 148 57
160 154 64
159 154 67
163 158 68
157 150 63
159 154 64
152 146 62
155 149 63
156 150 74
160 154 68
154 148 67
154 148 68
158 152 69
158 152 71
161 154 70
156 150 70
153 147 65
159 153 75
155 150 64
155 149 64
163 156 79
150 144 64
150 145 60
151 146 64
151 145 59
154 148 64
152 146 71
159 152 73
161 153 76
154 148 70
156 150 64
152 147 65
147 140 63
156 149 71
148 142 64
154 149 61
156 149 67
155 148 70
159 152 77
153 147 70
173 197 0
173 197 0
175 198 0
174 198 0
175 198 0
174 197 0
175 198 0
174 197 0
175 198 0
174 197 0
174 197 0
174 198 0
175 198 0
175 198 0
173 197 0
175 198 0
174 198 0
175 198 0
172 196 0
175 198 0
172 197 0
174 198 0
175 198 0
173 197 0
175 198 0
174 198 0
173 197 0
175 198 0
176 198 0
174 198 0
175 198 0
173 197 0
174 197 0
174 197 0
172 196 0
173 197 0
174 197 0
175 198 0
174 198 0
176 198 0
174 198 0
174 197 0
174 197 0
175 198 0
175 198 0
174 198 0
173 197 0
174 198 0
175 198 0
174 198 0
174 198 0
173 197 0
175 198 0
174 197 0
175 198 0
175 198 0
174 197 0
175 198 0
173 197 0
175 198 0
175 198 0
176 199 0
174 197 0
175 198 0
172 197 0
175 198 0
175 198 0
175 198 0
174 197 0
175 198 0
174 197 0
173 197 0
174 198 0
175 198 0
174 197 0
174 197 0
173 197 0
173 197 0
173 197 0
174 198 0
174 198 0
174 197 0
175 198 0
174 198 0
172 196 0
177 199 0
173 197 0
174 197 0
173 197 0
174 197 0
173 197 0
173 197 0
174 197 0
175 198 0
174 198 0
174 197 0
174 198 0
171 195 0
174 198 0
173 197 0
174 197 0
174 197 0
174 197 0
177 199 0
174 197 0
174 197 0
172 196 0
173 197 0
173 197 0
174 198 0
171 195 0
173 196 0
172 196 0
174 197 0
172 196 0
174 198 0
172 195 0
174 197 0
172 196 0
174 197 0
172 196 0
173 196 0
175 198 0
173 196 0
173 197 0
174 197 0
172 196 0
173 196 0
171 194 0
168 192 0
170 194 0
170 194 0
168 192 0
161 185 0
145 168 0
157 180 0
161 185 0
158 181 0
168 190 0
166 190 0
171 194 0
171 195 0
173 197 0
172 196 0
182 204 108
210 226 221
173 196 0
173 196 0
174 197 0
173 197 0
173 196 0
98 123 99
58 92 110
56 90 110
59 92 126
58 92 118
58 92 121
60 94 128
58 91 107
56 89 111
58 92 107
56 89 103
58 92 117
56 90 117
57 90 111
58 92 122
58 92 122
58 91 115
58 91 117
58 92 120
59 93 124
59 93 118
58 92 117
58 92 115
57 91 108
58 91 117
59 93 121
59 93 122
57 91 115
59 93 120
58 92 128
57 91 118
57 90 102
57 90 115
58 92 118
58 91 120
58 91 115
59 93 124
58 92 118
58 92 122
60 93 128
58 92 125
58 92 120
59 93 118
58 91 115
57 89 110
58 91 118
57 90 105
59 93 124
59 93 126
58 91 113
58 91 118
59 93 118
58 92 118
56 88 99
58 92 121
58 91 124
58 92 118
56 88 100
58 92 118
58 92 122
56 88 110
58 92 124
58 91 114
57 89 116
59 93 116
58 91 124
58 92 122
57 90 111
58 90 115
57 90 121
57 90 118
59 93 122
56 88 107
58 91 121
56 88 103
58 91 116
57 89 115
56 87 105
56 89 107
56 87 98
58 90 123
54 85 106
57 89 113
56 87 104
54 85 110
55 86 111
56 87 113
54 84 113
53 83 110
53 82 86
54 83 109
53 82 97
53 83 100
51 79 96
50 76 81
48 75 85
48 73 99
101 121 57
175 198 0
173 197 0
175 198 0
173 197 0
171 195 0
117 123 38
94 92 35
81 81 19
73 72 22
68 68 12
76 75 21
55 57 3
54 57 7
63 63 15
63 63 14
69 70 17
61 64 20
74 76 22
74 75 24
78 81 22
86 86 29
92 93 30
83 84 31
89 89 32
85 86 30
97 97 28
111 108 37
95 96 37
99 99 38
105 105 39
102 102 38
115 114 35
114 113 39
125 121 51
122 119 48
124 122 47
120 118 46
130 127 52
131 127 55
133 129 60
126 124 48
134 131 57
134 130 47
137 133 59
129 125 50
131 127 49
136 132 56
140 136 50
135 133 54
152 147 66
143 139 55
133 128 55
146 142 58
140 136 46
146 142 65
144 140 55
146 140 64
144 139 58
150 145 60
144 139 58
145 141 47
155 149 65
154 149 63
154 149 63
144 140 57
154 148 64
159 153 59
153 147 62
160 153 68
154 149 59
151 146 57
151 146 54
148 143 55
160 154 63
156 150 64
157 152 63
159 153 61
158 153 62
154 149 52
154 149 59
158 153 68
158 151 64
155 149 63
158 152 66
161 154 68
157 150 65
165 158 72
155 149 58
159 153 60
162 155 66
159 153 70
160 153 65
161 155 71
158 152 64
160 154 74
158 153 65
156 150 61
159 153 64
157 151 63
150 144 58
161 153 75
163 156 72
160 154 67
162 155 71
159 154 62
159 152 75
158 151 70
158 151 67
159 152 63
154 148 63
157 150 61
155 148 67
160 153 67
153 147 63
163 156 71
150 145 61
162 155 71
154 148 63
158 152 67
153 146 70
157 151 66
153 149 58
155 149 68
149 143 57
159 153 67
158 152 69
157 149 67
156 150 64
155 149 63
154 148 63
157 151 69
154 149 69
157 152 61
154 148 66
155 149 66
154 148 71
151 145 63
156 149 69
154 149 68
156 149 67
151 145 70
148 142 59
147 143 57
152 145 63
150 144 64
147 140 64
146 140 71
151 146 61
154 148 68
148 143 64
142 137 61
174 197 0
173 197 0
176 199 0
175 198 0
175 198 0
175 198 0
173 197 0
174 198 0
173 197 0
174 198 0
175 198 0
173 197 0
175 198 0
175 198 0
175 198 0
174 198 0
172 197 0
173 197 0
173 197 0
174 197 0
175 198 0
174 198 0
175 198 0
174 197 0
175 198 0
173 197 0
174 198 0
175 198 0
174 197 0
174 198 0
175 198 0
173 197 0
174 197 0
173 197 0
174 198 0
173 197 0
174 197 0
174 198 0
175 198 0
173 197 0
175 198 0
174 198 0
173 196 0
175 198 0
174 198 0
175 198 0
174 198 0
175 198 0
174 198 0
174 198 0
174 198 0
174 198 0
174 198 0
175 198 0
176 199 0
174 197 0
174 197 0
174 198 0
174 197 0
172 197 0
173 196 0
173 197 0
175 198 0
174 198 0
173 197 0
174 197 0
175 198 0
173 197 0
175 198 0
174 197 0
171 196 0
174 198 0
173 197 0
174 197 0
173 197 0
175 198 0
174 198 0
174 198 0
174 197 0
173 196 0
174 198 0
174 197 0
175 198 0
172 195 0
174 198 0
175 198 0
175 198 0
175 198 0
174 197 0
174 197 0
173 197 0
172 196 0
175 198 0
174 197 0
173 197 0
174 197 0
173 197 0
173 197 0
172 196 0
175 198 0
171 196 0
174 198 0
174 197 0
172 196 0
175 198 0
174 197 0
172 196 0
173 196 0
171 195 0
172 195 0
174 198 0
171 195 0
171 194 0
174 198 0
173 196 0
175 198 0
171 195 0
170 193 0
175 198 0
171 196 0
170 195 0
173 197 0
174 197 0
171 194 0
174 197 0
170 193 0
172 196 0
168 193 0
165 189 0
169 194 0
167 191 0
169 192 0
165 189 0
156 179 0
146 167 0
155 178 0
153 176 0
154 177 0
163 187 0
170 194 0
164 187 0
170 194 0
172 196 0
171 194 0
199 217 177
191 211 147
174 198 0
172 196 0
175 198 0
173 197 0
174 198 0
156 178 36
58 91 115
58 92 113
56 90 110
56 89 117
56 90 111
57 90 117
57 90 107
58 93 118
58 92 115
59 92 110
60 94 126
59 93 117
57 91 111
59 93 124
58 91 111
57 90 111
59 93 126
58 91 124
57 91 121
56 89 120
59 93 125
60 94 131
59 93 126
58 92 113
57 90 113
59 92 124
59 93 121
58 92 120
57 90 105
59 93 120
59 93 118
58 91 108
58 91 114
58 92 118
59 93 128
57 91 118
58 92 122
59 93 121
59 93 122
58 92 115
58 92 124
58 91 118
58 90 120
57 91 113
60 94 125
59 93 122
59 93 128
56 89 118
57 91 108
57 90 120
56 88 110
58 92 121
56 89 113
57 90 107
58 92 120
59 92 124
59 93 120
57 91 120
57 90 115
59 92 115
58 92 118
57 90 118
59 92 121
57 89 110
58 91 121
60 94 128
57 89 121
55 86 109
59 92 124
58 90 124
58 91 125
55 87 108
56 88 115
57 90 128
56 88 118
57 89 123
55 87 106
57 89 112
56 87 110
55 87 115
56 88 114
54 85 93
57 89 112
55 86 107
56 88 115
55 86 115
53 84 107
54 84 96
55 85 108
52 81 101
53 83 106
49 76 97
48 75 82
51 78 101
49 75 84
46 71 81
155 176 38
173 197 0
173 197 0
173 196 0
173 197 0
173 196 0
152 171 16
82 79 34
67 67 12
67 66 14
78 77 25
75 74 25
68 68 14
61 62 12
65 65 18
68 71 21
61 62 15
74 74 12
59 65 26
77 79 24
72 76 26
74 76 23
81 83 25
95 95 25
81 83 29
94 93 32
92 93 38
94 95 37
101 101 40
110 108 48
108 107 42
121 118 42
106 104 39
119 117 44
128 124 54
110 108 35
100 102 39
127 124 41
121 119 41
131 127 47
131 127 56
133 130 53
130 126 50
131 127 52
137 134 51
136 133 51
136 132 51
142 137 63
134 131 52
138 133 51
140 135 56
135 131 54
133 130 47
144 140 55
148 143 62
148 144 56
149 143 61
153 148 60
146 141 63
152 146 63
141 138 55
150 145 58
149 144 54
146 143 42
152 147 57
147 143 61
153 147 56
153 148 70
144 139 51
156 150 61
148 144 50
158 152 63
160 153 64
157 152 66
159 153 64
157 152 64
156 151 60
157 150 63
154 149 60
160 154 66
155 149 63
160 153 60
158 152 52
157 151 66
157 150 63
152 147 57
160 154 67
156 150 63
160 154 60
161 155 71
155 149 57
158 152 69
160 153 68
157 150 57
155 149 64
162 155 69
160 155 68
158 152 68
160 154 65
162 154 68
157 152 64
159 153 75
156 150 64
157 150 63
163 156 67
164 157 65
151 144 60
156 149 63
159 153 66
168 160 80
154 147 65
154 149 59
157 150 71
161 155 69
155 148 62
152 146 62
163 155 71
156 149 65
153 147 60
153 147 62
150 145 59
158 152 62
159 153 65
154 147 66
154 148 61
159 152 68
158 150 71
157 150 67
164 156 77
158 152 65
154 149 63
155 149 67
155 147 71
158 151 69
154 148 66
151 146 64
155 149 69
155 149 67
160 153 76
152 147 58
153 147 63
152 145 60
151 144 62
158 151 69
155 147 68
144 140 57
149 142 64
154 147 67
150 145 63
156 148 75
147 141 64
148 143 62
175 197 0
175 197 0
175 198 0
174 197 0
176 199 0
174 198 0
173 197 0
176 199 0
176 198 0
174 198 0
173 197 0
174 197 0
176 199 0
175 198 0
175 198 0
174 198 0
174 197 0
174 198 0
174 198 0
174 198 0
174 197 0
175 198 0
174 198 0
174 197 0
173 197 0
175 198 0
175 198 0
175 198 0
175 198 0
173 197 0
174 198 0
174 198 0
173 197 0
174 197 0
173 197 0
173 197 0
175 198 0
175 198 0
174 198 0
172 196 0
173 197 0
175 198 0
174 197 0
174 198 0
175 198 0
174 198 0
175 198 0
175 198 0
173 196 0
173 196 0
173 196 0
173 197 0
172 196 0
173 197 0
175 198 0
173 196 0
172 196 0
175 198 0
174 198 0
173 196 0
172 196 0
174 197 0
174 198 0
173 197 0
174 197 0
173 197 0
173 196 0
175 198 0
173 196 0
176 198 0
174 198 0
171 195 0
175 198 0
174 198 0
174 197 0
174 198 0
173 197 0
175 198 0
175 198 0
176 198 0
174 197 0
173 196 0
174 198 0
173 197 0
174 197 0
174 198 0
173 196 0
175 198 0
171 195 0
175 198 0
175 198 0
174 197 0
174 197 0
173 196 0
175 197 0
173 197 0
173 196 0
173 197 0
172 196 0
173 196 0
172 196 0
173 197 0
174 197 0
172 195 0
173 196 0
172 196 0
173 197 0
173 196 0
175 198 0
172 196 0
171 195 0
172 196 0
174 197 0
170 194 0
171 195 0
173 196 0
173 196 0
173 197 0
172 195 0
168 192 0
172 195 0
173 196 0
172 195 0
170 195 0
169 193 0
170 194 0
170 194 0
169 192 0
169 192 0
165 189 0
165 189 0
168 191 0
161 184 0
147 169 0
152 174 0
153 176 0
160 183 0
159 183 0
160 183 0
166 190 0
171 195 0
168 191 0
173 196 0
173 197 0
213 229 228
173 197 25
173 197 0
174 197 0
174 197 0
173 196 0
173 196 0
171 195 18
72 102 99
59 93 126
58 92 121
57 90 118
58 91 105
55 87 103
57 90 108
58 91 105
59 93 129
55 88 108
59 93 117
56 89 113
58 91 121
59 93 125
58 91 111
58 91 118
58 91 118
58 92 124
60 94 124
58 92 114
59 92 120
58 92 118
58 92 120
56 89 105
57 91 108
59 93 117
58 91 121
56 89 105
58 91 128
56 89 110
56 89 110
58 92 113
59 93 125
58 92 118
58 92 113
59 93 126
59 93 120
57 90 115
58 92 124
57 90 111
58 91 120
60 94 128
58 92 121
58 91 114
58 92 114
59 93 121
57 90 117
55 87 100
58 91 121
59 92 130
58 92 121
59 93 122
60 94 128
56 89 108
59 94 129
58 92 118
58 91 121
58 91 117
56 89 110
59 92 118
56 88 96
57 89 106
57 89 113
58 91 121
56 89 115
57 90 114
58 91 117
58 91 116
58 92 128
55 86 111
57 90 114
58 90 117
57 89 118
57 89 121
56 88 108
56 88 108
54 85 101
55 87 106
54 85 102
55 87 115
57 90 118
55 86 102
54 85 103
53 83 101
57 88 114
58 90 113
55 85 101
53 83 101
53 81 96
50 78 84
50 77 99
54 83 102
53 81 97
51 78 98
47 71 88
67 88 71
167 191 0
171 195 0
172 195 0
172 196 0
173 197 0
171 194 0
173 195 11
91 94 23
75 74 26
78 76 26
69 67 14
66 68 10
67 69 23
69 71 16
65 68 19
76 76 14
71 73 19
59 63 18
65 68 18
78 78 19
82 82 26
74 76 25
96 96 22
94 94 36
94 93 28
99 98 31
97 96 25
100 100 29
90 91 37
93 92 28
100 100 33
104 103 34
121 117 45
103 101 44
115 113 43
112 112 39
121 118 47
119 116 39
123 120 46
119 117 42
136 133 45
126 124 43
129 127 51
123 120 45
129 126 51
129 126 42
130 127 47
133 130 49
136 132 59
133 130 48
143 138 58
127 125 46
133 129 49
142 137 63
140 136 48
138 135 54
145 140 60
148 142 60
148 144 55
148 142 57
139 135 53
153 148 62
151 146 62
153 146 58
155 149 64
149 145 57
153 146 54
153 146 58
152 147 60
150 146 54
152 146 53
160 154 67
153 147 55
154 149 57
153 147 58
158 151 61
153 147 58
152 145 62
162 155 65
158 151 66
152 147 57
156 150 62
156 149 56
156 150 60
152 146 52
157 152 63
156 150 63
159 153 62
157 151 62
160 153 74
166 157 75
156 150 54
157 152 62
162 155 68
157 151 60
157 151 62
157 150 61
163 156 74
163 156 70
161 154 63
152 147 59
160 153 66
156 149 61
157 151 68
160 153 66
154 147 60
157 152 67
157 150 65
146 140 54
158 152 67
160 154 69
158 152 66
159 152 75
155 149 59
160 153 65
153 147 63
161 155 66
162 155 65
151 145 54
159 152 70
161 154 68
154 148 67
154 148 62
156 150 70
158 152 70
159 153 70
149 143 58
152 146 62
150 144 57
154 148 63
158 151 72
159 152 69
155 148 69
159 152 68
156 150 70
156 150 66
146 141 61
152 145 66
147 141 60
156 150 67
150 144 61
144 138 61
153 147 66
151 145 65
146 141 57
152 146 67
159 152 72
144 138 60
156 148 69
149 142 64
150 144 62
139 135 57
174 197 0
175 198 0
174 198 0
172 197 0
173 197 0
175 198 0
175 198 0
174 197 0
172 197 0
175 198 0
174 197 0
174 197 0
174 197 0
174 198 0
174 198 0
173 196 0
174 198 0
173 197 0
174 197 0
175 198 0
173 197 0
174 198 0
175 198 0
174 197 0
174 198 0
175 198 0
174 198 0
174 197 0
175 198 0
174 198 0
173 197 0
175 198 0
174 197 0
174 198 0
174 198 0
174 197 0
174 198 0
175 198 0
173 197 0
175 198 0
174 197 0
175 198 0
173 197 0
173 197 0
174 198 0
175 198 0
174 197 0
175 198 0
174 198 0
174 198 0
175 198 0
175 198 0
175 198 0
174 197 0
174 198 0
174 198 0
174 198 0
175 198 0
174 197 0
173 197 0
174 197 0
175 198 0
173 197 0
174 197 0
173 197 0
173 197 0
175 198 0
172 196 0
173 197 0
173 197 0
175 198 0
172 197 0
175 198 0
176 198 0
173 197 0
175 198 0
174 197 0
172 196 0
174 197 0
174 197 0
175 198 0
175 198 0
174 198 0
174 197 0
173 197 0
175 198 0
174 197 0
174 197 0
172 197 0
173 197 0
174 198 0
172 196 0
172 196 0
175 198 0
174 197 0
175 198 0
174 197 0
174 197 0
173 197 0
172 195 0
172 196 0
172 196 0
174 197 0
174 197 0
174 197 0
173 196 0
172 197 0
175 198 0
174 197 0
174 197 0
173 196 0
173 196 0
172 196 0
173 197 0
174 197 0
172 197 0
172 196 0
172 196 0
174 197 0
170 194 0
170 193 0
167 191 0
172 195 0
172 195 0
171 195 0
172 195 0
169 192 0
172 195 0
161 186 0
167 191 0
160 183 0
160 184 0
151 173 0
134 155 0
146 168 0
155 177 0
156 178 0
159 183 0
162 185 0
166 191 0
163 188 0
171 195 0
172 196 0
187 208 128
189 209 149
173 196 0
174 197 0
173 196 0
173 197 0
172 196 0
172 196 0
174 197 0
134 158 65
55 88 94
58 92 114
57 91 117
57 90 100
58 91 108
57 90 114
58 92 114
58 91 114
60 94 121
57 90 105
58 91 108
57 90 120
58 91 120
58 91 117
58 91 107
56 90 113
57 91 120
60 94 139
57 90 114
57 91 110
57 91 114
58 92 122
59 92 120
56 89 121
57 90 107
58 92 113
58 91 118
56 88 117
59 93 121
57 91 113
57 90 115
58 91 111
57 90 110
58 92 114
58 92 118
58 92 125
58 91 118
60 94 130
58 92 120
58 91 114
57 91 108
59 93 118
58 92 117
59 93 131
57 90 108
58 92 121
56 89 108
58 91 114
58 92 121
58 92 115
58 92 118
58 91 118
57 91 114
56 89 110
58 92 122
58 91 113
57 90 114
58 91 114
58 92 121
58 91 112
57 89 113
58 91 117
59 92 129
58 90 128
58 91 131
59 93 119
55 87 105
55 87 104
54 86 108
59 92 115
57 89 109
57 88 113
58 91 116
58 91 117
55 86 116
57 89 113
57 88 110
56 87 109
56 88 119
53 82 93
57 89 115
52 82 97
54 85 110
55 85 105
51 80 90
53 82 87
55 85 109
53 82 100
52 80 92
54 83 103
53 82 100
48 73 86
48 73 82
47 72 84
127 146 28
172 196 0
173 196 0
172 196 0
175 197 0
174 196 0
172 195 0
174 197 0
147 163 24
86 84 30
85 83 21
85 85 25
61 61 8
66 67 21
71 72 22
73 74 14
76 76 9
76 76 19
68 69 18
67 69 20
84 82 14
71 72 22
81 82 23
81 82 22
72 73 28
90 89 25
96 95 23
87 87 20
108 106 41
103 103 35
98 97 29
111 109 39
103 102 40
109 106 28
111 111 34
118 115 38
121 119 46
116 114 45
118 116 41
123 122 43
122 120 41
121 118 43
116 113 46
133 129 44
126 124 42
115 113 39
134 130 53
125 122 53
133 129 51
141 135 58
141 137 54
142 137 51
142 137 47
139 134 56
136 134 53
146 141 59
136 131 48
141 137 53
142 138 54
146 141 56
151 146 57
144 140 50
147 142 56
150 144 56
152 146 54
143 138 52
151 146 54
149 144 47
151 146 62
150 144 55
155 149 57
157 151 63
152 145 57
149 145 57
149 144 58
155 148 62
153 148 62
156 150 58
151 144 63
155 148 60
158 152 64
162 155 66
155 150 60
153 148 53
152 145 59
153 148 62
159 153 65
155 149 67
152 146 56
160 154 69
159 153 66
158 151 59
162 155 68
156 150 62
158 152 58
154 149 58
158 152 71
150 145 53
147 141 54
162 156 65
162 155 70
164 156 72
157 151 59
153 147 52
154 148 57
155 147 63
163 155 74
157 151 66
151 145 53
160 153 67
156 150 70
158 152 65
158 151 67
156 149 65
157 150 62
150 144 61
158 151 64
160 152 66
159 152 70
151 146 56
150 144 61
155 148 70
156 150 67
155 149 62
158 151 67
160 153 66
154 150 64
152 145 65
156 149 70
154 149 63
153 147 64
148 144 57
155 149 68
155 150 65
157 151 64
153 146 61
153 146 63
151 144 64
158 151 71
151 145 59
151 145 63
158 152 70
151 146 61
154 147 68
145 140 57
154 149 63
147 140 59
150 144 65
153 147 65
152 146 63
146 140 59
159 151 67
145 139 62
173 197 0
175 198 0
174 198 0
175 198 0
175 198 0
173 197 0
174 198 0
173 196 0
176 199 0
172 197 0
175 198 0
174 197 0
176 199 0
174 198 0
175 198 0
174 197 0
175 198 0
175 198 0
174 198 0
173 197 0
176 198 0
175 198 0
173 197 0
175 198 0
173 197 0
174 198 0
174 197 0
174 198 0
173 197 0
173 197 0
173 196 0
174 198 0
174 197 0
174 198 0
172 197 0
175 198 0
173 197 0
174 198 0
175 198 0
173 197 0
174 198 0
175 198 0
174 197 0
173 196 0
173 197 0
176 199 0
175 198 0
174 198 0
174 197 0
175 197 0
172 197 0
174 198 0
174 198 0
175 198 0
175 198 0
175 198 0
175 198 0
173 197 0
173 197 0
173 197 0
173 197 0
176 199 0
173 197 0
175 198 0
174 198 0
171 195 0
173 197 0
176 198 0
174 197 0
172 196 0
175 198 0
174 197 0
176 199 0
174 197 0
173 197 0
175 198 0
173 197 0
174 198 0
173 197 0
174 198 0
174 198 0
173 197 0
172 196 0
172 196 0
174 198 0
174 197 0
173 196 0
174 197 0
174 197 0
174 197 0
174 198 0
172 196 0
172 196 0
174 197 0
174 197 0
173 196 0
172 196 0
173 196 0
172 195 0
172 196 0
174 198 0
174 197 0
172 196 0
174 197 0
169 193 0
172 196 0
173 197 0
172 196 0
173 197 0
172 195 0
170 194 0
175 197 0
169 194 0
174 197 0
174 197 0
173 196 0
174 197 0
174 197 0
172 195 0
171 195 0
170 193 0
170 193 0
172 196 0
172 195 0
170 194 0
169 192 0
167 191 0
164 188 0
164 188 0
162 184 0
156 180 0
151 172 0
147 169 0
142 165 0
150 173 0
155 178 0
157 181 0
158 182 0
164 187 0
167 191 0
171 194 0
167 191 0
175 198 0
210 226 215
172 196 36
173 197 0
174 198 0
175 198 0
176 198 0
173 196 0
170 194 0
174 197 0
166 190 31
60 91 95
58 91 115
56 89 108
56 89 111
57 90 117
58 91 114
56 89 111
57 90 111
57 90 103
58 91 124
58 92 114
59 93 117
56 89 108
57 91 117
58 92 111
59 92 124
56 89 103
58 92 121
57 91 115
57 90 115
57 91 111
60 94 125
57 90 114
57 91 115
57 90 113
59 93 120
58 91 117
59 92 121
56 89 103
58 92 103
58 91 120
58 92 124
59 93 124
57 91 114
58 92 129
56 89 105
58 91 124
57 90 110
57 91 113
60 94 131
59 93 131
60 94 129
59 92 121
56 88 107
58 91 115
57 90 113
57 91 111
58 92 126
57 91 113
56 89 105
58 91 115
58 92 122
57 90 118
57 90 123
57 89 108
57 90 125
56 89 108
56 88 107
58 91 113
57 90 124
58 91 118
58 91 113
58 91 126
56 89 103
57 89 111
57 89 114
57 90 118
56 88 113
57 90 121
58 90 120
58 90 121
57 90 111
55 86 106
58 91 125
54 85 106
57 90 114
56 87 115
56 88 114
56 88 121
54 85 111
54 83 101
53 83 95
54 84 109
55 85 96
54 85 100
54 85 99
53 83 95
54 83 108
52 80 91
50 76 87
53 82 99
49 75 74
46 70 80
51 72 57
166 188 18
172 196 0
170 194 0
171 195 0
171 195 0
172 196 0
171 195 0
172 195 0
172 195 0
110 112 29
86 84 30
75 73 25
78 77 24
63 65 14
68 68 27
65 68 16
77 78 11
82 80 13
80 81 18
71 72 16
79 80 17
75 75 18
92 89 14
89 89 23
96 96 23
93 92 23
95 95 30
91 91 24
103 102 27
110 108 34
94 94 24
104 102 32
85 86 29
108 106 32
109 107 29
119 115 34
111 110 39
119 115 37
124 120 39
122 119 50
120 118 39
123 120 51
127 123 49
126 123 43
135 130 50
123 121 42
134 130 49
135 132 54
130 127 48
134 131 49
143 138 47
135 131 42
133 129 54
143 136 57
144 139 51
145 139 55
140 136 45
141 136 61
146 141 53
147 141 54
145 140 61
143 138 55
150 143 53
146 142 58
149 143 51
148 142 61
149 143 57
146 141 53
149 143 58
156 150 56
146 140 56
154 148 56
156 151 58
151 145 59
149 145 57
153 149 49
156 150 62
153 147 51
156 150 63
149 143 57
156 151 62
159 152 65
157 150 62
159 152 65
156 151 59
155 149 59
160 154 61
161 155 60
147 143 53
158 151 62
159 153 70
154 148 59
155 150 56
156 151 63
158 152 64
159 153 65
156 151 57
159 154 63
156 148 67
158 150 68
155 149 63
161 153 69
158 151 66
158 152 64
163 155 66
158 152 62
158 152 66
156 149 62
159 151 62
155 150 66
155 149 57
155 149 59
150 144 61
162 155 65
161 154 68
160 153 60
161 155 68
152 146 58
160 153 67
151 146 61
156 150 57
152 147 54
163 156 70
149 144 51
153 147 68
157 150 66
151 144 66
157 151 67
149 143 65
157 150 70
146 139 59
152 147 64
152 146 61
154 147 70
155 149 68
153 146 62
154 147 60
154 148 65
154 147 71
148 143 59
148 143 63
157 151 72
149 143 62
150 143 63
153 147 68
150 143 63
145 140 62
151 144 65
155 149 67
139 133 57
141 135 59
148 143 61
152 146 64
173 197 0
173 197 0
173 197 0
174 198 0
174 197 0
174 198 0
174 197 0
173 196 0
174 197 0
175 198 0
175 198 0
174 198 0
174 197 0
172 196 0
175 198 0
175 198 0
173 197 0
174 198 0
175 198 0
174 197 0
173 197 0
173 197 0
174 197 0
172 196 0
173 197 0
175 198 0
175 198 0
174 198 0
175 198 0
175 198 0
174 197 0
175 198 0
172 197 0
173 197 0
175 198 0
176 199 0
175 198 0
174 197 0
174 197 0
174 197 0
175 198 0
173 197 0
173 197 0
174 197 0
174 198 0
171 196 0
173 197 0
171 195 0
175 198 0
175 198 0
174 197 0
173 196 0
174 197 0
174 197 0
175 198 0
174 197 0
172 197 0
175 198 0
173 197 0
173 197 0
174 198 0
175 198 0
175 198 0
173 197 0
173 196 0
174 197 0
173 196 0
172 196 0
173 196 0
173 196 0
174 197 0
174 197 0
175 198 0
172 196 0
173 197 0
173 197 0
175 198 0
175 198 0
174 197 0
174 198 0
173 197 0
173 197 0
173 196 0
174 197 0
174 197 0
172 196 0
175 198 0
174 198 0
175 198 0
173 196 0
172 196 0
176 199 0
175 198 0
174 197 0
174 197 0
174 197 0
173 196 0
174 197 0
172 196 0
174 197 0
174 197 0
173 197 0
170 195 0
174 197 0
172 196 0
170 194 0
172 196 0
171 195 0
173 196 0
174 197 0
174 197 0
173 196 0
171 195 0
172 195 0
172 196 0
172 196 0
170 193 0
173 197 0
163 186 0
172 195 0
171 194 0
167 190 0
171 194 0
173 196 0
168 192 0
170 193 0
165 188 0
164 187 0
163 185 0
162 185 0
146 169 0
134 156 0
143 165 0
150 172 0
151 173 0
155 179 0
156 179 0
163 188 0
162 185 0
169 193 0
171 195 0
175 198 0
187 207 128
191 211 159
174 197 0
175 198 0
171 195 0
173 196 0
173 196 0
174 197 0
171 195 0
173 197 0
173 196 0
108 134 102
56 88 95
58 92 110
57 90 118
56 89 103
57 90 110
56 89 99
56 89 97
60 94 134
58 92 117
56 89 117
57 90 114
59 92 111
56 89 95
56 89 113
57 90 113
57 90 121
59 93 120
57 91 111
56 89 100
57 90 108
56 89 110
58 91 110
58 91 126
57 90 113
56 89 97
58 91 113
59 93 129
57 90 110
57 91 113
58 92 121
57 91 110
58 91 107
57 90 115
60 94 128
57 91 111
58 91 118
58 92 124
57 91 114
57 90 118
58 91 113
57 90 110
57 91 111
56 90 117
57 90 121
57 90 105
57 90 111
57 91 115
59 93 124
60 93 125
58 91 104
58 92 126
56 89 121
57 90 110
56 88 110
59 92 122
57 90 111
56 88 117
57 89 123
56 88 113
55 88 105
57 90 108
57 89 121
56 89 111
58 92 123
57 91 117
57 90 107
57 90 120
56 89 118
57 88 109
56 89 101
56 88 108
56 87 101
56 88 114
56 88 107
56 88 106
55 86 106
55 86 107
54 84 97
53 83 97
55 86 109
51 81 95
53 84 101
53 83 98
54 84 98
52 82 82
52 81 108
52 81 98
51 79 91
51 79 104
51 79 89
51 77 87
48 74 90
111 130 53
172 196 0
171 194 0
171 194 0
171 195 0
172 196 0
170 193 0
172 195 0
176 198 0
174 197 0
153 169 25
88 86 33
90 87 30
77 77 25
87 84 27
72 70 12
77 75 17
74 74 20
79 79 10
71 72 16
81 82 18
80 82 16
83 82 14
83 81 25
76 78 16
81 81 20
81 81 18
84 85 21
92 92 27
102 101 33
102 100 31
96 95 32
100 99 20
107 106 35
110 108 38
119 116 33
119 116 39
121 119 45
111 109 29
119 117 37
112 109 40
120 117 34
119 116 37
120 118 37
126 123 38
123 120 42
135 131 47
136 131 45
131 127 56
131 128 47
130 127 45
141 135 57
139 134 54
133 129 42
143 138 60
140 136 49
144 138 49
143 138 52
144 139 51
139 135 45
140 135 49
147 141 55
143 139 48
150 144 58
146 141 52
144 140 47
148 142 54
149 144 60
148 144 46
150 144 53
145 141 53
144 140 52
150 145 57
149 143 57
150 144 52
153 147 59
154 147 56
152 145 53
150 145 53
153 147 58
154 148 54
152 147 59
151 146 57
155 149 56
145 141 45
152 146 60
147 141 54
159 153 59
157 152 59
157 151 63
155 149 57
152 146 56
156 149 66
156 149 59
160 153 63
157 150 59
155 149 57
161 154 65
151 144 59
161 154 63
154 148 62
158 151 59
155 149 57
156 149 63
156 149 64
153 147 58
160 154 71
156 149 59
160 154 63
156 149 62
148 141 52
154 148 60
159 152 67
156 150 62
153 147 57
157 150 65
151 145 60
158 153 64
154 147 63
152 147 58
156 149 59
149 144 49
159 152 66
158 151 66
156 150 62
153 147 61
147 142 58
156 149 69
153 147 68
153 146 65
159 153 68
158 151 69
154 148 61
149 144 57
159 152 64
150 145 61
154 147 67
153 147 62
153 147 64
154 149 62
149 143 61
151 144 62
156 149 62
147 141 56
153 147 65
147 140 63
152 146 60
146 140 66
143 138 57
154 149 67
144 139 58
148 141 66
146 140 62
148 141 62
175 198 0
174 197 0
175 198 0
172 195 0
173 197 0
174 197 0
173 197 0
174 197 0
175 198 0
173 197 0
173 197 0
174 198 0
173 197 0
175 198 0
174 198 0
174 198 0
174 197 0
173 197 0
175 198 0
174 197 0
174 197 0
175 198 0
176 198 0
173 196 0
174 197 0
173 197 0
175 198 0
173 197 0
173 196 0
175 198 0
174 197 0
175 198 0
172 195 0
171 195 0
174 197 0
173 197 0
175 198 0
173 197 0
175 198 0
174 198 0
174 198 0
175 198 0
174 197 0
175 198 0
174 197 0
176 198 0
173 197 0
174 198 0
174 198 0
174 198 0
173 196 0
174 197 0
174 198 0
175 198 0
175 198 0
175 198 0
172 196 0
174 197 0
174 197 0
174 197 0
176 198 0
175 198 0
174 198 0
174 197 0
173 196 0
175 198 0
171 195 0
173 197 0
171 195 0
173 196 0
175 198 0
173 197 0
173 196 0
173 197 0
173 196 0
175 198 0
173 197 0
175 198 0
174 198 0
172 196 0
175 198 0
174 197 0
174 197 0
172 195 0
173 197 0
173 196 0
172 196 0
173 197 0
173 197 0
174 197 0
173 197 0
174 198 0
174 197 0
172 196 0
173 196 0
172 195 0
172 196 0
174 197 0
172 196 0
174 197 0
171 195 0
172 196 0
173 196 0
171 194 0
172 196 0
171 194 0
172 196 0
171 195 0
173 196 0
171 195 0
171 195 0
172 196 0
172 194 0
171 194 0
170 193 0
171 194 0
168 191 0
172 196 0
169 193 0
170 194 0
169 193 0
169 192 0
167 191 0
164 187 0
167 190 0
162 187 0
162 186 0
164 187 0
164 187 0
156 178 0
145 167 0
140 161 0
146 169 0
154 177 0
160 182 0
159 182 0
163 186 0
163 186 0
164 187 0
169 192 0
170 193 0
173 197 25
201 218 194
173 197 25
172 196 0
173 196 0
173 197 0
173 196 0
171 195 0
171 194 0
172 196 0
175 197 0
173 196 0
163 186 31
57 88 94
57 90 111
56 88 95
56 89 97
57 90 115
55 88 95
56 89 103
57 90 107
57 91 103
57 90 114
56 89 107
55 88 92
59 92 118
58 91 107
56 89 113
57 90 103
58 91 120
57 90 105
59 92 124
58 92 110
56 88 99
56 89 105
57 91 118
57 89 110
57 90 103
58 92 113
56 90 107
56 89 110
58 91 117
58 92 114
57 91 108
58 91 113
57 89 108
55 88 102
58 92 113
59 92 118
58 91 107
59 92 122
59 93 129
59 93 129
56 89 115
59 92 120
57 90 114
57 89 115
59 92 120
58 92 117
57 90 117
57 90 113
54 87 94
57 90 114
58 91 124
58 92 114
58 92 122
56 88 107
56 89 114
59 92 119
57 90 107
57 89 114
56 88 114
59 93 129
56 88 105
57 90 124
57 89 112
56 89 104
57 89 110
58 90 121
56 88 103
57 90 100
56 87 115
56 88 107
57 90 110
56 88 104
55 87 109
58 90 121
55 86 104
57 89 113
55 87 110
55 86 108
54 84 112
54 85 103
55 85 97
52 81 94
51 80 88
52 81 94
53 83 100
51 79 89
53 81 102
52 81 105
50 78 94
50 77 90
46 70 84
47 71 75
154 176 37
172 196 0
170 193 0
171 194 0
171 194 0
171 194 0
173 195 0
173 194 0
171 194 0
172 195 0
171 195 0
114 121 34
99 95 39
83 80 26
76 73 21
64 66 12
86 84 18
87 86 14
62 64 8
71 72 9
72 73 20
78 78 14
79 78 13
93 91 16
84 83 14
88 88 26
82 84 23
86 84 22
94 93 35
94 92 19
86 86 19
105 102 30
105 105 35
98 97 24
106 105 28
113 109 36
111 107 36
116 113 37
104 101 33
122 119 38
120 117 41
117 115 41
123 120 42
120 117 46
130 127 34
127 124 39
131 127 45
131 127 44
132 129 48
137 131 49
132 128 45
132 128 41
136 131 46
129 126 43
135 131 45
142 137 45
130 127 37
137 134 52
137 131 53
135 132 45
139 135 45
145 140 51
144 140 53
145 140 52
152 145 50
139 134 52
146 140 48
151 147 54
148 143 44
147 142 48
148 142 57
148 144 51
143 138 56
149 143 54
152 145 57
151 145 57
153 147 58
150 144 58
148 143 49
152 147 51
151 145 53
151 145 59
152 144 60
158 152 57
159 152 62
162 155 59
154 148 53
155 150 59
141 136 52
157 150 60
151 144 49
152 146 57
159 152 61
155 149 56
153 148 57
158 151 64
152 148 49
152 147 54
154 148 63
151 146 53
154 149 57
164 156 71
156 149 65
152 145 58
163 156 69
158 153 59
155 149 56
160 153 64
151 146 49
152 146 58
161 153 70
159 152 71
157 150 60
151 145 54
143 137 51
153 147 52
158 152 64
153 146 62
154 148 61
158 151 67
154 147 62
151 146 63
157 149 67
151 144 61
153 147 67
147 142 58
153 148 53
151 143 63
151 145 58
156 149 70
151 145 61
154 147 63
148 141 58
156 151 61
154 147 60
159 153 69
152 146 66
139 134 53
151 145 65
148 142 53
153 148 63
150 144 62
149 143 67
144 138 56
153 146 66
151 146 63
148 142 61
146 140 61
146 141 65
149 143 54
150 143 61
141 135 54
147 142 61
151 145 63
174 197 0
174 198 0
173 197 0
173 197 0
175 198 0
173 196 0
174 197 0
175 198 0
171 195 0
171 195 0
176 198 0
173 197 0
173 197 0
175 198 0
174 197 0
173 197 0
173 197 0
175 198 0
175 198 0
175 198 0
174 198 0
173 197 0
174 197 0
175 198 0
174 197 0
175 198 0
173 197 0
175 197 0
173 197 0
175 198 0
175 198 0
173 197 0
174 197 0
175 198 0
175 198 0
175 198 0
175 198 0
175 198 0
175 197 0
173 197 0
173 197 0
172 197 0
173 197 0
173 197 0
173 197 0
174 197 0
173 197 0
174 197 0
173 197 0
175 198 0
173 197 0
175 198 0
173 196 0
173 197 0
176 199 0
173 197 0
176 199 0
175 198 0
174 197 0
174 197 0
172 196 0
171 196 0
172 196 0
173 197 0
174 197 0
174 197 0
174 198 0
174 198 0
174 197 0
174 197 0
173 196 0
174 197 0
174 197 0
173 197 0
174 198 0
173 197 0
174 197 0
173 196 0
173 197 0
174 197 0
173 196 0
174 198 0
175 198 0
173 197 0
173 197 0
173 197 0
174 197 0
171 195 0
173 196 0
173 197 0
175 198 0
173 196 0
172 195 0
171 195 0
171 195 0
170 193 0
173 197 0
171 195 0
174 197 0
171 195 0
172 196 0
174 197 0
172 195 0
174 197 0
172 196 0
175 197 0
174 197 0
170 193 0
170 194 0
171 195 0
172 195 0
171 195 0
171 195 0
168 193 0
171 195 0
171 195 0
170 194 0
170 194 0
164 189 0
166 189 0
167 190 0
170 193 0
166 190 0
168 192 0
166 190 0
163 187 0
162 186 0
159 182 0
152 175 0
150 172 0
143 164 0
144 167 0
146 168 0
156 178 0
152 174 0
161 184 0
154 178 0
163 186 0
165 188 0
172 195 0
174 198 0
194 213 159
179 202 92
175 198 0
174 197 0
172 195 0
172 195 0
173 196 0
174 198 0
169 193 0
170 194 0
172 196 0
173 196 0
175 198 0
117 142 88
57 90 108
54 87 99
56 89 103
57 91 108
57 90 100
56 88 103
57 90 113
55 87 95
58 91 114
56 90 108
57 90 118
56 89 110
55 88 103
57 90 117
57 91 114
56 88 107
56 89 95
57 90 111
56 89 108
56 89 102
57 91 108
57 91 118
56 89 108
58 92 120
57 90 110
57 89 105
56 89 110
57 90 113
58 91 113
57 90 113
57 90 115
59 93 121
58 91 114
58 91 117
57 89 111
57 90 110
57 91 117
56 89 107
59 92 129
58 91 107
55 88 105
58 91 115
55 88 105
57 90 114
57 90 115
58 91 117
59 93 130
55 88 110
58 91 116
57 90 110
57 89 114
58 91 111
55 87 108
56 89 108
57 90 108
57 90 111
57 90 111
57 90 107
58 91 121
58 90 124
57 89 115
57 89 117
54 85 99
55 87 105
56 88 105
56 88 107
55 85 104
54 86 107
56 88 98
56 89 110
55 86 114
55 86 107
55 87 107
57 89 115
57 89 115
56 87 116
55 85 109
54 84 95
55 87 105
55 85 97
52 82 94
54 85 93
52 81 93
52 81 84
53 82 100
50 78 81
50 79 90
49 76 82
48 74 77
48 72 77
104 124 56
171 193 0
168 191 0
171 193 0
170 193 0
168 190 0
172 195 0
170 193 0
168 190 0
171 195 0
171 194 0
172 194 0
152 171 8
90 89 24
86 84 29
78 76 18
79 78 14
84 83 21
75 73 18
70 71 14
69 70 14
92 90 20
89 89 16
77 77 16
80 79 3
87 86 12
91 91 24
80 82 23
94 92 14
96 96 20
96 94 30
96 95 28
88 87 18
96 95 20
90 89 24
108 106 19
100 99 19
107 105 29
100 98 27
107 105 28
122 117 35
114 112 38
119 116 40
118 115 40
112 108 36
126 123 43
117 115 28
131 126 34
122 119 37
131 127 47
125 122 42
129 124 52
127 124 43
131 129 39
138 133 56
138 134 42
140 135 50
146 141 54
138 133 52
129 124 42
136 132 41
141 136 39
135 131 38
139 135 40
144 138 53
139 134 46
142 138 49
152 147 56
142 136 46
146 141 49
157 151 54
145 139 49
156 150 42
145 141 49
145 140 44
152 145 57
151 146 53
149 144 55
147 142 48
151 145 54
152 145 52
150 145 56
158 150 62
146 141 53
156 149 57
144 138 47
155 148 62
158 151 59
154 149 54
147 142 53
153 147 59
160 152 66
150 144 58
155 149 59
154 147 59
151 144 61
155 149 59
152 146 57
154 149 58
154 148 57
148 144 52
152 144 59
147 142 47
154 148 53
150 145 54
152 147 53
151 146 52
159 152 63
151 144 57
154 147 60
153 146 63
151 145 61
151 144 51
155 149 51
153 147 58
148 142 57
149 144 51
157 151 59
155 148 61
155 150 60
148 141 56
151 145 57
151 145 54
154 147 54
151 146 57
155 149 63
149 144 56
158 152 64
159 151 57
149 142 60
147 142 51
154 147 62
153 146 60
149 144 57
155 149 65
150 145 56
147 141 57
154 148 56
148 142 54
152 145 62
147 141 53
155 148 64
155 148 67
145 138 57
151 144 62
143 138 60
135 131 44
142 137 57
145 139 61
151 145 64
148 142 62
146 140 58
151 145 62
152 145 66
150 144 65
174 197 0
174 198 0
174 197 0
175 198 0
175 198 0
174 198 0
173 197 0
173 197 0
175 198 0
175 198 0
174 198 0
174 198 0
174 198 0
173 197 0
173 197 0
172 196 0
173 196 0
174 197 0
173 197 0
172 197 0
173 197 0
174 197 0
176 199 0
174 197 0
176 198 0
174 198 0
176 198 0
173 197 0
174 197 0
174 197 0
174 198 0
173 197 0
175 198 0
173 196 0
174 197 0
174 198 0
173 197 0
173 197 0
173 197 0
174 197 0
173 196 0
174 198 0
172 195 0
172 196 0
175 198 0
174 198 0
174 197 0
173 197 0
174 198 0
172 196 0
173 197 0
175 198 0
173 197 0
173 197 0
174 197 0
174 197 0
172 196 0
175 198 0
174 197 0
172 196 0
173 196 0
172 196 0
172 196 0
174 197 0
172 196 0
175 198 0
175 198 0
174 197 0
174 197 0
173 197 0
173 196 0
174 197 0
173 196 0
173 196 0
174 197 0
174 197 0
173 197 0
174 197 0
174 197 0
176 198 0
172 196 0
171 196 0
173 197 0
173 196 0
170 194 0
171 195 0
172 196 0
173 197 0
172 196 0
171 195 0
172 195 0
174 197 0
172 196 0
173 195 0
172 195 0
172 195 0
172 195 0
172 196 0
173 195 0
172 195 0
169 193 0
174 197 0
170 193 0
174 197 0
172 196 0
169 194 0
169 193 0
169 194 0
168 192 0
170 194 0
171 194 0
173 196 0
170 194 0
168 191 0
168 191 0
170 193 0
169 192 0
172 195 0
167 192 0
166 189 0
168 192 0
167 191 0
162 185 0
166 190 0
166 188 0
164 187 0
166 188 0
159 181 0
148 170 0
148 169 0
149 169 0
149 170 0
147 169 0
150 172 0
157 181 0
157 181 0
164 188 0
166 188 0
169 193 0
170 194 0
176 198 62
198 217 179
169 193 0
169 192 0
172 196 0
172 196 0
172 196 0
167 191 0
170 194 0
170 193 0
172 195 0
171 195 0
173 196 0
170 194 0
159 182 36
66 96 105
55 88 94
55 87 100
57 90 110
56 88 111
57 91 105
58 91 107
57 90 103
56 89 110
56 90 88
58 92 117
56 89 107
58 92 111
57 91 107
58 91 118
55 88 97
56 89 95
58 91 111
56 89 111
57 90 117
57 90 108
57 91 111
56 90 111
58 92 128
55 88 105
57 90 114
57 90 108
56 89 105
56 89 115
58 92 122
57 90 108
56 89 103
56 90 103
57 90 114
56 89 103
59 93 115
57 91 117
58 91 121
57 91 117
56 87 107
57 90 111
57 90 111
55 86 99
56 89 105
57 90 107
57 89 99
55 87 99
55 88 97
58 92 121
57 90 113
55 88 95
58 91 117
56 89 102
56 89 108
55 87 107
59 93 124
58 91 111
56 88 100
56 89 107
57 90 114
55 87 104
55 87 102
55 87 104
58 91 116
56 87 103
56 88 108
56 89 100
56 88 114
54 86 96
55 86 103
55 86 107
54 85 104
55 86 105
55 86 96
56 88 112
53 84 99
53 83 101
54 85 104
55 86 108
53 83 100
53 84 93
51 79 82
50 79 98
53 82 90
54 84 104
50 77 89
52 80 100
49 76 91
50 78 75
54 77 75
158 180 19
170 192 0
169 191 0
172 195 0
171 193 0
169 192 0
171 192 0
171 193 0
172 195 0
169 192 0
168 191 0
172 195 0
173 196 0
131 142 26
90 86 35
92 89 19
84 82 16
75 72 18
83 81 14
80 80 8
68 68 17
78 76 8
78 79 20
74 74 10
76 75 12
87 86 18
90 88 12
95 93 18
88 87 18
99 96 22
90 89 21
91 91 19
108 105 24
99 97 22
111 108 39
108 105 30
98 96 25
101 99 31
101 101 18
120 117 30
102 102 14
102 101 29
117 115 33
104 102 31
121 119 36
119 117 33
116 114 34
122 118 35
115 113 33
130 127 45
128 124 37
125 121 46
137 133 51
126 123 42
143 138 46
141 137 35
138 132 48
135 131 45
140 134 54
136 132 39
133 128 40
132 128 46
144 137 47
141 135 43
138 134 46
148 142 49
145 140 47
148 142 54
146 140 44
145 140 48
145 140 49
142 137 42
150 145 51
149 143 53
147 142 54
151 144 54
148 143 47
146 141 48
148 142 52
150 145 51
147 141 56
157 151 51
152 146 49
153 148 42
149 143 48
149 144 49
151 145 49
150 144 53
155 149 60
158 152 60
151 145 54
152 146 56
150 146 51
153 148 59
150 144 49
153 148 60
156 150 61
152 146 57
152 145 61
153 147 57
158 151 64
152 145 58
156 150 59
157 150 64
148 143 54
150 143 53
152 147 56
151 144 51
150 144 57
153 148 53
151 146 56
152 146 54
157 150 64
149 143 56
152 147 58
154 147 56
163 156 68
150 145 48
150 144 60
159 153 58
153 147 62
153 146 60
150 145 59
152 146 60
156 150 56
146 141 42
148 141 57
160 153 63
151 144 60
150 144 58
153 146 59
149 143 60
143 137 54
151 145 58
151 144 62
154 148 57
145 139 57
145 139 54
148 142 52
146 139 59
153 148 65
149 144 52
155 148 65
152 145 60
149 142 58
149 143 57
142 137 49
151 145 59
144 138 58
141 135 53
150 144 62
152 146 56
142 135 59
149 143 61
141 135 56
174 198 0
173 196 0
171 195 0
174 197 0
173 197 0
173 196 0
173 197 0
173 197 0
174 197 0
174 198 0
174 197 0
175 198 0
175 198 0
174 197 0
174 197 0
173 196 0
175 198 0
173 196 0
174 197 0
175 198 0
173 197 0
175 198 0
172 196 0
173 197 0
173 197 0
174 197 0
175 198 0
173 197 0
172 196 0
175 198 0
174 198 0
173 197 0
172 196 0
173 197 0
172 196 0
174 197 0
176 199 0
174 197 0
172 196 0
174 197 0
172 197 0
174 197 0
172 196 0
174 198 0
174 198 0
173 197 0
173 196 0
174 197 0
173 197 0
174 197 0
174 197 0
174 198 0
175 198 0
172 197 0
174 197 0
174 197 0
173 197 0
172 196 0
174 197 0
173 197 0
173 196 0
173 197 0
173 196 0
173 197 0
173 197 0
173 197 0
172 196 0
173 197 0
174 197 0
174 197 0
172 196 0
173 197 0
173 196 0
174 198 0
172 196 0
174 198 0
173 197 0
172 196 0
173 196 0
172 195 0
173 196 0
173 197 0
168 192 0
171 194 0
175 198 0
174 197 0
173 197 0
173 197 0
174 197 0
174 197 0
169 193 0
174 198 0
172 195 0
169 193 0
173 196 0
171 195 0
173 196 0
171 194 0
171 195 0
168 192 0
167 191 0
172 196 0
168 193 0
173 196 0
168 192 0
171 194 0
175 198 0
170 194 0
170 193 0
170 194 0
173 196 0
172 195 0
171 195 0
169 192 0
167 190 0
171 195 0
166 190 0
164 187 0
166 189 0
170 193 0
168 192 0
160 183 0
164 187 0
157 180 0
160 184 0
158 181 0
160 182 0
152 174 0
149 171 0
146 168 0
146 167 0
156 179 0
152 175 0
162 184 0
160 183 0
160 183 0
157 181 0
168 191 0
166 189 0
173 196 0
201 219 188
171 194 36
172 196 0
171 195 0
171 195 0
172 196 0
170 193 0
168 192 0
171 195 0
171 194 0
169 192 0
171 195 0
170 194 0
170 194 0
172 196 0
123 147 67
55 87 95
55 87 82
56 88 90
55 87 99
56 89 95
58 92 108
55 88 92
55 87 99
56 88 100
54 86 99
59 92 117
57 90 114
58 92 121
56 89 105
57 90 110
58 92 118
58 92 108
57 90 114
59 92 118
57 91 110
56 89 107
56 89 105
57 91 117
56 89 107
56 89 110
57 89 111
58 91 113
57 90 115
58 91 115
56 89 105
56 89 103
57 90 111
56 89 100
57 89 110
58 92 114
56 88 114
57 90 110
57 90 105
58 91 122
57 90 110
58 91 115
56 88 107
57 90 110
56 88 110
56 88 110
58 91 118
58 91 110
58 91 115
57 90 110
58 91 128
56 88 108
55 87 110
54 86 92
58 91 105
55 87 90
54 86 105
58 90 115
56 88 99
57 89 111
56 89 110
56 88 105
54 85 94
54 86 101
55 87 108
54 85 89
56 88 117
54 85 104
55 86 103
54 84 94
56 88 112
56 89 108
57 90 114
52 83 89
55 86 103
54 84 104
51 80 91
53 84 98
55 85 105
51 79 83
52 82 89
54 85 91
52 81 92
52 81 92
54 83 99
53 83 95
49 75 77
49 76 76
46 71 78
112 132 49
164 187 0
167 190 0
167 189 0
169 192 0
166 188 0
169 190 0
170 193 0
172 194 0
167 188 0
168 191 0
171 194 0
171 193 0
171 194 0
166 188 11
111 113 30
87 85 22
89 87 25
68 66 14
82 80 16
89 86 16
78 77 19
62 64 3
74 74 15
93 93 20
82 80 18
83 83 16
75 75 8
80 79 20
84 83 23
94 92 18
90 87 23
85 84 21
89 88 32
101 99 24
97 96 32
114 110 41
99 98 24
103 102 28
100 97 24
109 106 42
106 104 33
110 109 28
106 103 25
116 112 37
113 110 35
106 104 16
117 115 35
129 125 38
125 123 42
133 128 37
131 128 34
120 117 35
132 128 40
133 130 35
137 132 39
135 131 36
132 127 45
133 129 40
139 134 48
143 137 52
135 130 41
142 137 48
138 132 40
145 141 51
148 142 53
142 139 47
146 140 42
145 140 49
143 138 52
141 136 42
149 143 56
140 136 44
135 131 41
150 144 47
139 134 45
145 139 51
147 141 42
145 139 48
142 137 42
149 143 49
153 147 49
143 137 51
153 147 52
144 140 48
148 143 54
153 147 53
145 138 47
156 149 57
153 148 53
153 147 53
147 141 44
151 144 53
148 142 57
147 142 44
156 151 48
155 149 62
153 148 57
149 142 56
151 144 59
155 148 54
155 150 51
150 145 52
152 146 57
159 152 61
153 146 58
147 142 51
149 144 51
152 147 49
149 144 53
162 154 64
148 143 54
152 145 54
146 140 52
150 144 60
149 144 53
145 139 45
150 144 57
158 152 63
150 144 58
149 144 52
152 147 59
150 144 59
153 147 59
158 152 69
154 147 59
152 146 56
152 146 59
141 136 53
148 141 57
148 141 58
155 148 64
148 141 59
147 141 61
149 142 57
152 146 61
152 147 57
154 148 61
142 138 48
155 148 67
147 140 59
150 144 52
152 145 65
150 143 54
150 143 58
148 142 62
149 142 61
148 142 61
144 139 48
154 148 64
145 139 60
157 150 68
146 140 58
150 143 60
151 144 61
150 144 61
172 196 0
175 198 0
172 196 0
174 197 0
172 196 0
173 197 0
170 195 0
174 197 0
173 197 0
175 198 0
174 197 0
172 196 0
175 198 0
176 198 0
174 197 0
174 197 0
173 197 0
173 197 0
174 197 0
173 196 0
173 197 0
174 197 0
175 198 0
174 198 0
175 198 0
174 197 0
173 197 0
174 198 0
174 198 0
175 198 0
172 196 0
175 198 0
174 197 0
174 197 0
172 196 0
175 198 0
173 197 0
173 197 0
171 195 0
170 194 0
173 197 0
172 197 0
173 196 0
175 198 0
177 199 0
172 196 0
174 197 0
173 197 0
172 195 0
173 197 0
175 198 0
173 197 0
173 196 0
173 197 0
173 197 0
173 197 0
173 197 0
173 197 0
172 196 0
174 198 0
173 196 0
172 196 0
173 197 0
172 197 0
174 197 0
174 197 0
169 193 0
172 196 0
175 198 0
170 194 0
171 195 0
173 197 0
173 197 0
173 197 0
175 198 0
174 197 0
172 196 0
175 198 0
173 196 0
173 197 0
173 196 0
172 196 0
172 196 0
174 198 0
174 197 0
172 196 0
175 198 0
174 197 0
174 196 0
174 197 0
174 196 0
171 195 0
174 197 0
170 194 0
175 198 0
171 194 0
172 196 0
173 196 0
168 192 0
171 194 0
169 193 0
171 195 0
169 193 0
169 193 0
171 194 0
171 195 0
171 195 0
170 194 0
168 192 0
170 193 0
170 194 0
167 190 0
168 192 0
166 190 0
169 192 0
167 191 0
171 194 0
170 193 0
169 192 0
161 184 0
166 190 0
167 189 0
158 181 0
162 185 0
159 183 0
159 181 0
152 174 0
142 163 0
148 169 0
139 162 0
149 171 0
147 169 0
153 175 0
156 179 0
161 183 0
159 183 0
164 187 0
168 191 0
173 196 0
189 209 133
180 202 102
167 191 0
171 195 0
171 193 0
173 196 0
171 195 0
171 194 0
171 195 0
166 190 0
169 193 0
170 193 0
171 194 0
167 190 0
168 192 0
167 192 0
167 190 0
79 107 84
56 88 99
56 89 102
56 89 105
54 86 92
54 87 94
54 86 99
56 89 111
55 88 102
58 92 113
58 91 105
58 91 118
57 90 97
56 89 107
58 91 118
58 91 118
54 86 94
56 89 108
54 87 97
57 89 103
56 89 102
56 89 108
57 90 111
58 91 114
57 90 111
59 92 120
57 89 105
54 86 97
56 90 107
55 88 103
55 87 100
54 85 100
55 88 95
57 90 100
56 89 108
56 89 102
55 87 100
58 91 114
56 89 108
58 91 114
55 86 111
56 88 103
59 93 117
55 88 97
57 90 113
56 88 105
55 88 100
58 90 110
55 87 103
55 87 113
58 91 120
56 89 113
54 86 103
54 86 103
54 85 99
58 91 113
58 90 117
57 90 108
55 87 104
56 88 112
55 87 103
56 88 105
56 88 108
55 86 101
56 89 110
55 87 94
54 86 105
54 85 94
54 86 97
54 84 95
54 84 95
54 85 105
56 88 103
53 84 102
57 88 113
54 86 101
53 83 91
55 86 110
53 82 101
55 86 104
54 84 103
52 81 81
53 82 89
50 77 88
52 80 94
50 78 82
45 69 80
70 92 69
166 187 0
168 189 0
166 188 0
168 192 0
168 191 0
168 190 0
169 191 0
168 190 0
165 187 0
166 188 0
169 192 0
167 190 0
164 186 0
168 191 0
168 191 0
151 170 16
89 88 28
100 94 34
93 89 21
85 84 12
76 74 21
70 70 8
87 84 21
81 80 14
80 78 3
80 78 11
78 79 20
81 80 11
96 94 15
90 88 20
88 86 15
94 92 28
99 98 18
91 90 21
89 88 25
105 102 34
105 103 32
96 94 23
121 117 32
99 98 21
107 105 21
104 103 16
113 109 31
116 113 31
116 114 19
127 123 38
114 111 35
120 117 34
134 130 45
132 127 37
125 121 42
130 126 45
122 120 28
131 127 42
124 120 39
142 137 46
136 131 46
123 118 29
142 136 45
130 126 37
140 134 48
151 144 47
140 134 38
137 133 45
139 134 48
135 131 30
141 137 38
140 135 39
139 134 45
135 131 44
139 134 42
133 129 40
143 138 49
142 139 37
144 139 47
154 146 53
147 142 47
147 141 43
154 147 59
146 141 47
147 141 49
147 143 52
148 142 52
149 144 41
154 148 53
144 139 41
153 146 58
150 144 52
146 140 53
153 147 54
153 148 51
150 145 44
153 147 56
148 142 53
147 141 49
150 145 45
144 139 42
156 150 57
151 144 57
146 140 47
155 147 57
150 144 54
157 149 61
157 151 59
146 140 48
154 147 61
155 150 57
156 150 57
151 146 54
149 143 53
154 148 56
155 148 59
151 146 57
152 146 62
155 149 61
151 146 59
151 146 54
156 151 60
145 140 47
151 144 57
152 147 57
147 141 58
152 147 57
160 153 61
145 138 52
150 145 56
155 148 59
150 144 59
151 145 57
145 139 56
149 144 54
158 151 63
148 142 49
155 148 62
152 146 61
151 145 61
155 147 63
146 141 48
151 145 53
145 139 56
152 146 57
146 141 56
146 140 56
158 151 68
143 138 53
151 145 65
146 140 57
155 149 64
150 143 61
145 138 56
146 140 58
146 141 60
142 137 54
148 142 63
152 145 68
152 146 57
173 196 0
172 196 0
172 196 0
172 195 0
173 197 0
175 198 0
172 195 0
173 197 0
173 197 0
174 197 0
173 197 0
172 196 0
174 198 0
174 197 0
174 197 0
172 196 0
173 196 0
172 196 0
174 198 0
173 197 0
174 197 0
172 196 0
173 197 0
171 196 0
175 198 0
172 195 0
175 198 0
174 197 0
172 195 0
174 198 0
173 197 0
173 197 0
174 198 0
174 198 0
172 195 0
174 198 0
173 197 0
176 199 0
175 198 0
175 198 0
174 197 0
174 198 0
174 198 0
173 197 0
172 196 0
173 197 0
174 198 0
173 197 0
174 197 0
174 198 0
175 198 0
171 195 0
177 199 0
174 197 0
174 197 0
173 196 0
175 198 0
171 195 0
174 197 0
174 197 0
173 197 0
176 198 0
173 196 0
173 196 0
173 197 0
173 196 0
173 197 0
175 198 0
172 196 0
173 197 0
174 197 0
173 197 0
174 198 0
173 196 0
171 194 0
171 195 0
175 198 0
173 196 0
175 198 0
175 198 0
173 197 0
173 196 0
171 195 0
175 198 0
169 192 0
170 194 0
170 194 0
174 197 0
174 198 0
174 197 0
173 196 0
172 195 0
170 193 0
171 194 0
173 197 0
172 196 0
173 196 0
172 195 0
170 193 0
168 192 0
172 195 0
171 195 0
170 193 0
168 190 0
171 195 0
168 192 0
164 187 0
172 195 0
168 191 0
167 191 0
170 194 0
170 193 0
168 192 0
169 192 0
167 191 0
167 191 0
168 190 0
166 189 0
166 189 0
165 189 0
161 185 0
163 185 0
168 191 0
159 182 0
156 178 0
152 173 0
143 164 0
151 173 0
148 170 0
142 164 0
155 178 0
158 180 0
160 184 0
155 178 0
165 188 0
163 186 0
168 191 0
170 193 0
177 200 67
185 206 147
168 192 0
169 192 0
169 193 0
167 191 0
172 196 0
171 194 0
169 193 0
171 194 0
166 190 0
171 195 0
167 190 0
170 194 0
171 195 0
169 192 0
173 195 0
170 193 0
141 164 54
55 87 95
55 87 88
57 90 103
55 88 105
56 89 103
59 93 118
56 89 102
56 89 86
55 88 105
56 89 107
58 91 103
56 89 110
57 90 103
55 88 105
56 90 97
56 89 95
57 90 107
55 88 108
55 87 102
57 90 117
58 91 117
57 91 111
57 90 117
56 88 103
56 89 105
57 90 105
56 89 111
56 89 111
57 90 108
56 88 97
56 89 103
56 89 105
58 91 110
57 90 105
54 85 99
56 89 114
58 91 124
56 89 100
57 90 111
56 88 99
58 91 118
57 90 115
57 90 102
58 92 118
57 90 103
56 88 113
56 88 101
57 90 113
55 86 100
57 90 107
56 88 103
56 88 103
56 88 110
58 91 118
56 88 110
53 85 101
56 88 121
55 86 108
57 89 107
56 88 105
54 86 102
53 84 95
57 90 116
56 88 111
55 86 113
56 88 104
58 91 129
55 86 104
55 87 101
52 83 96
53 82 93
55 87 103
56 87 101
52 82 99
56 87 112
52 81 78
54 84 99
53 82 95
53 81 92
53 82 103
53 83 97
51 79 82
47 73 75
48 75 89
49 76 76
48 74 65
140 160 27
169 192 0
163 186 0
166 189 0
169 190 0
169 190 0
169 190 0
163 186 0
167 189 0
168 190 0
170 191 0
163 185 0
166 189 0
166 188 0
165 187 0
164 186 0
168 191 0
125 135 29
92 89 32
93 90 31
93 88 19
91 88 18
78 76 5
83 81 16
81 79 18
71 70 12
83 82 9
95 93 16
93 90 5
84 83 20
86 85 14
85 84 18
89 87 19
98 95 20
89 88 11
100 100 20
104 103 30
110 108 22
110 108 24
119 114 29
100 99 22
97 96 21
99 97 22
120 117 37
113 110 32
124 118 36
117 113 29
110 107 39
118 115 30
113 110 30
113 109 34
127 123 30
125 122 36
131 125 38
124 121 28
129 125 46
139 134 36
129 125 43
139 135 42
136 131 39
134 130 38
128 124 33
132 126 50
134 129 42
141 137 40
133 129 44
140 136 39
130 126 42
147 140 46
147 141 51
147 141 46
143 138 45
139 134 39
139 134 45
149 143 52
144 138 47
145 139 42
141 135 42
141 136 43
145 140 45
140 135 32
145 138 53
152 146 56
145 140 44
141 138 45
151 144 51
143 137 45
147 143 48
155 148 54
144 140 42
149 144 52
153 146 56
149 142 51
147 142 52
156 149 57
151 145 56
153 145 64
149 143 49
150 143 57
150 144 48
148 142 53
153 146 54
150 144 53
156 149 57
152 147 54
149 143 47
150 143 49
150 143 57
148 143 52
148 143 53
144 138 48
149 142 60
147 142 52
148 143 45
151 143 57
150 145 53
149 143 52
148 143 57
150 143 58
154 148 53
151 145 57
153 146 60
152 148 60
150 144 54
150 143 54
150 144 53
154 149 54
148 142 64
149 142 53
152 146 58
141 135 54
148 141 53
139 135 48
148 141 56
149 143 52
148 141 56
147 142 59
152 145 60
151 144 61
154 148 60
138 133 49
145 138 58
142 136 56
147 140 58
139 133 51
141 136 49
138 133 41
148 141 62
147 140 58
142 136 53
141 136 58
146 140 58
146 139 57
144 139 51
126 122 39
148 143 64
150 144 63
172 197 0
174 197 0
173 197 0
173 196 0
174 197 0
175 198 0
174 198 0
173 197 0
173 197 0
173 197 0
173 197 0
173 196 0
173 197 0
174 198 0
173 197 0
174 197 0
173 196 0
173 196 0
172 196 0
174 197 0
173 197 0
175 198 0
173 196 0
174 197 0
175 198 0
174 198 0
172 196 0
175 198 0
175 198 0
173 197 0
173 197 0
172 196 0
172 196 0
171 195 0
173 197 0
175 198 0
174 198 0
175 198 0
174 197 0
172 196 0
174 198 0
175 198 0
175 198 0
176 199 0
174 198 0
174 197 0
172 196 0
173 196 0
173 197 0
172 196 0
173 197 0
171 196 0
174 198 0
173 196 0
174 197 0
172 196 0
172 196 0
173 196 0
174 197 0
174 198 0
173 196 0
173 197 0
175 197 0
173 197 0
174 198 0
173 197 0
174 198 0
173 197 0
173 197 0
172 196 0
173 196 0
171 195 0
174 197 0
172 196 0
174 197 0
172 196 0
174 197 0
169 193 0
171 196 0
173 197 0
174 197 0
172 195 0
171 195 0
174 197 0
174 197 0
172 196 0
172 196 0
170 194 0
170 194 0
171 195 0
173 196 0
174 196 0
173 197 0
174 197 0
172 195 0
169 193 0
172 195 0
171 195 0
170 193 0
173 196 0
172 195 0
173 196 0
169 193 0
171 195 0
170 194 0
172 196 0
172 195 0
169 192 0
170 193 0
168 191 0
168 191 0
168 191 0
168 191 0
167 190 0
168 191 0
165 189 0
169 192 0
168 190 0
168 191 0
162 185 0
157 180 0
158 182 0
158 180 0
156 178 0
147 169 0
144 165 0
144 167 0
146 166 0
151 173 0
154 176 0
155 176 0
156 179 0
156 179 0
156 178 0
161 184 0
166 189 0
170 194 0
171 194 44
196 215 177
171 194 0
168 191 0
171 195 0
168 193 0
169 192 0
169 194 0
171 194 0
172 196 0
166 189 0
169 193 0
169 192 0
165 188 0
171 195 0
168 191 0
165 190 0
165 190 0
168 191 0
169 192 0
106 131 74
54 87 100
54 86 82
57 90 97
58 91 107
56 89 105
56 89 94
56 89 100
55 87 97
55 87 90
57 91 114
56 89 102
56 89 105
55 88 95
55 87 108
57 91 118
55 87 105
55 87 90
55 88 111
55 87 92
56 88 100
57 91 113
55 87 105
57 90 107
56 88 113
56 88 108
57 89 114
57 89 114
58 92 122
56 88 103
55 88 108
56 88 102
55 87 110
55 88 110
57 91 103
57 90 108
57 90 115
58 91 114
57 90 107
56 88 108
57 90 115
57 90 121
56 89 102
54 86 92
55 88 113
56 88 90
57 89 110
57 89 116
56 89 105
55 87 100
53 84 103
55 87 92
56 88 110
56 88 100
54 86 101
54 86 102
54 86 90
54 86 105
56 88 103
56 88 107
56 89 102
55 87 104
54 87 97
54 85 99
53 84 102
57 89 118
55 86 96
55 87 107
56 88 107
52 83 97
54 85 104
54 85 95
53 83 89
52 81 94
54 83 96
54 85 100
50 78 88
52 81 91
54 84 92
51 80 89
49 76 87
51 79 84
49 76 86
49 75 66
48 73 86
106 124 45
166 188 0
158 180 0
166 186 0
165 189 0
160 181 0
159 181 0
168 188 0
162 185 0
167 188 0
166 186 0
164 187 0
163 186 0
168 190 0
168 190 0
168 190 0
168 189 0
166 189 0
164 185 11
120 126 30
92 88 24
86 85 23
76 73 16
83 82 16
87 84 16
90 88 18
88 84 12
82 82 12
81 79 0
81 79 14
85 84 23
89 89 20
80 79 0
99 96 22
95 92 12
97 93 14
96 95 22
101 100 16
102 99 19
99 97 28
96 95 24
100 99 23
110 106 24
101 100 22
110 107 24
108 105 16
116 112 31
122 118 25
112 107 27
121 119 28
119 115 25
116 113 31
123 119 36
123 120 33
123 118 30
131 124 46
131 127 30
131 126 39
133 128 39
140 135 47
124 120 36
129 124 35
144 139 44
138 134 37
134 130 37
135 131 35
142 136 44
139 134 47
140 134 42
143 137 42
137 132 29
145 140 47
143 136 45
142 136 45
141 136 41
143 138 42
148 142 56
142 137 36
147 140 56
146 141 51
141 136 39
143 137 49
142 138 45
143 139 37
145 140 38
144 139 42
143 137 37
146 140 45
146 139 52
153 147 56
151 146 52
149 145 52
144 138 52
154 149 48
141 136 44
149 143 39
149 142 54
144 139 48
146 140 48
147 141 49
150 143 53
151 144 54
149 144 51
147 143 44
152 146 58
144 140 37
150 144 51
147 142 49
153 147 53
149 143 56
149 142 51
149 144 48
150 145 56
159 152 62
144 138 49
149 143 56
153 146 54
154 148 53
144 138 53
150 144 49
155 149 57
151 144 59
153 146 54
156 150 60
153 146 58
147 141 52
146 139 48
150 144 56
152 147 57
145 141 45
150 143 63
151 145 63
142 137 49
141 136 47
150 143 59
148 141 60
148 143 57
150 144 57
145 139 57
153 147 57
146 140 52
144 140 52
146 141 52
145 140 58
147 141 57
145 140 54
152 147 60
145 140 52
138 133 45
146 139 60
136 131 53
143 136 56
135 130 51
151 144 62
144 138 56
148 141 61
141 136 51
140 135 51
174 197 0
174 198 0
171 195 0
173 197 0
171 196 0
174 197 0
172 195 0
171 196 0
174 197 0
173 197 0
172 196 0
174 198 0
170 194 0
175 198 0
175 198 0
175 198 0
175 198 0
173 196 0
174 198 0
174 197 0
174 197 0
173 196 0
174 198 0
174 197 0
174 198 0
173 196 0
173 197 0
174 198 0
175 198 0
174 198 0
173 197 0
173 197 0
173 197 0
173 196 0
173 197 0
172 197 0
175 198 0
173 197 0
172 196 0
172 196 0
172 195 0
173 197 0
173 197 0
172 196 0
174 197 0
173 197 0
172 195 0
173 197 0
175 198 0
171 196 0
172 196 0
173 196 0
174 197 0
173 196 0
174 197 0
175 197 0
171 195 0
172 196 0
174 197 0
172 196 0
172 195 0
170 194 0
175 198 0
171 195 0
174 197 0
174 197 0
175 198 0
171 195 0
171 195 0
172 196 0
175 198 0
175 198 0
173 197 0
174 197 0
170 194 0
170 194 0
172 196 0
173 196 0
174 197 0
174 197 0
171 195 0
174 197 0
173 197 0
172 196 0
173 196 0
172 196 0
170 194 0
172 196 0
172 196 0
169 194 0
171 195 0
171 195 0
173 196 0
171 195 0
172 195 0
174 196 0
169 193 0
172 196 0
169 191 0
169 192 0
167 190 0
169 192 0
171 195 0
168 191 0
168 191 0
172 194 0
168 190 0
170 194 0
170 193 0
170 193 0
167 190 0
169 192 0
166 189 0
165 188 0
161 183 0
165 188 0
164 187 0
165 188 0
162 184 0
160 181 0
162 185 0
161 183 0
153 175 0
154 176 0
144 165 0
148 169 0
150 172 0
146 167 0
157 179 0
152 175 0
152 173 0
157 179 0
160 183 0
162 186 0
161 184 0
168 191 0
172 195 0
195 214 165
171 193 76
169 193 0
169 193 0
169 192 0
170 194 0
167 191 0
168 191 0
166 190 0
168 191 0
169 192 0
170 194 0
170 194 0
169 192 0
166 190 0
163 187 0
166 190 0
167 191 0
167 191 0
166 190 0
159 182 18
71 99 82
54 87 97
56 88 100
56 89 95
56 89 103
55 87 94
56 89 97
57 91 113
57 90 100
55 88 94
52 84 88
57 90 107
57 90 107
57 89 107
56 89 102
58 92 114
57 90 110
54 86 102
55 88 97
55 88 103
56 88 110
56 89 103
56 89 100
57 90 113
56 89 102
57 90 114
53 85 94
57 91 108
55 87 99
57 90 113
59 93 118
57 90 110
57 91 115
56 89 110
54 87 102
58 92 114
56 89 103
54 85 82
53 85 97
55 88 100
56 89 111
54 86 103
55 87 99
56 89 111
56 88 95
56 88 108
58 91 111
56 88 110
55 87 86
56 88 105
58 91 111
55 88 99
55 87 115
56 89 117
57 89 113
53 84 102
57 90 115
56 87 101
55 87 97
55 87 103
56 88 115
54 86 99
56 88 110
56 87 108
55 86 97
53 84 90
54 86 107
54 85 104
51 81 88
53 83 91
52 81 93
54 85 109
54 85 108
54 85 91
53 83 96
55 85 95
51 80 88
55 86 105
50 78 89
52 81 96
50 78 85
48 75 86
48 75 64
76 98 78
154 173 0
164 185 0
154 175 0
163 184 0
165 187 0
164 185 0
167 188 0
164 185 0
164 186 0
161 182 0
166 188 0
162 184 0
162 184 0
165 186 0
169 189 0
166 188 0
167 187 0
166 190 0
163 185 0
159 179 8
105 105 28
85 81 25
86 82 21
88 85 24
86 84 16
88 84 16
90 86 14
82 79 0
82 79 12
76 77 11
74 72 14
94 92 18
78 79 11
96 95 16
97 94 8
87 85 21
95 91 0
100 98 14
90 89 21
102 100 14
99 96 24
103 101 18
104 101 12
111 107 30
101 99 23
97 96 8
101 99 20
119 116 19
121 116 31
123 119 32
124 121 38
120 116 38
119 114 32
124 121 39
119 115 38
111 106 35
124 120 31
129 125 38
127 122 38
128 125 35
117 113 25
138 134 43
130 127 16
129 124 35
126 124 31
140 135 44
134 128 36
139 133 42
136 129 37
135 130 40
141 136 41
135 131 37
135 131 40
142 136 45
141 135 42
140 135 43
142 138 42
139 134 30
142 137 49
141 136 32
143 137 44
140 135 49
151 144 45
147 142 50
149 144 42
139 135 36
141 135 37
144 139 39
144 138 47
151 144 47
147 141 53
152 146 49
143 137 47
150 143 47
140 135 37
146 140 52
147 142 52
147 142 39
153 147 48
148 142 47
144 139 44
148 142 42
155 149 54
142 136 49
153 147 58
152 147 57
143 138 39
145 139 51
149 143 47
153 146 56
147 141 52
152 146 48
151 145 51
152 145 54
153 148 49
144 138 48
154 147 61
147 141 44
151 144 51
144 139 53
154 147 49
144 139 52
145 139 47
147 141 54
155 149 61
152 144 57
137 131 48
153 147 53
144 137 57
141 136 51
149 144 56
155 148 57
138 132 51
150 143 56
146 141 51
145 139 56
151 143 57
150 144 53
144 138 51
145 140 58
152 146 57
145 140 53
151 145 58
143 138 51
150 145 54
142 136 52
138 132 47
144 139 47
145 140 57
140 133 45
142 137 52
149 143 57
141 135 47
149 142 57
144 139 62
144 138 52
144 137 49
143 136 61
172 195 0
170 194 0
174 198 0
173 196 0
170 194 0
174 197 0
172 196 0
173 197 0
172 196 0
172 194 0
172 195 0
174 197 0
175 198 0
173 196 0
175 198 0
174 197 0
173 196 0
174 198 0
175 198 0
174 197 0
173 196 0
175 198 0
174 197 0
174 196 0
174 198 0
174 197 0
174 197 0
174 197 0
174 197 0
174 197 0
173 197 0
174 197 0
174 198 0
173 197 0
174 198 0
172 196 0
173 197 0
174 197 0
175 198 0
173 197 0
170 194 0
173 196 0
173 197 0
173 197 0
172 196 0
172 196 0
174 197 0
173 197 0
171 195 0
172 196 0
171 195 0
174 197 0
174 197 0
173 197 0
173 196 0
175 198 0
172 196 0
175 198 0
173 197 0
173 196 0
173 197 0
174 197 0
173 196 0
171 194 0
172 196 0
174 197 0
174 198 0
173 197 0
173 196 0
173 196 0
171 194 0
172 195 0
170 193 0
168 192 0
172 196 0
173 196 0
172 197 0
171 195 0
171 195 0
169 192 0
172 195 0
171 195 0
174 197 0
171 195 0
175 197 0
173 196 0
173 197 0
172 195 0
169 192 0
171 194 0
169 192 0
168 190 0
174 197 0
168 192 0
171 194 0
173 197 0
169 193 0
168 192 0
171 195 0
173 196 0
168 191 0
171 195 0
170 193 0
172 194 0
169 192 0
170 193 0
163 186 0
171 193 0
166 188 0
165 189 0
165 188 0
168 190 0
165 188 0
167 189 0
163 186 0
165 189 0
165 188 0
165 187 0
158 181 0
158 180 0
160 182 0
156 179 0
163 185 0
145 167 0
155 177 0
154 176 0
150 173 0
153 174 0
155 178 0
157 179 0
154 176 0
160 183 0
162 184 0
166 189 0
165 188 0
171 195 0
185 206 122
183 203 140
167 190 0
169 193 0
171 194 0
170 194 0
163 187 0
166 189 0
166 190 0
171 195 0
169 193 0
166 190 0
167 191 0
166 190 0
168 192 0
163 187 0
167 190 0
165 189 0
163 186 0
171 194 0
165 188 0
164 188 0
138 162 40
62 92 90
54 86 92
54 86 95
54 87 92
56 89 107
55 87 84
55 87 97
57 90 110
56 89 99
53 85 99
54 86 92
56 89 105
56 89 107
57 90 115
54 86 92
56 89 107
55 88 110
55 87 95
54 85 97
56 89 105
56 89 113
56 89 94
56 89 108
54 86 103
55 87 103
55 86 95
56 89 105
56 89 111
54 87 92
56 88 95
55 87 107
55 87 105
55 87 107
57 91 110
57 90 113
52 83 95
54 86 103
55 88 99
56 88 113
56 89 107
56 89 104
56 89 110
58 91 125
56 89 100
57 89 110
57 89 110
56 88 105
57 89 107
55 87 83
56 89 108
56 87 114
56 87 110
51 81 78
53 84 88
56 87 110
53 84 94
57 90 114
56 88 95
55 88 100
53 84 97
54 86 88
54 86 97
55 86 102
54 85 94
53 84 101
54 84 84
53 83 107
52 82 83
54 85 99
53 83 96
53 83 98
53 83 102
53 82 95
51 80 96
51 81 84
51 81 87
50 78 81
51 79 95
52 81 93
54 84 97
49 74 71
53 76 72
135 155 31
164 185 0
160 180 0
159 180 0
160 183 0
155 176 0
166 187 0
161 183 0
161 182 0
165 186 0
161 183 0
156 176 0
160 180 0
153 174 0
166 186 0
168 189 0
163 184 0
159 181 0
159 181 0
162 183 0
162 183 0
154 172 11
85 82 24
67 63 21
81 79 31
78 76 19
90 88 24
83 81 18
84 82 20
81 78 3
81 77 8
92 89 11
82 81 14
84 81 8
86 86 16
92 90 12
91 87 14
100 96 11
92 89 8
99 95 18
106 103 21
96 92 18
110 106 19
107 104 21
99 94 24
104 101 25
97 96 19
117 112 25
117 113 30
107 103 16
121 118 32
120 117 25
124 119 32
109 106 24
119 117 16
114 109 31
120 116 30
137 132 38
133 128 33
129 124 31
126 121 33
133 129 29
134 128 34
132 128 31
126 122 19
133 127 35
128 122 42
130 125 37
134 131 34
137 132 41
134 128 30
139 133 37
139 133 42
138 133 40
143 137 37
137 130 47
140 136 40
144 138 42
147 142 53
139 132 47
143 138 42
138 133 45
149 143 47
136 131 41
136 131 32
147 141 45
142 138 44
137 132 42
150 144 49
145 138 36
143 138 36
139 134 36
144 137 51
146 142 41
141 136 42
146 140 44
145 138 47
150 143 48
151 144 45
142 136 41
152 145 48
148 141 48
152 146 47
137 131 39
150 144 48
143 137 48
145 140 47
150 144 54
143 137 49
144 138 47
152 146 52
139 133 48
146 139 47
149 143 47
151 144 57
139 133 41
151 145 56
137 130 41
149 142 45
146 141 39
153 146 59
156 148 61
147 140 57
147 141 51
145 140 54
147 142 49
152 145 58
139 134 39
144 137 60
153 146 60
149 143 58
144 138 58
152 145 57
144 136 61
149 144 52
151 145 58
148 143 54
151 145 58
154 148 56
141 136 57
151 144 57
148 142 56
147 141 58
136 131 52
153 145 63
154 147 64
144 137 56
146 140 54
147 140 57
129 125 44
141 136 45
141 134 59
144 138 56
150 143 61
140 133 54
145 140 51
149 143 52
137 131 49
143 138 51
174 197 0
174 197 0
172 196 0
173 197 0
171 194 0
174 197 0
173 196 0
171 195 0
173 196 0
173 196 0
173 196 0
174 198 0
173 196 0
174 197 0
174 197 0
174 197 0
174 197 0
173 197 0
172 196 0
172 195 0
174 198 0
175 198 0
172 196 0
171 194 0
174 197 0
172 195 0
175 198 0
174 197 0
173 197 0
173 197 0
172 196 0
174 197 0
176 198 0
171 195 0
173 197 0
172 195 0
173 197 0
172 196 0
174 197 0
175 197 0
173 197 0
173 197 0
173 197 0
176 199 0
170 194 0
174 197 0
173 197 0
171 196 0
175 198 0
173 196 0
176 199 0
174 197 0
173 196 0
171 195 0
173 196 0
174 197 0
173 196 0
173 196 0
171 194 0
174 197 0
173 196 0
173 197 0
171 195 0
173 197 0
170 195 0
172 196 0
173 196 0
171 194 0
170 194 0
171 195 0
174 197 0
172 196 0
170 193 0
172 195 0
173 197 0
171 195 0
172 195 0
173 196 0
172 195 0
173 197 0
174 198 0
170 194 0
172 196 0
169 192 0
171 195 0
172 195 0
173 196 0
173 197 0
172 195 0
171 194 0
172 195 0
173 196 0
172 194 0
173 196 0
172 195 0
170 193 0
170 193 0
170 192 0
174 197 0
170 193 0
170 192 0
171 194 0
169 192 0
171 194 0
167 189 0
173 196 0
170 194 0
168 191 0
165 187 0
168 191 0
163 186 0
167 189 0
162 185 0
166 188 0
164 187 0
160 183 0
167 189 0
166 188 0
156 179 0
159 181 0
159 181 0
148 171 0
145 167 0
156 177 0
157 179 0
161 183 0
144 166 0
151 174 0
152 174 0
155 177 0
156 179 0
161 184 0
166 189 0
160 184 0
172 195 0
182 203 102
185 205 135
169 193 0
170 193 0
170 194 0
171 194 0
167 190 0
164 187 0
164 188 0
167 191 0
167 191 0
168 192 0
168 191 0
166 189 0
164 188 0
168 191 0
165 188 0
161 185 0
162 184 0
162 185 0
161 184 0
163 187 0
162 185 0
164 188 0
128 152 62
54 85 95
54 85 90
54 86 94
54 86 100
54 86 99
54 86 100
56 89 100
54 86 103
57 91 100
53 84 95
55 87 99
57 90 107
55 87 100
55 87 99
56 89 107
54 86 103
55 87 103
55 87 102
56 89 105
57 89 107
55 87 99
55 87 103
55 87 103
58 91 118
55 86 108
57 90 114
56 88 97
56 89 105
57 90 99
57 90 113
55 87 97
54 86 94
56 88 105
55 87 97
55 87 100
52 84 92
54 85 90
54 86 97
58 91 120
53 85 99
56 88 110
56 88 107
54 85 94
57 90 111
55 87 103
54 86 94
55 86 99
53 84 77
55 87 108
54 86 102
55 87 108
53 84 81
56 88 105
52 82 80
52 83 89
54 86 97
55 87 99
57 89 118
56 88 101
54 85 99
55 86 102
52 82 82
53 83 102
52 82 89
55 86 99
50 79 84
52 83 87
54 85 98
52 81 96
54 85 96
53 83 102
52 81 91
53 83 85
50 78 86
51 80 92
51 79 89
51 79 85
48 74 73
50 78 95
46 71 55
130 149 44
154 174 0
150 172 0
161 182 0
157 178 0
158 180 0
159 181 0
156 176 0
167 187 0
160 181 0
155 173 0
157 178 0
161 182 0
161 183 0
161 182 0
157 177 0
164 184 0
158 177 0
155 176 0
160 181 0
158 179 0
163 184 0
167 188 0
145 159 11
94 90 22
106 100 34
73 70 21
75 73 3
84 81 16
88 85 14
84 79 16
90 86 16
91 88 8
93 90 8
90 87 0
97 94 14
87 84 8
82 80 14
90 88 22
100 97 11
89 87 16
100 97 21
91 91 16
98 96 16
97 93 24
116 113 35
90 89 16
112 108 25
120 116 22
111 107 30
126 121 25
115 111 26
122 119 37
119 116 28
116 112 31
117 113 29
125 121 33
130 126 29
123 121 26
127 123 26
119 116 24
128 122 30
126 121 21
140 136 38
127 122 26
127 123 32
137 132 42
133 128 28
133 128 32
137 132 42
138 131 36
136 132 30
133 128 28
134 130 34
136 132 40
140 134 39
140 135 39
129 124 33
139 134 36
139 133 31
136 131 25
142 134 45
137 132 40
145 140 37
139 133 41
139 133 45
145 139 41
145 139 41
142 136 48
148 142 48
145 138 41
141 136 36
141 136 39
145 138 45
154 147 51
140 135 39
151 145 42
154 147 53
147 142 42
151 144 45
142 136 39
148 142 45
147 139 44
148 143 39
153 147 57
150 144 52
143 138 44
154 148 53
155 148 53
153 146 58
147 141 51
141 137 47
147 141 41
150 143 51
150 143 54
143 139 49
142 136 41
146 140 48
147 142 47
143 137 51
153 146 49
146 140 41
151 145 56
140 133 37
141 135 49
146 139 54
145 139 42
148 141 54
145 139 53
149 143 51
141 136 45
142 135 57
144 138 45
146 140 53
148 142 49
151 144 59
145 140 49
147 141 53
144 138 54
146 141 52
143 138 47
142 136 56
154 148 58
143 137 51
142 137 53
143 137 57
142 136 53
138 133 51
133 129 48
149 143 49
144 139 42
151 144 59
143 136 56
138 131 51
145 140 53
147 141 64
144 138 54
148 141 58
138 134 47
136 130 47
173 196 0
174 197 0
175 198 0
172 196 0
173 197 0
171 195 0
173 197 0
173 196 0
172 195 0
174 197 0
174 197 0
173 196 0
175 198 0
172 195 0
173 196 0
173 196 0
171 195 0
176 198 0
174 197 0
173 196 0
171 195 0
173 197 0
174 197 0
173 196 0
172 195 0
172 196 0
175 198 0
175 198 0
173 197 0
173 197 0
174 197 0
172 196 0
175 198 0
173 196 0
175 198 0
170 194 0
171 195 0
171 195 0
173 196 0
173 196 0
175 198 0
172 195 0
173 197 0
171 195 0
171 195 0
173 197 0
170 194 0
174 198 0
171 195 0
174 197 0
174 197 0
171 195 0
172 195 0
173 196 0
173 196 0
172 196 0
175 198 0
173 197 0
171 195 0
173 197 0
173 197 0
175 198 0
172 196 0
172 196 0
172 195 0
172 196 0
172 196 0
173 197 0
173 196 0
173 196 0
171 195 0
173 197 0
174 197 0
171 194 0
173 196 0
173 196 0
173 196 0
169 194 0
171 194 0
174 198 0
173 197 0
171 194 0
172 196 0
172 195 0
172 195 0
171 195 0
172 194 0
167 192 0
170 193 0
171 194 0
172 196 0
170 193 0
173 196 0
174 196 0
168 192 0
171 193 0
174 197 0
171 194 0
167 189 0
170 193 0
170 193 0
172 194 0
167 189 0
169 192 0
174 196 0
163 185 0
171 194 0
164 186 0
167 189 0
174 196 0
165 188 0
161 183 0
169 191 0
168 190 0
165 186 0
165 187 0
164 186 0
158 180 0
161 183 0
149 171 0
150 171 0
148 169 0
155 177 0
147 168 0
153 176 0
151 173 0
153 175 0
157 178 0
150 172 0
157 181 0
160 183 0
164 188 0
163 187 0
168 192 0
176 198 88
183 204 130
166 188 0
165 188 0
163 186 0
168 192 0
170 193 0
166 189 0
170 193 0
167 190 0
168 192 0
167 191 0
167 190 0
166 190 0
167 190 0
164 188 0
167 191 0
166 190 0
161 184 0
159 182 0
162 185 0
164 188 0
165 188 0
156 179 0
167 190 0
162 185 0
102 127 70
55 88 90
53 84 94
52 83 82
55 87 99
54 87 92
55 87 95
55 87 92
51 82 86
55 87 92
55 87 94
53 84 86
57 90 111
57 90 97
56 88 108
54 86 99
54 86 97
57 90 111
56 89 105
55 88 97
56 89 97
53 85 92
56 89 100
56 89 95
53 85 100
55 88 110
56 88 102
54 86 97
55 88 107
56 88 110
56 89 102
56 88 100
56 88 97
57 90 120
55 87 105
54 87 92
53 84 95
54 85 97
54 86 94
55 87 107
56 89 113
55 87 97
55 87 103
56 89 111
54 86 103
57 90 111
55 87 97
55 87 100
54 84 94
57 89 118
55 87 108
56 88 110
55 87 105
56 88 108
54 86 100
54 85 91
53 84 97
53 84 101
55 86 105
54 85 102
52 82 101
54 85 103
54 86 89
54 85 95
55 86 104
53 84 84
53 84 92
52 82 87
52 82 84
53 82 92
53 82 98
51 81 89
51 81 94
50 79 82
51 79 84
46 71 71
51 79 89
45 70 65
45 70 66
102 122 51
157 178 0
152 173 0
159 180 0
157 176 0
154 174 0
157 176 0
154 175 0
155 175 0
154 172 0
155 174 0
157 176 0
155 175 0
157 176 0
162 183 0
159 181 0
161 181 0
158 176 0
158 177 0
159 178 0
154 172 0
160 180 0
158 178 0
165 184 0
158 178 0
137 150 19
101 96 35
78 74 16
95 92 25
93 89 31
92 89 16
80 78 3
93 90 22
73 72 14
81 79 14
84 81 8
91 88 0
96 92 12
91 89 5
93 91 18
89 88 16
95 91 14
107 104 14
111 107 16
95 92 16
101 98 18
104 101 16
101 99 18
107 103 19
108 104 18
112 108 26
121 117 22
125 119 30
117 115 28
116 112 24
120 116 22
125 121 34
121 118 26
126 122 37
111 107 26
119 114 25
132 127 34
127 123 26
117 113 28
129 124 34
128 123 37
122 117 25
131 127 33
133 129 38
117 113 31
136 131 30
133 129 36
130 124 34
134 129 25
137 132 29
129 124 26
137 131 41
138 133 39
134 128 32
146 140 45
141 136 41
134 128 41
141 136 35
146 141 39
132 128 22
133 128 36
132 127 32
143 137 41
135 130 37
147 140 42
142 136 45
137 132 34
146 141 44
140 135 36
150 143 44
144 139 36
132 128 39
145 140 42
148 143 39
137 131 39
144 140 48
147 141 45
143 138 42
145 139 48
143 138 47
141 135 47
143 138 42
159 152 57
144 139 48
136 130 34
145 138 45
144 138 44
145 139 54
142 137 47
143 137 44
142 137 36
141 136 37
142 137 48
141 135 37
153 146 48
142 138 37
147 140 49
147 141 48
145 140 47
153 145 59
145 139 45
144 139 41
146 139 49
142 135 49
147 141 51
144 138 48
146 139 56
148 142 53
154 148 56
143 138 49
148 141 58
146 139 49
142 137 52
147 143 51
146 140 45
143 137 53
146 140 48
146 140 49
141 135 56
144 138 53
151 145 62
142 134 49
132 127 47
139 132 53
141 135 51
140 134 56
143 138 53
135 129 53
144 138 48
143 137 54
140 135 49
152 146 58
141 135 49
149 143 59
133 129 41
144 138 57
173 196 0
174 197 0
172 195 0
172 195 0
173 197 0
174 198 0
174 197 0
171 195 0
171 194 0
173 196 0
171 195 0
175 197 0
171 195 0
171 195 0
173 197 0
174 198 0
175 198 0
171 195 0
172 196 0
173 197 0
174 197 0
170 195 0
174 198 0
173 196 0
172 195 0
173 196 0
173 196 0
173 197 0
173 197 0
175 197 0
173 197 0
173 196 0
171 195 0
171 195 0
171 195 0
174 198 0
174 196 0
172 197 0
174 197 0
175 197 0
174 196 0
172 195 0
174 197 0
173 197 0
173 196 0
174 197 0
175 198 0
175 198 0
172 196 0
172 197 0
174 197 0
173 197 0
174 197 0
173 196 0
172 196 0
173 196 0
169 193 0
173 197 0
175 198 0
172 195 0
172 196 0
172 195 0
173 196 0
173 196 0
174 197 0
172 195 0
172 196 0
172 196 0
174 197 0
175 198 0
175 198 0
172 195 0
171 194 0
171 194 0
173 196 0
174 197 0
171 194 0
175 198 0
173 196 0
171 194 0
175 197 0
172 196 0
171 195 0
171 194 0
172 195 0
169 193 0
171 194 0
173 196 0
172 195 0
172 196 0
171 195 0
168 191 0
168 192 0
168 191 0
170 193 0
167 191 0
168 191 0
167 189 0
167 190 0
170 193 0
173 195 0
170 193 0
170 193 0
165 188 0
168 190 0
168 190 0
169 191 0
165 187 0
167 189 0
166 189 0
166 188 0
160 182 0
162 184 0
164 185 0
164 186 0
158 181 0
163 185 0
157 179 0
156 178 0
153 175 0
156 178 0
154 176 0
147 169 0
155 176 0
160 182 0
151 173 0
159 180 0
160 182 0
162 185 0
159 182 0
159 183 0
166 190 0
173 195 0
178 200 76
193 212 169
169 193 0
168 191 0
168 191 0
165 189 0
166 190 0
166 190 0
166 190 0
164 187 0
165 189 0
166 189 0
164 187 0
166 189 0
162 185 0
162 185 0
161 184 0
167 190 0
163 186 0
163 186 0
160 183 0
160 184 0
154 178 0
165 188 0
161 185 0
165 188 0
161 185 0
162 185 18
89 114 74
53 85 90
51 82 72
52 83 80
52 84 74
55 88 94
55 87 94
53 84 94
55 87 88
56 89 97
55 86 94
55 86 99
55 87 102
55 87 94
55 87 97
54 86 97
56 89 97
56 88 100
54 85 99
53 85 92
57 90 108
54 86 90
56 89 99
55 87 107
53 85 90
56 88 103
55 87 99
56 89 114
55 87 107
54 87 94
56 89 99
53 84 100
53 85 99
56 88 102
56 89 103
55 86 102
55 87 102
54 86 92
52 84 94
53 84 82
56 89 103
54 86 99
54 85 97
55 87 92
57 90 102
56 89 114
54 85 97
54 86 94
55 86 114
54 85 88
53 85 104
56 87 114
50 80 74
56 88 107
56 88 99
52 83 90
52 82 97
52 82 96
52 82 94
53 84 94
54 85 97
51 80 94
53 83 85
53 83 92
52 81 90
52 81 96
51 80 87
52 81 89
52 81 88
50 78 78
53 83 96
52 82 81
49 77 75
50 77 73
51 79 88
47 74 72
48 74 72
87 106 45
151 171 0
151 172 0
147 166 0
155 173 0
150 167 0
152 172 0
155 175 0
152 170 0
149 168 0
158 177 0
148 169 0
153 173 0
159 178 0
156 176 0
155 172 0
158 178 0
161 179 0
162 182 0
158 177 0
155 173 0
161 181 0
159 178 0
159 179 0
159 179 0
158 176 0
157 175 0
124 136 22
80 77 16
83 81 23
89 85 25
97 92 21
78 75 8
94 90 14
88 85 18
79 77 12
86 83 5
90 86 14
79 77 11
88 86 14
75 72 14
97 94 12
83 80 8
99 97 21
98 96 9
104 100 16
101 96 18
102 100 19
103 99 18
117 112 22
102 97 16
110 108 12
110 106 19
113 110 25
106 103 27
119 116 26
110 107 16
116 113 16
117 112 24
110 107 25
118 115 26
121 117 28
122 118 16
129 125 25
128 123 39
122 117 30
134 129 25
127 122 30
134 129 36
126 122 28
128 124 29
133 128 30
135 130 22
130 125 28
136 131 33
133 128 32
137 132 32
136 132 33
139 135 37
135 132 26
143 138 42
136 131 32
141 134 28
141 135 39
141 136 37
131 127 35
133 129 34
139 133 34
144 139 39
144 139 41
144 138 34
135 131 19
143 137 45
140 135 36
134 129 37
146 140 39
129 125 34
135 131 28
143 138 39
145 140 47
150 143 56
145 138 49
149 144 44
146 141 48
145 138 41
145 139 37
151 146 49
148 141 52
145 139 49
147 142 39
145 141 48
144 139 41
149 142 44
148 142 49
146 140 45
142 137 45
144 137 48
144 137 49
149 143 49
146 140 44
146 139 49
146 138 53
149 142 54
145 139 39
149 144 48
141 135 45
146 140 52
140 135 49
145 138 51
149 143 53
141 135 45
142 136 41
143 137 45
149 143 49
139 132 51
140 135 42
150 143 53
147 140 47
146 140 51
147 141 47
141 135 51
143 137 48
151 145 54
143 137 49
145 139 53
142 136 56
143 137 48
143 136 49
140 134 53
139 134 52
143 137 48
142 136 52
142 135 59
145 139 57
147 142 57
144 138 49
151 144 60
138 133 44
141 134 51
150 144 54
138 133 45
141 134 53
175 198 0
173 197 0
174 197 0
174 198 0
173 195 0
173 197 0
173 197 0
174 197 0
171 196 0
172 196 0
172 195 0
171 195 0
172 195 0
172 196 0
172 195 0
171 194 0
173 196 0
172 195 0
172 196 0
171 195 0
174 198 0
172 194 0
174 197 0
173 196 0
174 197 0
171 194 0
173 197 0
172 196 0
171 194 0
174 197 0
175 198 0
172 196 0
175 198 0
172 196 0
173 197 0
175 198 0
173 196 0
169 192 0
172 195 0
173 197 0
175 198 0
173 197 0
170 194 0
174 198 0
173 197 0
174 197 0
172 195 0
173 196 0
173 196 0
172 195 0
173 196 0
169 193 0
172 195 0
173 196 0
173 196 0
175 198 0
173 196 0
173 196 0
173 197 0
171 195 0
173 196 0
173 196 0
176 198 0
174 197 0
171 194 0
175 198 0
172 196 0
174 196 0
176 199 0
174 197 0
170 194 0
172 194 0
172 195 0
173 196 0
170 194 0
173 195 0
171 194 0
173 197 0
172 195 0
172 196 0
174 198 0
173 196 0
172 195 0
172 195 0
168 191 0
172 195 0
173 196 0
170 193 0
174 197 0
171 194 0
171 194 0
174 195 0
169 193 0
171 194 0
172 195 0
173 196 0
173 196 0
168 191 0
170 193 0
168 190 0
174 196 0
170 192 0
169 192 0
170 192 0
168 190 0
170 192 0
168 191 0
163 184 0
169 190 0
167 189 0
162 184 0
169 190 0
165 187 0
162 182 0
154 176 0
153 175 0
150 171 0
156 178 0
153 174 0
153 175 0
155 176 0
161 182 0
153 175 0
153 174 0
163 184 0
161 183 0
162 184 0
164 187 0
158 181 0
159 182 0
166 189 0
164 187 0
175 198 67
196 214 175
167 191 0
163 186 0
169 193 0
163 187 0
168 190 0
168 191 0
164 186 0
159 182 0
165 188 0
164 187 0
158 182 0
160 184 0
163 187 0
159 183 0
164 188 0
164 187 0
158 182 0
164 187 0
157 179 0
156 180 0
161 184 0
164 188 0
162 185 0
167 190 0
156 180 0
155 178 0
161 184 0
151 173 18
78 105 67
53 85 99
55 87 92
55 88 94
56 89 95
53 85 94
55 88 92
55 86 103
55 87 97
55 87 95
55 88 95
58 91 107
55 88 95
54 86 99
53 85 90
54 86 102
55 87 100
54 86 103
56 89 99
54 86 90
56 89 90
58 91 114
56 89 103
54 86 107
55 88 102
56 88 103
57 90 103
57 90 111
57 89 107
55 87 99
54 85 102
56 88 108
55 86 107
55 88 99
54 86 99
55 88 97
56 89 110
54 85 86
54 86 92
56 88 113
55 87 99
54 85 97
54 86 94
54 85 90
54 85 97
57 89 107
54 85 97
56 88 100
55 88 99
53 85 98
54 85 101
54 86 82
53 84 96
57 90 108
54 84 99
53 83 94
53 83 94
51 81 79
53 84 95
52 81 102
51 81 87
52 82 90
54 84 99
52 81 82
49 77 82
51 80 97
49 77 78
49 77 81
48 75 71
49 77 79
49 77 87
51 79 80
49 77 75
47 72 60
43 67 62
69 88 49
138 155 25
153 173 0
146 165 0
150 169 0
149 168 0
137 155 0
149 171 0
151 170 0
152 172 0
145 164 0
153 172 0
155 175 0
159 180 0
153 174 0
152 171 0
159 178 0
150 170 0
161 179 0
154 175 0
153 174 0
153 171 0
150 167 0
154 173 0
153 169 0
157 174 0
156 173 0
158 176 0
150 166 0
120 127 19
86 83 22
77 75 16
99 95 29
86 82 11
90 86 16
87 84 21
87 85 19
90 85 3
90 87 8
92 88 8
97 94 0
95 92 8
94 90 11
99 95 11
86 84 8
93 90 11
97 92 11
106 103 11
104 99 11
115 108 19
106 102 18
111 108 26
114 110 22
96 95 16
109 107 25
118 115 20
111 108 24
115 112 19
114 110 21
113 109 18
109 106 21
113 110 21
117 112 28
119 115 25
127 122 16
134 130 22
132 127 29
125 120 25
133 127 32
124 120 30
119 116 0
138 132 36
130 125 24
130 124 24
134 129 33
133 129 30
131 125 40
131 127 25
129 124 32
132 127 34
128 125 25
135 129 39
130 125 32
135 130 32
126 122 34
138 134 28
136 131 30
146 140 42
136 132 31
138 132 34
131 127 28
141 137 36
135 129 40
141 137 34
141 135 37
139 135 39
142 137 34
137 130 41
136 132 25
145 140 47
144 138 41
149 143 44
140 135 44
135 130 34
138 134 41
152 145 49
144 138 42
143 137 41
145 138 41
136 131 36
148 142 53
150 144 49
146 141 47
145 138 52
143 138 44
137 134 28
148 140 48
148 141 52
139 134 39
150 143 44
138 132 41
144 139 47
144 137 51
142 136 42
146 140 51
142 136 44
137 130 37
147 140 47
150 144 48
137 130 41
146 139 45
146 140 47
135 131 41
140 135 39
146 140 58
143 139 45
151 145 56
145 140 48
143 137 52
148 142 49
141 137 45
152 145 58
150 144 52
143 137 51
142 136 45
149 143 54
149 143 58
144 138 52
149 143 60
145 139 51
137 131 45
148 141 57
142 135 42
141 135 49
146 139 56
146 140 48
135 130 48
140 133 49
137 132 41
144 138 54
142 135 54
140 134 52
138 131 49
174 198 0
171 195 0
175 198 0
172 196 0
176 199 0
172 196 0
171 196 0
173 197 0
172 195 0
173 197 0
169 192 0
171 194 0
174 197 0
172 196 0
174 197 0
174 197 0
174 197 0
173 197 0
170 193 0
172 195 0
173 196 0
175 198 0
173 196 0
172 195 0
173 197 0
171 195 0
175 198 0
175 198 0
172 196 0
172 194 0
172 196 0
171 195 0
173 196 0
174 198 0
173 197 0
172 196 0
173 197 0
172 196 0
171 195 0
173 197 0
172 196 0
172 195 0
171 195 0
173 197 0
170 194 0
175 198 0
174 196 0
174 197 0
172 195 0
173 196 0
172 195 0
170 194 0
173 197 0
174 197 0
174 196 0
174 196 0
174 196 0
173 196 0
171 195 0
174 197 0
169 193 0
172 196 0
171 195 0
174 197 0
175 198 0
172 195 0
171 195 0
174 197 0
169 193 0
173 196 0
174 197 0
172 195 0
174 197 0
172 195 0
171 194 0
173 196 0
174 197 0
173 196 0
172 195 0
173 196 0
172 195 0
174 197 0
171 193 0
173 195 0
172 195 0
170 193 0
171 194 0
171 193 0
169 191 0
171 194 0
173 196 0
172 195 0
169 191 0
170 192 0
167 190 0
173 196 0
170 192 0
174 195 0
169 190 0
167 189 0
172 195 0
174 196 0
169 190 0
164 185 0
170 192 0
163 186 0
166 188 0
165 187 0
171 192 0
160 182 0
169 190 0
158 181 0
154 177 0
153 174 0
157 178 0
149 170 0
155 176 0
159 181 0
148 170 0
151 173 0
151 172 0
142 164 0
150 172 0
158 180 0
160 181 0
167 188 0
163 185 0
160 183 0
156 178 0
160 183 0
170 193 0
174 196 62
195 214 165
166 189 0
165 189 0
161 185 0
165 189 0
162 186 0
167 190 0
163 186 0
162 185 0
165 188 0
162 185 0
161 183 0
166 189 0
163 186 0
166 189 0
158 181 0
163 186 0
157 181 0
163 187 0
157 180 0
158 181 0
159 182 0
158 181 0
156 179 0
160 183 0
155 179 0
155 177 0
150 172 0
154 177 0
158 182 0
150 173 18
81 107 74
53 85 90
51 82 86
54 85 95
56 89 94
54 85 92
53 84 84
54 85 92
55 87 102
55 87 99
54 85 94
54 86 94
54 85 94
54 86 100
56 89 108
56 89 94
54 85 100
53 85 86
55 88 88
56 88 100
53 85 88
53 85 90
54 85 95
54 86 90
53 85 92
52 83 88
55 86 107
55 86 97
56 88 111
55 86 102
53 85 92
54 86 99
56 88 86
55 88 100
53 84 83
57 89 105
55 87 97
54 86 95
54 85 97
56 88 100
54 84 94
54 85 97
53 84 95
53 84 99
53 84 94
56 89 108
54 86 97
53 84 97
55 87 108
57 89 107
55 87 100
56 87 102
54 85 100
54 85 97
50 80 89
54 85 96
52 82 88
56 87 105
53 84 99
50 78 89
52 82 79
51 80 78
51 81 90
51 81 90
49 78 70
48 76 76
48 76 75
53 83 87
52 82 90
50 78 77
50 78 91
48 76 70
45 71 71
73 94 63
148 168 18
144 161 0
146 166 0
152 170 0
144 162 0
148 167 0
149 168 0
143 160 0
149 169 0
154 171 0
153 172 0
149 166 0
146 164 0
146 162 0
150 168 0
145 161 0
143 160 0
148 165 0
158 176 0
152 169 0
151 168 0
153 169 0
151 167 0
151 166 0
154 171 0
159 176 0
153 169 0
152 168 0
160 178 0
153 169 0
128 137 19
79 76 21
94 88 19
94 89 18
96 91 23
88 84 8
89 86 18
81 78 11
79 78 14
83 80 8
93 90 2
88 84 14
102 98 16
98 94 11
97 93 18
89 88 14
105 102 14
95 91 0
107 104 0
96 93 8
102 100 14
106 102 11
99 95 16
118 114 18
108 105 11
119 115 11
109 105 14
111 105 19
119 116 21
122 119 11
117 114 14
117 113 18
120 117 18
113 109 19
126 120 16
125 119 22
122 117 21
120 116 34
116 112 25
130 124 16
124 117 25
128 124 24
131 125 37
134 129 33
134 130 33
129 123 34
124 120 19
131 126 22
133 127 38
120 116 22
133 127 34
130 125 42
136 130 38
131 126 36
132 126 24
141 134 39
131 126 30
136 131 39
135 131 34
140 135 32
142 136 36
138 133 36
137 131 30
134 130 28
138 135 36
136 131 30
140 135 39
144 137 37
141 136 41
142 137 36
142 136 42
144 139 34
146 140 41
140 135 48
135 131 32
137 132 37
146 139 51
138 132 41
142 136 39
140 134 44
145 139 49
152 145 54
142 135 47
143 136 44
145 140 47
137 133 39
137 132 36
142 136 42
145 138 47
142 137 45
146 140 48
144 138 41
140 135 41
142 136 48
144 138 37
143 138 42
143 137 47
145 139 49
138 132 41
143 136 39
134 128 45
147 140 48
145 139 53
140 134 41
141 136 36
144 136 51
142 136 49
141 135 42
152 146 54
140 133 47
139 132 48
143 136 44
145 139 47
143 136 51
139 133 49
139 134 44
141 134 56
146 140 54
145 139 42
146 140 47
139 133 47
140 134 52
135 129 47
145 138 53
136 132 47
149 143 60
140 134 49
136 130 47
134 127 47
141 136 53
138 132 45
134 127 53
140 135 58
175 198 0
172 196 0
173 196 0
174 198 0
173 195 0
171 195 0
174 197 0
170 194 0
171 194 0
173 197 0
175 198 0
171 195 0
173 196 0
173 197 0
171 194 0
170 194 0
169 192 0
174 197 0
174 197 0
174 197 0
173 196 0
173 196 0
174 198 0
175 197 0
173 196 0
174 197 0
171 196 0
173 197 0
174 197 0
174 197 0
172 196 0
173 197 0
171 195 0
173 196 0
174 197 0
174 197 0
174 197 0
174 197 0
173 197 0
172 196 0
172 196 0
173 196 0
174 197 0
174 197 0
171 194 0
173 196 0
173 197 0
173 196 0
172 196 0
172 195 0
174 197 0
174 196 0
173 196 0
175 198 0
174 197 0
172 195 0
175 198 0
172 196 0
174 197 0
172 195 0
173 196 0
171 195 0
172 196 0
176 198 0
174 197 0
174 197 0
174 196 0
176 198 0
172 195 0
174 197 0
174 197 0
172 195 0
175 198 0
173 196 0
175 197 0
173 197 0
175 198 0
170 192 0
172 195 0
172 195 0
173 196 0
173 196 0
174 196 0
171 194 0
172 194 0
169 191 0
171 194 0
170 192 0
172 194 0
171 192 0
173 195 0
172 194 0
171 193 0
173 195 0
171 191 0
174 196 0
171 193 0
169 192 0
171 194 0
169 190 0
171 192 0
168 189 0
169 190 0
167 190 0
169 190 0
168 190 0
168 191 0
161 182 0
166 188 0
164 185 0
158 179 0
164 186 0
156 177 0
160 181 0
152 174 0
153 174 0
158 180 0
158 179 0
155 177 0
151 173 0
157 179 0
153 175 0
160 182 0
157 179 0
154 176 0
153 175 0
159 181 0
159 182 0
163 186 0
166 189 0
175 198 67
185 205 135
164 187 0
161 184 0
159 182 0
161 185 0
164 187 0
162 185 0
167 190 0
162 185 0
159 182 0
164 188 0
162 185 0
160 183 0
163 186 0
159 182 0
162 184 0
160 183 0
157 181 0
160 183 0
160 183 0
162 185 0
158 180 0
164 187 0
153 176 0
161 184 0
154 176 0
157 179 0
154 176 0
157 179 0
153 175 0
152 174 0
155 177 0
143 165 40
74 101 76
52 83 80
49 79 70
50 81 70
51 81 84
53 85 76
51 82 88
52 83 88
54 86 95
54 86 90
52 83 80
56 88 100
53 84 94
50 81 80
55 87 100
55 87 97
53 85 94
54 85 95
54 86 94
53 84 76
56 89 102
55 88 90
55 86 97
56 89 97
56 89 110
55 87 97
54 85 80
54 86 99
55 87 103
56 87 108
56 89 102
53 85 97
54 86 108
52 83 88
56 88 102
54 86 105
56 88 97
53 84 94
55 87 102
55 87 103
55 87 99
55 87 97
53 84 99
53 84 95
54 85 99
54 86 97
55 86 105
54 84 94
53 84 95
54 86 84
51 81 82
52 83 100
50 80 74
51 80 94
49 79 86
51 80 82
54 85 104
51 81 92
53 83 93
52 82 88
53 84 90
52 81 90
51 81 74
52 82 77
49 78 84
50 78 83
50 79 82
51 78 84
49 77 83
50 77 84
46 72 63
75 96 61
137 154 18
138 156 0
140 159 0
141 160 0
136 153 0
141 160 0
140 157 0
141 161 0
156 175 0
150 167 0
144 160 0
147 164 0
142 159 0
149 168 0
141 158 0
148 163 0
144 161 0
148 165 0
146 163 0
151 169 0
152 168 0
144 160 0
155 173 0
146 164 0
149 167 0
150 164 0
153 168 0
149 165 0
143 157 0
154 170 0
153 169 0
152 167 0
124 134 11
87 82 22
81 76 24
81 77 16
79 76 20
69 66 18
87 83 16
82 77 11
98 93 11
89 85 3
96 93 11
82 82 11
90 86 14
97 93 14
91 88 0
101 96 14
93 90 8
103 99 8
84 81 9
101 98 11
104 98 11
106 102 11
113 109 14
112 107 22
109 105 18
114 110 21
108 104 11
121 118 19
108 104 11
115 110 21
124 120 19
116 111 21
117 113 16
117 112 19
110 106 26
117 113 16
118 113 19
122 117 25
129 124 30
124 118 22
130 125 24
120 117 19
126 121 20
132 128 21
124 120 24
129 122 24
132 125 22
133 127 24
125 120 24
138 132 41
134 130 34
139 133 32
130 125 19
139 132 22
134 128 30
133 128 28
137 133 25
136 131 32
137 133 30
139 134 45
137 131 30
136 131 30
139 135 37
134 130 25
134 128 30
144 138 37
134 128 34
140 135 34
138 133 32
136 131 39
131 125 36
147 141 44
143 137 45
139 134 37
145 139 45
144 139 39
148 142 44
143 138 37
141 134 37
138 132 42
143 137 42
139 133 44
134 127 36
135 128 34
146 140 42
145 141 37
141 134 47
144 137 44
145 138 45
146 139 57
145 140 45
134 129 34
142 136 39
140 136 39
141 135 36
145 140 44
144 138 52
145 140 44
136 130 32
136 131 37
144 137 45
144 137 48
144 137 48
136 129 47
142 135 45
131 125 47
145 140 41
147 141 51
135 128 42
150 145 49
138 132 48
141 136 41
146 139 53
142 135 48
141 135 52
145 138 47
136 129 45
141 134 49
142 136 51
147 141 56
138 133 42
144 138 53
137 132 47
136 130 44
131 125 47
133 128 41
139 132 49
143 136 53
141 135 52
137 131 56
144 137 59
133 127 47
172 195 0
175 198 0
173 196 0
172 196 0
174 197 0
174 197 0
172 196 0
173 197 0
172 196 0
172 195 0
172 196 0
171 194 0
171 195 0
174 197 0
172 196 0
174 197 0
171 195 0
176 198 0
169 193 0
172 195 0
173 196 0
173 197 0
169 194 0
171 195 0
173 197 0
174 198 0
171 195 0
172 196 0
176 199 0
172 195 0
173 196 0
171 195 0
170 194 0
173 196 0
173 196 0
173 196 0
171 195 0
174 198 0
173 197 0
173 196 0
173 197 0
168 192 0
172 196 0
173 197 0
175 198 0
171 195 0
172 195 0
172 195 0
174 198 0
171 195 0
173 196 0
174 197 0
172 194 0
172 195 0
173 196 0
173 196 0
173 196 0
172 196 0
176 198 0
171 195 0
172 195 0
166 189 0
171 193 0
174 197 0
174 196 0
173 195 0
173 196 0
174 196 0
172 195 0
173 196 0
173 196 0
170 193 0
175 197 0
173 196 0
171 194 0
174 196 0
173 195 0
174 196 0
174 197 0
173 195 0
174 196 0
175 197 0
174 196 0
170 191 0
171 194 0
173 195 0
176 197 0
173 195 0
171 193 0
166 188 0
173 195 0
172 193 0
170 191 0
174 195 0
174 195 0
169 190 0
170 191 0
174 195 0
173 193 0
167 188 0
168 190 0
170 191 0
171 192 0
170 192 0
164 186 0
167 188 0
163 185 0
165 187 0
159 182 0
155 177 0
154 175 0
155 176 0
155 177 0
154 175 0
148 169 0
162 183 0
151 173 0
154 176 0
161 182 0
160 182 0
153 173 0
160 181 0
148 170 0
156 178 0
161 184 0
159 181 0
158 180 0
169 191 0
164 186 0
178 200 95
186 206 140
160 183 0
166 188 0
165 188 0
161 185 0
164 187 0
169 190 0
165 187 0
166 189 0
160 183 0
163 187 0
167 190 0
166 188 0
162 185 0
164 186 0
157 179 0
164 186 0
166 189 0
159 181 0
158 181 0
160 183 0
158 181 0
157 180 0
159 182 0
149 171 0
159 181 0
155 177 0
161 184 0
153 175 0
153 176 0
152 174 0
156 179 0
150 172 0
138 160 0
135 157 0
72 96 60
51 81 82
49 78 74
52 84 74
55 87 97
52 82 76
52 83 86
53 84 82
53 84 90
52 83 84
55 87 90
52 84 78
53 85 100
54 86 84
53 84 86
54 85 95
54 85 86
55 87 95
55 86 110
54 86 102
52 83 78
54 86 92
53 84 88
53 85 92
55 87 97
54 86 92
52 83 80
55 87 97
52 83 97
55 87 94
55 87 100
54 85 92
53 85 108
51 82 78
54 85 105
56 87 111
52 83 92
52 83 94
54 86 99
54 85 94
51 82 67
51 81 76
55 87 99
53 84 80
55 87 105
52 83 92
51 81 90
52 81 97
53 85 95
50 80 81
50 79 84
51 82 78
52 82 81
52 81 81
55 86 99
54 84 90
51 81 92
50 79 84
50 79 92
51 81 78
50 79 74
51 80 93
49 77 87
48 76 68
50 77 79
49 77 86
43 69 73
44 69 67
46 72 66
75 96 50
134 152 18
137 157 0
136 155 0
143 161 0
134 150 0
136 152 0
137 155 0
142 159 0
139 157 0
143 161 0
144 163 0
137 153 0
141 156 0
135 151 0
138 156 0
140 157 0
146 163 0
138 152 0
139 153 0
143 159 0
141 158 0
151 168 0
149 164 0
148 167 0
140 158 0
148 163 0
149 165 0
157 175 0
141 157 0
145 159 0
145 160 0
150 164 0
154 170 0
157 172 0
130 139 14
98 92 28
86 80 16
88 85 19
90 84 11
86 80 14
92 87 0
89 86 16
77 74 8
96 93 16
92 87 0
91 88 8
86 83 0
102 97 11
92 89 11
100 97 12
106 103 0
95 92 3
107 101 11
99 95 8
107 101 19
106 103 8
103 99 16
104 98 0
111 108 19
118 114 14
107 106 18
114 109 20
121 116 0
116 111 14
113 110 16
113 109 14
115 111 18
119 114 24
125 119 19
128 122 24
125 120 23
115 111 11
132 128 19
117 113 22
123 119 11
133 126 22
122 116 25
132 128 24
138 132 30
124 121 11
130 126 22
126 121 32
132 127 26
131 126 25
132 127 25
142 138 30
134 131 25
133 128 22
130 126 22
130 126 32
126 120 25
133 128 25
137 130 45
135 129 28
127 122 30
139 134 22
136 131 37
136 130 28
142 137 37
135 129 41
138 132 41
143 138 39
142 136 42
140 134 36
138 133 44
143 137 39
144 139 45
149 142 47
144 138 37
140 136 37
142 136 39
142 136 37
146 140 44
137 132 41
136 130 47
145 138 42
133 127 36
137 132 34
148 141 44
141 136 37
135 129 32
146 140 44
140 135 39
138 133 39
143 138 45
134 129 41
141 135 39
144 139 37
143 137 39
148 142 44
138 133 45
143 138 41
147 141 51
153 147 49
143 138 44
142 136 45
135 129 45
135 128 42
134 128 45
143 136 54
141 136 49
147 139 54
144 138 48
140 134 45
137 131 37
134 129 37
144 137 39
143 137 48
143 136 48
142 137 48
144 139 47
139 133 53
137 131 39
143 136 56
132 127 45
139 134 47
131 126 41
143 137 49
139 133 42
133 128 51
143 136 57
135 130 42
132 125 49
130 124 45
148 140 57
174 197 0
174 197 0
173 197 0
173 197 0
173 197 0
174 197 0
171 195 0
172 195 0
171 195 0
174 197 0
172 195 0
172 195 0
172 195 0
169 192 0
170 194 0
175 198 0
171 194 0
172 195 0
173 197 0
169 193 0
173 197 0
168 192 0
172 194 0
175 198 0
170 194 0
175 197 0
172 196 0
174 197 0
171 193 0
174 198 0
171 194 0
171 195 0
170 194 0
174 197 0
170 193 0
172 195 0
174 197 0
171 194 0
172 195 0
172 195 0
172 195 0
175 198 0
171 194 0
172 196 0
171 194 0
172 195 0
176 198 0
171 195 0
174 198 0
172 195 0
173 196 0
173 195 0
174 197 0
174 196 0
172 195 0
175 198 0
174 196 0
175 197 0
173 196 0
174 197 0
174 197 0
172 195 0
173 195 0
175 197 0
172 195 0
172 195 0
173 195 0
172 194 0
169 192 0
171 195 0
172 194 0
175 197 0
170 192 0
171 193 0
172 194 0
171 193 0
169 191 0
169 192 0
169 191 0
172 195 0
171 193 0
173 195 0
174 196 0
173 195 0
174 196 0
176 197 0
176 197 0
173 194 0
172 194 0
171 193 0
173 195 0
171 192 0
171 192 0
170 192 0
170 191 0
173 193 0
170 191 0
172 192 0
169 190 0
171 192 0
170 191 0
166 189 0
171 192 0
167 188 0
164 185 0
167 189 0
164 185 0
163 184 0
158 180 0
159 180 0
161 181 0
156 177 0
154 175 0
158 179 0
157 178 0
153 175 0
159 180 0
154 176 0
155 177 0
157 179 0
151 174 0
159 181 0
165 187 0
158 180 0
162 185 0
166 188 0
161 183 0
164 188 0
182 203 117
182 202 133
163 187 0
161 184 0
166 189 0
164 187 0
163 187 0
163 185 0
158 182 0
162 185 0
164 187 0
161 183 0
158 180 0
157 179 0
165 188 0
164 187 0
157 179 0
156 179 0
157 180 0
155 177 0
161 183 0
164 186 0
154 177 0
159 183 0
154 178 0
158 181 0
156 178 0
151 174 0
152 174 0
159 183 0
152 175 0
146 169 0
148 170 0
149 170 0
144 166 0
150 172 0
140 161 0
141 164 18
80 105 65
55 86 102
53 84 78
52 83 70
51 82 78
52 83 90
55 87 97
53 85 90
52 83 72
52 83 94
54 85 86
52 83 88
53 85 86
51 82 76
51 82 80
55 87 92
50 81 76
52 83 97
52 82 92
54 86 97
53 85 86
52 83 80
50 80 78
55 87 95
54 86 94
55 87 103
53 84 92
53 85 88
53 83 88
52 83 95
55 87 103
52 83 92
57 89 99
52 83 92
52 83 86
55 87 95
52 83 80
51 82 82
53 84 100
53 83 94
54 85 95
56 88 104
54 85 85
51 80 94
53 84 88
53 85 95
54 85 94
53 83 90
54 86 90
50 79 89
53 84 82
53 83 85
54 85 95
48 77 80
52 82 93
48 76 70
52 82 92
50 80 82
51 81 67
53 83 83
52 82 88
52 81 85
50 79 87
49 77 65
47 73 77
46 71 61
47 74 72
83 101 36
131 148 18
137 155 0
137 155 0
134 150 0
142 159 0
137 155 0
141 157 0
135 150 0
143 161 0
137 155 0
125 141 0
146 163 0
143 159 0
139 159 0
135 150 0
149 165 0
132 148 0
139 152 0
143 158 0
133 144 0
141 157 0
147 161 0
143 159 0
143 158 0
148 164 0
145 159 0
141 156 0
146 161 0
142 157 0
146 162 0
146 160 0
153 167 0
149 165 0
147 161 0
145 162 0
147 160 0
124 134 11
76 74 16
87 83 21
86 81 27
82 76 21
89 83 3
85 82 11
90 85 8
96 89 8
85 81 8
94 89 3
98 96 0
99 94 0
92 87 0
96 91 3
103 100 11
97 93 0
102 98 2
102 97 8
101 95 12
100 95 11
97 92 0
107 103 11
112 108 16
109 104 0
114 109 0
126 120 19
116 111 19
116 111 14
109 107 11
121 116 22
113 109 11
119 115 20
113 110 0
122 117 21
122 117 19
121 118 19
130 124 36
125 119 22
131 126 28
121 116 21
130 126 19
132 126 24
126 119 16
129 124 19
133 128 30
131 126 30
132 128 30
129 122 30
135 129 28
129 123 32
125 120 25
135 131 30
119 115 16
133 127 32
134 127 25
136 130 37
139 134 39
133 128 25
139 132 36
132 126 34
135 129 28
130 124 25
136 131 25
135 130 34
133 129 28
142 136 34
138 133 37
135 128 32
131 125 34
148 144 34
133 126 25
139 133 39
140 134 37
133 128 34
136 131 30
137 132 41
142 134 39
138 131 41
138 133 30
139 133 30
146 140 42
137 130 45
140 136 37
146 139 47
140 134 41
139 134 36
135 130 37
144 138 45
147 140 49
138 132 32
137 131 39
141 135 47
144 137 48
138 133 32
146 140 47
137 132 34
137 131 47
137 132 41
139 134 32
141 135 56
141 134 44
145 140 51
145 139 41
140 135 39
133 127 42
139 134 42
150 142 60
143 137 39
146 139 54
145 139 49
128 122 44
134 127 30
141 135 49
137 130 48
125 121 30
130 125 47
138 133 42
134 129 51
137 132 49
147 140 52
138 132 51
136 130 45
148 142 54
135 128 48
142 135 54
133 128 39
137 131 54
132 127 48
140 134 52
172 195 0
170 193 0
174 197 0
172 195 0
172 196 0
172 196 0
173 195 0
174 198 0
170 194 0
172 196 0
173 197 0
172 195 0
174 197 0
173 197 0
172 196 0
172 196 0
174 197 0
172 196 0
171 195 0
172 196 0
168 192 0
172 195 0
173 197 0
169 193 0
171 195 0
173 196 0
173 196 0
172 195 0
172 195 0
172 196 0
173 196 0
174 197 0
172 195 0
175 198 0
172 195 0
173 196 0
172 195 0
174 197 0
174 197 0
172 195 0
173 197 0
175 197 0
170 194 0
169 193 0
172 196 0
172 195 0
176 198 0
171 195 0
170 193 0
172 195 0
171 194 0
173 196 0
171 195 0
172 194 0
175 197 0
170 192 0
174 196 0
172 195 0
173 195 0
175 197 0
172 195 0
172 195 0
173 196 0
173 196 0
171 194 0
174 197 0
173 196 0
174 196 0
174 197 0
174 196 0
173 195 0
173 196 0
171 194 0
176 197 0
175 197 0
175 197 0
172 195 0
169 191 0
175 196 0
173 194 0
171 192 0
174 196 0
173 195 0
173 194 0
173 194 0
170 192 0
174 195 0
174 195 0
169 191 0
169 191 0
170 191 0
173 194 0
170 191 0
170 191 0
170 192 0
169 189 0
167 189 0
169 190 0
169 190 0
160 181 0
165 186 0
167 189 0
159 181 0
162 182 0
158 180 0
159 182 0
160 180 0
163 184 0
161 182 0
154 176 0
156 178 0
151 172 0
156 177 0
156 178 0
158 179 0
146 168 0
149 171 0
148 169 0
156 177 0
157 179 0
162 184 0
163 184 0
167 188 0
165 186 0
157 180 0
170 193 0
165 188 0
179 200 114
175 195 99
165 187 0
163 186 0
163 185 0
168 192 0
162 185 0
161 183 0
163 186 0
160 183 0
161 183 0
158 181 0
163 186 0
156 178 0
153 177 0
158 181 0
161 185 0
160 183 0
158 181 0
165 188 0
153 175 0
154 176 0
154 177 0
152 175 0
151 173 0
156 178 0
157 179 0
150 171 0
145 167 0
148 170 0
149 171 0
154 176 0
149 171 0
140 161 0
150 172 0
153 175 0
151 172 0
147 169 0
145 166 0
144 165 0
93 115 47
50 79 76
55 87 97
50 81 70
51 82 84
52 82 80
51 83 82
52 82 82
51 82 82
54 86 100
54 85 95
53 84 88
52 83 92
53 84 84
53 84 86
52 84 80
52 84 82
54 87 82
54 85 90
52 83 86
55 86 95
54 86 86
50 80 74
52 82 92
51 81 80
53 85 92
53 84 97
53 84 97
54 85 92
53 84 99
55 87 105
54 85 95
49 78 70
53 85 97
54 85 97
52 83 74
51 82 82
51 82 90
52 83 78
54 86 92
54 85 90
52 82 92
51 81 81
54 86 95
52 83 88
56 87 108
51 81 90
50 79 73
52 82 90
51 81 74
51 80 76
52 81 84
53 84 94
50 79 74
47 73 72
51 80 92
48 76 77
51 79 80
48 75 83
48 76 70
50 79 81
47 74 72
43 68 60
48 74 75
47 73 68
85 106 54
128 143 0
124 141 0
129 146 0
132 149 0
133 151 0
125 142 0
137 153 0
135 150 0
124 138 0
136 153 0
131 147 0
140 157 0
141 157 0
145 161 0
136 151 0
137 153 0
142 159 0
129 145 0
143 157 0
135 148 0
133 146 0
138 153 0
142 157 0
135 150 0
140 156 0
134 149 0
140 153 0
142 158 0
144 157 0
138 153 0
146 159 0
142 153 0
144 158 0
152 167 0
141 155 0
149 163 0
145 156 0
144 156 0
132 140 16
91 87 16
92 87 16
91 86 28
83 80 18
77 74 16
85 80 11
93 87 11
88 84 8
90 86 16
94 89 0
83 79 11
85 83 0
96 91 14
89 84 0
92 89 0
89 87 0
108 102 0
111 103 0
108 104 3
110 105 0
110 104 11
112 106 14
113 108 16
104 98 11
116 110 12
107 101 8
114 107 11
113 109 19
109 104 11
112 109 11
111 107 16
118 113 11
122 116 30
122 117 16
115 111 19
128 123 22
125 122 25
120 114 19
122 118 22
123 117 16
128 123 21
122 118 11
130 124 19
118 114 19
126 120 25
127 123 22
120 116 11
131 126 14
126 120 19
132 126 19
127 121 22
131 126 32
134 129 22
132 126 41
130 125 32
125 120 25
133 126 30
137 131 34
133 126 28
135 129 36
137 131 28
134 129 34
141 135 30
145 139 36
140 135 34
135 128 32
139 135 36
138 132 30
128 124 28
139 134 28
135 129 30
133 128 22
138 131 37
138 132 34
143 138 32
139 133 34
138 132 30
135 130 34
135 129 37
137 131 32
136 129 39
143 135 41
133 127 39
142 136 37
146 139 37
137 131 42
133 128 28
138 132 32
138 134 42
138 131 48
139 132 37
143 137 41
142 135 37
141 134 45
145 139 44
136 132 47
144 138 51
137 132 42
142 135 42
138 131 41
149 141 56
138 131 45
140 133 42
148 140 52
144 137 44
139 133 45
131 124 37
131 127 41
137 131 48
145 139 53
142 134 56
135 129 47
138 131 44
131 126 41
138 133 47
135 130 44
138 129 48
146 139 49
139 133 42
146 139 53
140 132 56
130 124 41
134 129 41
138 134 49
142 134 52
132 127 37
143 136 56
145 137 59
174 197 0
171 194 0
173 197 0
173 197 0
173 197 0
175 198 0
175 198 0
174 196 0
175 198 0
172 194 0
172 196 0
171 195 0
173 196 0
172 196 0
171 194 0
170 194 0
168 192 0
172 195 0
173 197 0
172 195 0
170 194 0
170 193 0
172 194 0
174 197 0
172 196 0
174 197 0
172 194 0
173 196 0
172 196 0
173 196 0
171 193 0
174 196 0
174 197 0
172 194 0
173 196 0
175 198 0
173 196 0
173 196 0
171 194 0
171 194 0
171 195 0
169 193 0
172 196 0
175 197 0
173 195 0
172 196 0
172 195 0
173 196 0
171 193 0
175 198 0
172 196 0
174 196 0
167 189 0
171 193 0
173 194 0
172 195 0
173 196 0
173 195 0
177 199 0
175 198 0
173 195 0
174 196 0
174 196 0
172 194 0
175 197 0
175 197 0
172 195 0
172 195 0
172 194 0
172 193 0
178 199 0
172 194 0
174 196 0
173 194 0
175 196 0
174 196 0
172 194 0
177 198 0
172 193 0
175 196 0
173 194 0
173 195 0
171 192 0
171 192 0
168 190 0
174 196 0
175 196 0
171 192 0
172 193 0
174 195 0
168 189 0
169 191 0
173 195 0
174 194 0
167 188 0
168 190 0
169 191 0
168 189 0
160 182 0
161 182 0
164 185 0
166 187 0
163 184 0
166 188 0
160 181 0
161 182 0
156 178 0
159 181 0
152 175 0
160 181 0
156 178 0
158 180 0
155 177 0
161 182 0
158 180 0
157 179 0
158 179 0
158 179 0
153 174 0
162 184 0
158 180 0
167 189 0
160 183 0
164 187 0
163 185 0
169 191 36
191 210 159
163 185 67
163 185 0
158 181 0
159 181 0
165 188 0
163 187 0
164 187 0
161 184 0
161 183 0
158 181 0
165 188 0
160 183 0
158 182 0
163 186 0
153 176 0
158 182 0
158 180 0
153 175 0
158 180 0
155 177 0
158 181 0
152 173 0
156 178 0
151 174 0
159 181 0
147 169 0
150 172 0
139 161 0
153 175 0
142 165 0
140 161 0
145 167 0
143 165 0
146 166 0
148 169 0
139 160 0
130 151 0
141 162 0
141 162 0
146 167 0
129 152 0
113 133 31
66 93 62
49 79 76
49 78 62
53 84 88
55 87 94
54 85 95
53 84 92
55 87 97
52 84 80
53 84 95
51 81 74
54 85 92
53 84 74
51 81 70
55 87 103
54 86 82
51 82 84
52 83 86
54 85 99
53 85 86
54 84 94
51 81 84
50 80 92
51 82 74
55 86 100
53 84 86
52 83 90
50 80 74
55 86 102
53 83 94
53 84 97
50 80 80
53 84 76
54 85 97
52 83 86
51 80 74
53 84 88
51 82 82
51 81 86
53 84 86
49 78 79
52 82 89
50 79 80
52 83 99
54 85 89
51 80 81
50 79 89
53 84 97
49 78 82
51 80 79
49 78 65
52 83 82
51 81 75
48 75 86
50 78 65
49 77 82
45 72 63
49 77 74
48 76 76
47 73 86
43 68 63
55 79 69
98 113 40
124 142 0
127 142 0
123 138 0
123 140 0
128 145 0
128 144 0
123 137 0
128 143 0
132 149 0
122 139 0
143 160 0
135 152 0
131 147 0
129 145 0
134 149 0
125 138 0
129 144 0
135 152 0
124 138 0
129 144 0
135 147 0
140 154 0
128 142 0
126 140 0
141 154 0
135 147 0
137 151 0
129 143 0
136 150 0
126 140 0
136 147 0
141 154 0
137 151 0
125 137 0
147 160 0
139 151 0
145 158 0
135 145 0
146 158 0
142 153 0
137 148 0
114 113 25
84 80 22
95 89 19
78 75 0
89 83 11
92 86 0
87 82 8
88 85 11
96 89 0
98 94 8
97 92 3
91 87 0
102 98 0
87 83 0
92 88 0
86 84 12
91 88 0
102 96 8
104 100 0
109 103 11
104 101 0
109 105 14
100 95 11
109 105 11
100 96 8
112 108 3
112 107 16
108 105 11
104 100 19
118 114 11
112 107 11
119 116 11
119 113 16
126 119 19
121 116 16
127 121 16
111 108 0
123 120 8
130 124 11
130 125 25
121 117 16
122 118 11
127 121 22
125 120 30
127 120 32
125 119 19
127 120 32
137 130 25
129 123 30
122 117 28
141 134 36
124 119 24
129 122 22
127 121 30
136 129 22
127 122 25
128 124 16
135 129 25
135 131 22
129 123 22
130 125 25
130 125 32
135 128 37
132 126 28
127 123 16
133 127 30
138 132 32
129 124 22
142 133 41
136 131 37
143 136 47
137 132 34
131 126 30
139 133 36
139 133 30
135 129 34
132 127 28
139 132 41
136 131 25
136 131 37
135 129 42
139 133 36
135 130 37
139 134 47
138 132 41
132 126 28
141 135 48
132 127 28
130 123 34
142 135 39
136 131 41
144 137 51
142 135 49
136 131 32
139 133 44
136 129 37
140 132 41
134 128 36
140 133 49
144 139 47
139 133 41
141 136 44
136 131 48
144 137 57
139 133 39
134 127 45
137 132 32
141 134 47
134 128 32
134 129 45
138 133 47
142 134 53
140 134 48
137 131 41
130 124 42
126 122 34
133 127 45
138 132 45
137 132 44
140 132 54
142 135 54
141 134 52
136 129 47
130 124 45
132 126 51
130 125 45
135 130 49
174 198 0
174 197 0
173 195 0
172 196 0
170 194 0
176 198 0
172 195 0
174 197 0
172 195 0
171 194 0
175 198 0
174 197 0
175 197 0
173 196 0
171 194 0
175 198 0
172 195 0
169 192 0
171 194 0
171 195 0
171 195 0
170 194 0
171 194 0
170 193 0
172 195 0
172 195 0
172 196 0
173 197 0
171 194 0
172 196 0
172 195 0
173 197 0
173 196 0
171 194 0
169 192 0
172 195 0
172 195 0
174 196 0
174 197 0
171 193 0
175 197 0
173 196 0
172 195 0
173 196 0
174 196 0
175 197 0
173 195 0
171 194 0
173 195 0
176 198 0
172 195 0
172 195 0
172 195 0
175 198 0
176 198 0
171 193 0
175 198 0
172 195 0
174 196 0
171 194 0
174 196 0
173 195 0
173 195 0
174 196 0
174 197 0
171 193 0
170 193 0
173 195 0
174 196 0
176 197 0
172 193 0
170 192 0
175 197 0
173 196 0
174 196 0
174 195 0
172 193 0
174 195 0
171 193 0
175 196 0
173 194 0
175 196 0
175 196 0
172 192 0
173 194 0
170 191 0
171 193 0
175 195 0
171 192 0
166 188 0
173 194 0
171 191 0
169 190 0
164 185 0
165 186 0
167 188 0
169 190 0
164 184 0
161 182 0
163 184 0
163 184 0
165 187 0
161 182 0
162 183 0
154 177 0
161 183 0
156 177 0
159 181 0
163 184 0
161 182 0
157 179 0
161 182 0
163 185 0
160 181 0
151 172 0
152 174 0
153 175 0
168 189 0
162 184 0
160 182 0
161 182 0
163 185 0
164 186 0
169 192 0
175 197 67
188 207 151
165 186 57
166 188 0
158 181 0
159 181 0
162 185 0
157 179 0
157 179 0
158 180 0
157 179 0
160 183 0
161 182 0
161 184 0
155 178 0
157 180 0
163 185 0
156 179 0
151 174 0
157 178 0
157 180 0
150 173 0
150 171 0
151 173 0
153 176 0
158 180 0
153 174 0
153 175 0
143 165 0
161 182 0
159 180 0
155 177 0
142 164 0
146 167 0
147 169 0
141 162 0
142 164 0
150 171 0
148 169 0
137 157 0
134 156 0
144 165 0
131 151 0
129 149 0
130 150 0
116 137 31
72 96 57
49 79 70
50 80 74
50 80 70
51 81 80
51 81 80
52 83 76
52 82 86
49 79 82
49 78 74
52 83 82
51 81 92
53 83 90
53 85 88
51 81 74
53 84 92
50 79 88
53 84 94
52 83 84
50 81 74
53 84 95
54 86 84
48 78 76
52 82 88
52 82 84
52 82 86
50 80 88
51 81 76
53 84 86
53 84 95
53 84 92
50 79 86
54 85 102
51 82 85
51 81 84
52 83 92
50 79 67
49 79 76
52 83 86
52 83 86
51 80 86
51 80 92
51 82 80
52 83 94
49 78 74
50 80 81
48 76 67
49 78 85
52 83 82
51 80 89
51 81 87
49 76 77
49 77 79
50 79 74
46 73 72
46 73 70
47 73 80
45 70 68
44 69 71
72 89 38
108 122 18
122 137 0
109 124 0
121 135 0
125 141 0
115 130 0
106 122 0
122 139 0
127 140 0
123 136 0
127 142 0
128 145 0
119 134 0
131 148 0
123 137 0
124 137 0
126 139 0
125 138 0
127 141 0
140 155 0
130 146 0
123 136 0
125 139 0
119 133 0
137 150 0
130 145 0
131 142 0
125 135 0
133 146 0
137 150 0
133 142 0
136 146 0
132 146 0
139 150 0
134 145 0
134 145 0
138 150 0
146 156 0
137 147 0
138 146 0
138 148 0
133 141 0
141 154 0
129 136 0
105 105 16
82 76 18
94 88 25
93 86 16
91 85 11
75 71 0
81 79 8
85 82 11
83 79 11
85 79 11
87 81 8
85 82 8
104 97 0
100 97 0
101 94 11
100 94 0
94 90 0
101 98 11
101 96 8
100 93 0
103 98 8
101 97 11
112 106 3
100 96 11
118 113 0
106 101 21
110 106 14
105 100 8
102 98 0
115 111 0
114 107 11
111 106 11
106 103 16
120 115 16
119 114 19
110 106 11
117 113 14
121 116 16
115 111 11
128 122 16
122 115 11
124 120 19
117 113 25
128 122 19
129 124 28
122 115 22
129 124 19
127 122 25
133 128 24
123 117 19
117 113 16
132 126 22
125 119 25
135 131 28
132 125 28
121 116 11
124 119 22
135 130 28
132 126 36
135 128 34
121 117 25
135 131 30
131 124 32
135 130 32
141 134 32
129 124 28
133 127 34
139 134 32
137 129 36
133 125 36
132 126 34
139 133 34
135 130 30
133 126 34
144 139 32
139 133 44
135 129 34
139 133 36
136 130 34
133 127 28
137 130 36
134 130 39
136 129 34
142 134 34
137 131 34
138 133 37
135 130 32
135 128 36
140 134 37
135 130 37
134 128 44
132 125 41
142 134 48
138 131 45
130 123 39
142 137 41
138 131 34
135 129 37
144 136 53
140 132 39
137 131 44
135 128 36
134 128 45
144 137 52
127 123 34
130 125 41
133 128 39
129 124 34
138 132 48
126 121 37
131 126 41
137 131 45
140 134 48
139 133 53
134 129 37
138 133 36
124 119 34
133 127 36
133 126 45
133 127 44
128 123 37
130 123 39
137 129 47
138 133 47
141 134 49
121 115 42
170 194 0
173 197 0
174 197 0
172 196 0
171 195 0
172 196 0
174 197 0
171 195 0
171 194 0
175 198 0
172 195 0
173 195 0
172 196 0
170 194 0
174 198 0
171 194 0
169 193 0
168 192 0
174 196 0
172 195 0
173 195 0
172 194 0
174 198 0
172 195 0
172 195 0
170 193 0
172 195 0
168 191 0
174 197 0
173 195 0
170 193 0
172 195 0
174 198 0
169 192 0
171 194 0
171 194 0
172 195 0
174 196 0
172 196 0
174 197 0
174 196 0
173 195 0
172 195 0
170 194 0
174 196 0
175 196 0
174 197 0
176 198 0
173 195 0
173 195 0
174 196 0
173 195 0
174 197 0
174 195 0
172 195 0
173 195 0
173 195 0
172 194 0
173 195 0
171 193 0
173 195 0
173 194 0
176 198 0
172 194 0
172 194 0
175 197 0
176 197 0
177 198 0
175 196 0
170 193 0
172 194 0
173 195 0
173 194 0
175 195 0
173 194 0
176 198 0
175 195 0
174 195 0
172 193 0
176 196 0
172 194 0
172 193 0
173 194 0
171 192 0
167 188 0
169 192 0
169 190 0
168 189 0
173 194 0
169 190 0
165 186 0
169 190 0
164 185 0
166 187 0
167 187 0
165 186 0
165 186 0
166 187 0
167 187 0
154 175 0
159 180 0
162 184 0
162 183 0
163 185 0
159 180 0
162 183 0
157 177 0
166 188 0
160 181 0
153 174 0
159 181 0
159 180 0
160 181 0
160 182 0
155 177 0
165 186 0
156 177 0
157 178 0
163 185 0
167 188 0
163 185 0
160 182 0
169 192 0
177 198 108
173 194 105
164 186 0
159 182 0
165 187 0
160 182 0
159 181 0
165 187 0
161 183 0
156 179 0
156 179 0
155 178 0
153 176 0
161 183 0
160 182 0
155 177 0
156 178 0
155 177 0
150 171 0
156 178 0
156 179 0
162 185 0
154 176 0
150 171 0
153 175 0
150 172 0
153 175 0
147 170 0
147 169 0
144 166 0
152 174 0
150 171 0
146 168 0
145 167 0
142 162 0
138 160 0
144 166 0
148 170 0
144 164 0
144 165 0
145 165 0
131 152 0
136 158 0
109 130 0
133 153 0
123 143 0
128 147 0
133 152 0
98 120 47
48 77 60
48 78 51
48 77 60
48 77 67
50 79 82
51 81 90
51 82 72
51 82 82
52 82 90
47 75 57
49 77 74
53 84 95
53 84 86
52 83 92
52 82 94
51 82 78
55 86 88
52 83 94
52 82 90
48 77 72
53 84 84
52 82 88
51 82 82
52 83 86
51 81 74
50 80 84
51 81 84
52 84 99
52 82 84
51 81 86
53 83 90
54 85 92
52 83 89
53 83 92
50 79 86
54 86 94
52 83 86
49 78 78
51 81 85
48 77 65
48 76 62
51 80 87
49 78 72
49 78 80
50 78 86
48 77 74
49 77 60
48 76 65
47 76 65
46 72 78
49 77 78
50 77 79
45 71 67
48 74 83
44 70 57
46 70 40
89 106 31
117 129 0
109 124 0
123 136 0
119 132 0
120 133 0
127 141 0
111 123 0
115 129 0
110 124 0
128 141 0
121 136 0
128 144 0
114 131 0
135 149 0
135 152 0
118 133 0
128 141 0
123 136 0
116 128 0
130 145 0
122 134 0
129 143 0
136 150 0
140 154 0
129 141 0
130 142 0
133 145 0
133 146 0
131 142 0
130 142 0
122 134 0
136 148 0
131 143 0
137 148 0
135 146 0
130 138 0
134 144 0
138 147 0
130 140 0
138 147 0
137 146 0
136 146 0
131 140 0
138 146 0
131 140 0
136 145 0
116 118 19
81 75 11
88 83 22
71 66 0
85 81 19
91 86 0
83 79 14
86 80 0
84 79 0
81 74 0
82 77 11
87 83 0
101 95 0
96 90 0
95 87 0
95 91 0
104 99 0
97 93 0
107 102 0
107 103 11
99 94 8
107 101 0
114 108 16
111 107 11
112 108 0
112 110 8
109 103 11
109 105 0
115 109 11
114 108 19
111 106 11
116 111 11
116 111 11
123 118 11
120 115 11
120 115 0
118 112 11
127 121 16
118 112 11
126 120 22
126 120 19
121 114 30
128 122 25
127 119 16
116 111 11
125 121 22
120 116 16
126 120 22
124 119 22
125 119 22
126 121 11
128 124 16
134 128 0
128 121 11
132 125 28
135 128 30
119 115 22
126 121 28
122 116 16
133 129 16
133 126 32
132 126 28
130 124 32
130 126 22
134 128 19
130 123 30
135 129 25
140 133 28
127 122 36
137 133 28
129 124 25
133 128 28
132 125 28
133 126 34
131 125 30
138 133 36
142 135 44
144 137 37
142 135 37
131 126 28
137 130 37
128 124 19
138 133 25
134 128 41
129 122 30
137 130 37
140 133 42
136 130 34
131 124 34
136 131 34
133 125 39
132 128 39
136 129 41
137 131 42
130 124 37
144 138 41
139 133 39
134 128 45
123 117 30
137 131 39
137 132 37
136 130 34
138 130 44
137 133 39
140 133 52
129 122 39
129 125 28
139 134 45
133 127 41
137 132 42
137 129 39
133 127 44
138 131 49
136 129 47
137 131 48
141 135 53
141 132 49
140 134 41
133 127 41
130 125 37
130 124 41
127 120 39
134 127 42
134 129 47
134 128 51
173 196 0
171 194 0
174 198 0
172 195 0
174 197 0
174 197 0
172 195 0
172 194 0
172 196 0
176 198 0
174 197 0
172 195 0
169 193 0
173 197 0
172 196 0
171 195 0
173 197 0
170 193 0
169 192 0
172 196 0
172 195 0
174 198 0
174 197 0
169 193 0
173 196 0
172 195 0
172 195 0
172 195 0
174 197 0
172 195 0
172 195 0
171 195 0
173 196 0
173 196 0
172 196 0
171 193 0
170 193 0
174 197 0
172 195 0
174 196 0
173 195 0
174 197 0
173 196 0
173 195 0
174 196 0
175 197 0
174 197 0
175 197 0
172 194 0
172 194 0
175 197 0
173 195 0
173 195 0
175 197 0
173 195 0
172 194 0
172 195 0
173 196 0
172 195 0
174 196 0
172 193 0
176 197 0
176 199 0
174 195 0
171 193 0
173 194 0
174 196 0
170 191 0
172 193 0
174 196 0
176 198 0
172 194 0
174 194 0
169 191 0
166 187 0
175 195 0
174 195 0
171 192 0
171 192 0
173 194 0
173 193 0
168 190 0
169 190 0
165 186 0
172 193 0
168 188 0
170 190 0
161 182 0
170 192 0
171 192 0
166 187 0
169 192 0
169 190 0
164 185 0
164 186 0
166 187 0
164 184 0
165 185 0
161 183 0
160 182 0
162 183 0
167 188 0
161 182 0
163 184 0
166 187 0
157 178 0
165 187 0
164 186 0
158 180 0
160 181 0
159 180 0
160 182 0
158 180 0
158 179 0
159 180 0
164 185 0
151 173 0
169 190 0
158 180 0
164 185 0
166 189 0
170 194 0
184 204 142
168 188 105
166 188 0
163 185 0
160 182 0
153 175 0
157 179 0
161 183 0
158 179 0
159 182 0
153 174 0
159 182 0
155 178 0
159 181 0
153 176 0
153 175 0
158 179 0
151 173 0
154 175 0
151 172 0
155 177 0
155 177 0
149 171 0
152 174 0
145 167 0
142 164 0
153 175 0
146 168 0
150 172 0
150 171 0
145 166 0
146 168 0
149 170 0
143 165 0
143 164 0
139 160 0
147 167 0
141 161 0
143 164 0
143 163 0
128 149 0
133 154 0
132 152 0
126 145 0
126 146 0
133 153 0
121 142 0
128 147 0
125 144 0
128 147 0
107 127 31
76 101 70
47 75 57
48 77 78
48 77 57
51 81 78
49 79 70
51 81 82
50 80 70
50 80 74
53 84 95
52 82 80
49 79 67
51 81 84
50 80 67
51 81 86
53 84 78
52 82 82
50 80 80
51 81 86
53 84 84
50 80 76
51 82 90
52 83 97
48 76 70
50 80 80
51 82 80
50 80 76
51 81 90
52 82 74
51 81 88
49 78 84
50 79 80
48 77 80
51 81 82
50 79 84
48 76 86
53 83 97
49 79 75
50 79 82
51 80 85
48 76 72
50 79 77
48 76 72
47 75 75
48 76 80
51 80 78
48 76 76
46 73 67
48 75 73
48 76 88
46 73 76
43 68 60
43 68 61
61 79 57
93 106 26
112 125 0
100 111 0
113 127 0
97 108 0
109 124 0
109 124 0
114 128 0
109 123 0
117 132 0
120 134 0
124 139 0
116 130 0
125 141 0
124 138 0
125 137 0
120 133 0
128 142 0
121 134 0
116 131 0
125 138 0
127 140 0
127 141 0
129 142 0
116 129 0
123 136 0
125 138 0
130 143 0
127 137 0
128 139 0
136 148 0
133 145 0
126 138 0
124 134 0
124 135 0
129 140 0
133 144 0
133 142 0
124 134 0
136 144 0
125 134 0
129 136 0
121 127 0
133 140 0
133 142 0
139 151 0
132 138 0
134 141 0
134 139 0
118 121 11
97 96 11
89 82 16
98 90 16
82 75 0
90 83 0
95 89 16
83 80 11
90 85 0
77 70 0
96 90 11
93 88 0
100 94 0
88 82 0
88 82 0
93 89 0
97 93 8
95 90 0
92 88 0
103 100 0
110 105 8
100 94 0
103 98 0
124 116 0
111 107 0
113 107 0
103 99 0
107 104 0
111 107 0
116 109 0
120 113 16
115 110 0
114 110 0
119 114 0
116 109 11
112 109 0
116 110 0
118 112 0
111 107 11
127 120 14
122 117 16
127 123 11
123 117 0
123 117 16
112 108 16
123 119 19
132 126 19
127 121 19
122 118 11
125 118 16
139 133 25
130 125 19
127 122 11
129 123 19
130 126 22
126 121 19
126 120 22
129 123 25
135 127 32
133 128 30
141 134 32
127 123 11
132 127 30
129 122 19
133 128 30
128 123 28
131 124 28
124 119 28
137 131 28
132 127 30
136 130 28
138 131 37
135 129 37
133 127 36
135 129 32
137 130 37
134 129 25
137 132 28
127 121 34
123 119 22
142 136 37
134 128 28
145 139 45
140 133 36
134 128 36
129 122 34
142 135 42
133 128 34
139 133 34
132 126 44
134 129 36
140 134 37
136 129 39
134 128 39
137 131 32
136 129 36
134 127 42
132 126 34
132 126 41
136 132 37
132 126 36
139 133 41
130 124 36
138 131 45
140 135 36
140 134 45
136 130 45
138 132 49
140 133 58
133 127 42
134 128 44
133 128 30
132 126 37
140 134 51
135 129 39
134 128 42
131 125 36
133 127 45
120 115 19
130 125 44
136 130 39
130 125 45
137 130 52
138 132 52
174 197 0
175 197 0
174 197 0
172 195 0
172 196 0
172 195 0
172 195 0
167 191 0
170 194 0
173 195 0
172 195 0
174 197 0
171 195 0
172 195 0
170 194 0
172 196 0
171 195 0
173 196 0
172 194 0
174 198 0
172 195 0
172 195 0
170 195 0
170 193 0
172 195 0
173 196 0
173 196 0
174 197 0
167 190 0
174 197 0
172 195 0
171 194 0
169 192 0
169 192 0
175 197 0
174 197 0
171 193 0
173 196 0
171 194 0
172 196 0
174 197 0
175 197 0
175 197 0
172 195 0
170 192 0
173 195 0
172 194 0
173 195 0
174 196 0
176 198 0
169 191 0
175 198 0
173 196 0
175 197 0
174 196 0
170 193 0
173 195 0
171 194 0
175 196 0
172 194 0
171 193 0
174 196 0
176 197 0
171 193 0
173 195 0
172 193 0
176 197 0
170 192 0
171 193 0
170 192 0
172 193 0
172 193 0
174 194 0
175 196 0
173 194 0
170 190 0
173 194 0
171 192 0
173 194 0
168 189 0
173 195 0
165 186 0
167 189 0
166 187 0
167 189 0
170 192 0
166 188 0
167 188 0
164 184 0
164 185 0
169 191 0
162 184 0
168 188 0
162 182 0
161 183 0
159 180 0
167 188 0
162 183 0
159 181 0
160 181 0
166 186 0
161 183 0
155 176 0
160 181 0
159 181 0
161 182 0
158 178 0
154 175 0
167 188 0
158 178 0
155 176 0
160 181 0
161 181 0
163 185 0
159 180 0
161 182 0
156 177 0
165 186 0
162 183 0
165 187 0
176 198 88
174 195 117
165 186 51
167 189 0
158 181 0
160 182 0
167 189 0
157 178 0
155 177 0
156 177 0
162 184 0
166 188 0
162 184 0
161 183 0
155 177 0
154 177 0
152 174 0
155 177 0
158 180 0
150 172 0
155 177 0
157 179 0
156 177 0
142 165 0
151 173 0
151 173 0
153 175 0
149 171 0
149 171 0
149 171 0
146 168 0
148 169 0
147 168 0
157 178 0
149 171 0
141 163 0
146 168 0
130 150 0
137 158 0
143 163 0
140 162 0
125 146 0
130 152 0
124 145 0
132 153 0
127 147 0
127 146 0
124 144 0
114 134 0
117 136 0
132 151 0
112 131 0
118 137 0
110 129 0
100 117 25
67 91 57
47 76 60
47 76 74
49 79 72
48 77 62
51 81 86
48 77 70
49 78 70
50 79 72
49 78 70
51 81 78
50 80 74
50 80 86
51 82 78
48 77 65
49 78 80
49 79 78
52 83 94
49 79 70
50 79 67
49 78 80
48 77 72
51 81 82
52 83 90
51 80 78
48 77 72
49 79 65
49 78 70
51 82 84
50 79 78
47 76 67
51 81 87
48 77 54
49 78 74
48 77 74
50 79 78
48 76 70
49 79 76
49 78 74
45 72 65
50 78 95
48 76 70
49 77 81
49 77 57
46 72 74
45 72 70
50 79 82
44 70 68
46 72 72
56 78 65
82 97 37
104 118 0
106 120 0
102 115 0
99 112 0
92 103 0
99 112 0
114 127 0
109 124 0
114 128 0
112 124 0
115 129 0
111 122 0
108 123 0
110 122 0
114 129 0
110 121 0
105 119 0
107 120 0
110 122 0
116 127 0
128 141 0
129 145 0
131 144 0
118 130 0
119 132 0
123 134 0
131 143 0
125 138 0
124 135 0
119 131 0
131 142 0
117 126 0
130 139 0
125 137 0
121 132 0
122 131 0
130 141 0
129 138 0
125 135 0
132 143 0
123 130 0
128 137 0
121 129 0
124 130 0
126 134 0
124 133 0
127 133 0
127 133 0
124 130 0
132 138 0
119 126 0
134 140 0
102 102 18
93 84 16
78 71 8
83 77 0
98 91 19
86 81 0
91 84 16
90 86 0
89 82 11
81 77 11
91 83 11
93 89 11
101 94 8
95 87 0
106 98 0
95 90 8
105 100 0
102 98 8
102 99 0
93 87 0
100 95 0
92 86 0
104 99 0
105 99 8
106 100 0
100 95 0
104 99 11
111 105 0
111 107 0
119 114 0
108 103 0
119 112 0
112 107 0
117 110 0
109 104 0
115 109 11
117 113 0
111 105 16
119 113 11
106 100 0
112 107 0
120 114 11
126 120 16
119 115 11
128 120 25
127 121 25
124 118 11
123 119 25
128 122 11
128 123 22
124 119 30
119 115 19
128 123 28
132 125 25
128 122 22
130 125 0
128 121 19
133 128 22
132 125 28
124 120 11
135 129 36
133 126 28
135 127 28
133 126 25
136 130 32
131 125 25
126 120 22
134 127 32
134 128 32
139 131 36
125 121 30
130 124 22
133 127 25
136 129 25
140 133 44
136 131 37
138 131 42
134 128 30
144 137 44
137 131 39
128 123 28
133 128 39
133 126 11
128 123 34
143 135 39
136 129 41
136 129 37
141 136 45
130 125 30
136 129 44
135 129 39
132 126 36
132 126 41
126 121 28
134 128 41
137 130 41
128 121 36
133 126 37
132 125 34
136 130 37
141 134 36
139 133 37
140 135 41
140 133 49
134 129 44
138 131 47
132 126 34
136 129 44
134 128 44
130 125 22
131 124 44
137 129 44
135 128 34
143 136 51
136 130 48
127 121 42
127 121 30
128 123 44
138 132 45
132 127 39
132 126 44
129 123 36
172 195 0
173 196 0
174 198 0
174 197 0
170 194 0
172 195 0
174 198 0
171 194 0
174 197 0
171 194 0
173 197 0
172 195 0
172 196 0
172 195 0
172 195 0
173 196 0
172 195 0
173 197 0
174 198 0
173 195 0
170 193 0
173 196 0
171 194 0
173 197 0
174 197 0
170 193 0
165 188 0
173 196 0
174 197 0
170 192 0
173 195 0
173 196 0
170 194 0
172 195 0
168 191 0
174 196 0
174 196 0
172 195 0
170 193 0
171 194 0
166 188 0
172 194 0
174 196 0
171 193 0
170 192 0
174 196 0
174 196 0
175 197 0
169 191 0
173 194 0
175 197 0
175 197 0
173 195 0
174 196 0
175 197 0
175 196 0
170 191 0
174 195 0
173 195 0
172 194 0
173 194 0
174 194 0
174 195 0
169 192 0
176 197 0
174 195 0
171 192 0
172 193 0
171 191 0
175 196 0
168 191 0
177 197 0
170 191 0
172 193 0
172 193 0
168 189 0
174 195 0
169 190 0
166 187 0
166 187 0
170 192 0
167 187 0
167 188 0
166 187 0
159 180 0
168 189 0
169 190 0
166 186 0
167 188 0
164 185 0
166 187 0
165 187 0
162 183 0
159 180 0
165 186 0
161 182 0
166 187 0
160 181 0
162 184 0
163 185 0
155 176 0
163 184 0
162 183 0
161 182 0
155 178 0
162 183 0
163 184 0
165 187 0
160 181 0
159 180 0
152 174 0
160 181 0
164 186 0
161 182 0
161 182 0
167 189 0
166 188 0
162 184 0
173 194 25
180 200 125
173 193 99
167 188 0
161 183 0
163 184 0
159 180 0
161 182 0
163 184 0
161 184 0
165 187 0
161 183 0
161 184 0
152 175 0
162 184 0
159 181 0
151 172 0
146 170 0
154 175 0
164 186 0
153 174 0
154 175 0
150 172 0
151 173 0
150 172 0
148 170 0
149 171 0
152 173 0
155 177 0
148 170 0
151 173 0
154 175 0
147 169 0
141 162 0
147 169 0
138 158 0
145 167 0
148 169 0
138 158 0
145 167 0
141 162 0
138 158 0
129 149 0
130 151 0
134 153 0
137 157 0
134 154 0
124 144 0
123 144 0
128 146 0
116 134 0
125 145 0
120 139 0
118 137 0
116 133 0
118 136 0
104 121 0
99 117 0
78 97 40
55 82 60
48 77 74
46 74 67
46 74 65
48 76 67
47 75 67
45 74 60
48 78 78
46 73 51
47 76 70
47 75 65
47 75 70
49 78 84
51 82 78
51 82 82
48 77 74
50 79 74
53 84 88
50 79 76
48 77 62
49 78 65
51 81 78
49 78 82
45 73 60
49 79 60
50 80 82
52 82 92
48 77 70
51 81 74
48 77 67
49 79 76
48 76 72
50 79 78
48 76 76
49 78 83
46 73 72
49 78 82
50 79 80
49 77 82
47 74 72
50 78 88
44 70 57
44 70 67
47 74 72
42 66 60
55 76 62
73 87 19
95 108 0
88 98 0
81 91 0
98 112 0
99 112 0
99 111 0
97 110 0
108 123 0
96 105 0
92 106 0
103 112 0
109 124 0
107 121 0
115 126 0
117 131 0
115 127 0
119 133 0
110 124 0
110 124 0
116 129 0
126 140 0
110 123 0
122 134 0
110 123 0
110 123 0
114 126 0
122 136 0
122 134 0
126 139 0
121 131 0
128 138 0
123 135 0
126 139 0
120 130 0
119 130 0
126 136 0
126 136 0
114 120 0
134 146 0
121 129 0
120 130 0
126 136 0
120 129 0
125 134 0
127 134 0
120 125 0
125 134 0
120 127 0
119 122 0
122 128 0
117 126 0
119 124 0
126 132 0
121 122 0
119 124 0
112 114 0
93 88 16
79 73 19
78 72 11
76 69 16
84 78 14
81 74 0
86 78 0
94 87 16
91 83 11
91 85 0
92 85 0
97 88 0
108 100 0
109 102 0
98 93 0
109 106 0
88 83 0
105 99 0
98 94 0
91 86 0
99 94 0
113 107 0
99 92 0
108 104 0
109 102 0
117 112 0
106 101 0
117 111 0
109 102 0
112 108 0
108 102 0
105 99 11
110 105 0
119 115 0
113 107 0
126 120 19
121 114 0
119 113 11
118 112 18
126 120 11
122 116 11
118 113 19
119 114 16
119 114 16
118 114 11
123 117 16
123 117 16
126 121 11
113 107 0
127 122 16
124 119 11
128 123 25
134 127 22
133 128 22
130 125 22
127 120 16
133 126 25
131 126 22
133 128 36
130 124 22
128 121 25
131 126 28
134 128 30
130 123 28
135 128 41
125 119 32
129 122 36
126 122 16
136 129 25
135 129 34
133 126 30
132 127 25
123 116 28
132 125 34
135 128 34
136 130 30
126 121 32
132 126 34
131 126 30
128 121 36
131 126 22
137 130 41
137 130 37
129 122 34
139 132 42
137 130 32
135 128 36
132 125 36
134 129 36
141 135 39
134 129 36
132 127 37
141 134 44
135 130 41
134 127 41
136 129 41
120 115 34
133 125 32
140 133 49
122 115 19
142 135 48
139 132 39
130 126 28
127 122 37
138 131 47
127 121 25
134 128 47
133 127 37
129 124 39
140 133 54
130 125 37
123 119 30
127 122 36
132 126 45
138 130 51
131 124 44
137 130 49
128 122 47
132 126 45
132 126 39
172 195 0
173 197 0
173 197 0
173 197 0
174 197 0
174 197 0
170 194 0
173 196 0
172 196 0
170 194 0
171 195 0
173 196 0
174 197 0
174 197 0
171 193 0
173 196 0
173 197 0
172 194 0
174 196 0
171 194 0
173 196 0
173 196 0
173 196 0
172 195 0
168 191 0
171 194 0
173 195 0
172 195 0
173 196 0
173 196 0
172 196 0
172 195 0
172 195 0
172 194 0
169 192 0
173 196 0
170 193 0
174 196 0
175 197 0
175 197 0
171 195 0
170 193 0
172 194 0
170 193 0
172 194 0
173 195 0
170 193 0
171 193 0
175 197 0
172 195 0
175 196 0
173 195 0
175 196 0
171 193 0
177 198 0
171 193 0
170 192 0
175 196 0
174 196 0
174 195 0
171 193 0
174 195 0
177 198 0
172 193 0
170 191 0
170 192 0
176 196 0
173 194 0
171 192 0
175 196 0
165 185 0
173 193 0
172 193 0
177 198 0
169 190 0
169 190 0
166 187 0
170 190 0
171 193 0
173 194 0
167 189 0
166 187 0
168 189 0
172 193 0
161 182 0
160 182 0
161 182 0
166 187 0
164 186 0
165 187 0
171 193 0
160 181 0
161 183 0
161 182 0
160 182 0
160 180 0
163 184 0
165 186 0
160 183 0
160 182 0
160 182 0
167 188 0
159 180 0
168 189 0
166 187 0
160 181 0
162 183 0
151 173 0
162 183 0
163 184 0
164 186 0
164 185 0
161 182 0
166 188 0
162 184 0
166 187 0
170 192 0
174 196 92
178 198 122
167 188 57
161 183 0
158 179 0
161 183 0
156 178 0
169 190 0
149 170 0
159 181 0
153 174 0
158 179 0
157 179 0
157 178 0
158 180 0
157 178 0
157 179 0
158 179 0
150 172 0
158 180 0
156 177 0
155 177 0
143 165 0
153 174 0
149 170 0
154 176 0
147 169 0
145 167 0
147 169 0
142 164 0
144 164 0
156 177 0
149 170 0
146 167 0
150 171 0
141 162 0
149 169 0
140 161 0
138 159 0
137 157 0
133 154 0
136 156 0
137 158 0
137 157 0
136 156 0
129 149 0
132 153 0
131 150 0
127 147 0
132 151 0
121 142 0
100 119 0
128 146 0
118 137 0
126 144 0
113 132 0
120 138 0
113 130 0
107 123 0
90 106 0
104 120 0
79 98 31
68 89 65
45 72 65
45 73 62
48 77 74
47 75 57
46 74 60
44 70 62
44 71 72
49 77 62
48 77 65
48 76 70
48 77 88
47 75 72
47 75 70
49 78 67
52 83 86
48 76 72
50 80 86
46 73 72
44 70 57
50 80 82
50 79 82
52 82 90
48 76 70
47 76 70
50 79 82
49 78 67
47 75 62
45 72 72
48 76 74
47 74 80
49 78 78
46 73 76
41 66 47
48 76 78
44 70 54
42 67 57
49 77 72
45 70 57
43 69 57
40 64 57
46 66 65
74 88 31
77 90 0
97 108 0
90 102 0
92 101 0
103 115 0
93 105 0
93 106 0
87 99 0
95 107 0
103 113 0
111 123 0
112 125 0
113 126 0
115 127 0
111 123 0
114 128 0
109 119 0
109 123 0
117 132 0
122 134 0
111 125 0
113 124 0
119 130 0
113 127 0
111 125 0
104 117 0
115 128 0
131 145 0
119 130 0
121 134 0
111 123 0
117 128 0
125 135 0
134 147 0
117 127 0
118 129 0
109 118 0
117 125 0
118 126 0
126 136 0
120 131 0
121 134 0
114 122 0
114 122 0
111 119 0
117 125 0
114 122 0
116 124 0
135 141 0
120 125 0
123 129 0
126 130 0
122 128 0
125 132 0
124 130 0
123 125 0
116 121 0
118 121 0
117 119 0
89 84 11
79 74 0
79 73 0
81 76 0
85 81 0
87 81 0
81 73 0
98 91 0
92 83 0
93 88 0
97 89 0
97 91 0
94 87 0
106 100 0
99 94 8
98 94 0
102 95 0
105 98 0
102 98 0
95 88 0
102 96 0
98 92 0
105 97 0
106 101 0
100 98 0
114 107 0
107 102 0
112 104 0
109 103 0
113 107 0
111 105 0
111 104 0
112 107 0
110 105 0
115 109 11
110 105 11
116 108 11
118 113 11
122 118 11
111 106 0
123 117 19
121 115 11
123 117 19
119 115 22
117 110 16
118 113 0
129 123 19
120 114 11
128 123 16
121 115 16
123 115 19
120 114 11
119 113 19
130 124 19
129 124 22
124 118 28
121 117 19
126 120 16
126 120 0
134 128 28
127 123 22
127 121 34
127 122 22
124 118 25
135 128 22
127 120 22
127 120 11
126 122 30
126 121 25
132 126 32
133 126 30
124 119 28
132 125 37
134 127 28
134 128 28
127 122 36
130 124 32
125 119 32
132 126 25
129 122 34
135 129 32
132 125 39
136 130 49
132 125 32
128 123 36
131 124 36
132 126 30
135 129 37
134 128 36
132 126 41
131 126 37
123 116 39
128 122 32
136 129 49
130 123 36
135 127 45
138 129 44
135 128 36
126 119 30
132 127 25
138 131 42
135 130 41
127 122 37
133 128 41
131 125 37
131 125 42
129 123 42
135 129 41
132 126 44
138 132 41
135 130 39
124 120 34
134 129 45
126 121 42
127 121 37
134 128 47
118 112 39
122 116 41
129 123 45
175 198 0
174 197 0
173 196 0
174 198 0
171 195 0
173 197 0
173 197 0
175 198 0
174 197 0
172 195 0
174 197 0
173 196 0
173 196 0
174 197 0
173 196 0
173 196 0
172 195 0
174 198 0
172 194 0
169 192 0
171 195 0
175 197 0
174 196 0
173 197 0
172 194 0
171 194 0
172 195 0
172 195 0
174 196 0
171 193 0
174 197 0
173 197 0
174 197 0
174 196 0
174 196 0
168 191 0
172 195 0
169 192 0
169 192 0
174 196 0
172 194 0
169 192 0
173 196 0
170 193 0
172 194 0
171 194 0
174 197 0
172 195 0
172 194 0
173 194 0
166 188 0
172 194 0
173 196 0
172 194 0
171 193 0
172 193 0
171 193 0
170 192 0
171 192 0
170 191 0
172 194 0
170 192 0
171 193 0
172 194 0
175 196 0
171 192 0
175 196 0
173 193 0
172 193 0
174 195 0
173 194 0
169 191 0
171 191 0
171 192 0
167 189 0
168 189 0
171 193 0
175 196 0
169 191 0
169 190 0
163 183 0
171 192 0
164 186 0
172 194 0
164 186 0
163 184 0
164 187 0
166 188 0
162 184 0
160 182 0
166 187 0
164 186 0
169 191 0
164 185 0
161 182 0
163 184 0
167 188 0
166 188 0
164 185 0
158 179 0
161 183 0
154 176 0
156 177 0
168 189 0
163 184 0
162 183 0
162 183 0
167 188 0
159 181 0
158 179 0
164 185 0
166 187 0
169 190 0
160 181 0
170 191 0
167 189 51
179 199 125
167 188 72
168 190 0
160 181 0
162 183 0
158 180 0
161 182 0
164 185 0
168 190 0
158 179 0
159 180 0
160 181 0
160 182 0
156 177 0
160 181 0
155 177 0
155 177 0
154 177 0
157 179 0
156 177 0
159 180 0
146 168 0
153 175 0
159 180 0
153 175 0
157 179 0
149 171 0
148 170 0
148 169 0
150 172 0
154 175 0
147 168 0
144 166 0
153 174 0
137 158 0
144 165 0
144 164 0
145 167 0
139 161 0
145 166 0
137 158 0
143 163 0
132 152 0
131 151 0
136 155 0
133 154 0
140 160 0
135 155 0
119 140 0
127 146 0
125 143 0
125 144 0
120 139 0
117 136 0
108 127 0
102 121 0
105 124 0
111 127 0
101 118 0
101 118 0
106 121 0
101 116 0
95 111 0
98 113 0
75 92 40
56 77 44
48 74 47
46 74 57
45 72 51
45 73 65
48 77 76
46 74 65
44 71 54
46 74 62
46 74 62
48 77 57
46 74 67
51 81 94
48 76 70
45 73 54
45 73 62
46 75 67
51 80 80
49 78 80
49 78 72
47 75 57
44 71 60
48 77 78
47 75 67
46 73 65
47 75 68
46 73 65
45 72 72
46 74 65
49 78 75
46 72 78
43 69 62
48 76 89
45 71 65
45 72 62
41 66 60
40 64 57
64 80 44
68 81 0
91 101 0
78 88 0
82 95 0
86 97 0
98 109 0
86 97 0
103 114 0
96 108 0
89 99 0
98 112 0
103 116 0
100 111 0
92 104 0
97 110 0
95 106 0
117 131 0
108 121 0
117 130 0
119 131 0
114 127 0
107 121 0
117 128 0
105 118 0
120 135 0
110 122 0
116 127 0
108 119 0
116 130 0
124 138 0
117 130 0
113 122 0
125 138 0
115 126 0
122 135 0
121 135 0
117 128 0
112 119 0
112 120 0
128 138 0
116 125 0
125 135 0
119 132 0
116 126 0
111 120 0
122 132 0
115 122 0
119 126 0
114 121 0
122 129 0
125 130 0
115 119 0
108 112 0
119 122 0
120 128 0
98 102 0
116 120 0
128 132 0
114 118 0
118 122 0
99 99 0
118 123 0
117 119 0
107 109 0
77 74 11
88 81 19
83 76 0
83 74 0
73 70 0
82 75 0
85 78 0
100 91 0
77 71 0
86 77 0
95 87 0
96 91 0
84 79 0
100 93 0
96 87 0
104 98 0
96 89 0
106 100 0
103 95 3
106 99 0
105 99 0
111 103 0
108 101 0
107 101 0
120 114 0
113 108 0
117 112 0
106 101 0
101 96 0
113 107 0
107 102 0
107 102 0
112 107 0
116 110 11
115 108 0
116 111 11
118 111 0
121 115 16
128 122 19
123 117 11
125 118 0
123 116 11
117 111 0
119 113 11
126 120 16
132 125 11
127 120 0
125 118 11
115 110 0
120 115 19
120 113 19
132 125 19
119 113 16
120 115 19
129 123 25
118 113 0
125 119 22
129 124 16
125 117 25
122 115 32
125 119 30
133 128 22
128 122 25
131 126 30
128 121 22
133 127 32
126 120 32
132 125 25
134 127 28
131 124 32
128 122 32
127 120 25
122 117 25
137 131 25
136 129 36
129 123 36
119 113 32
138 130 41
124 118 25
138 130 32
130 124 34
139 132 34
125 119 32
143 135 37
137 131 45
130 123 30
128 121 32
138 130 42
134 128 36
129 122 34
125 121 25
134 128 34
134 127 39
137 131 47
127 120 37
130 123 34
124 118 34
120 115 32
139 133 34
133 127 32
119 114 32
137 130 39
129 124 36
132 125 42
125 119 37
119 113 37
127 121 37
130 123 44
126 120 37
132 126 45
136 130 36
127 121 41
136 129 48
124 119 41
140 134 51
132 125 44
134 128 41
175 198 0
174 197 0
174 197 0
173 197 0
172 195 0
175 197 0
172 195 0
173 197 0
172 195 0
171 194 0
174 197 0
176 199 0
173 196 0
173 196 0
173 197 0
169 192 0
173 197 0
172 195 0
170 194 0
172 195 0
173 196 0
171 195 0
174 197 0
173 196 0
169 193 0
173 195 0
171 194 0
173 196 0
171 193 0
174 197 0
172 195 0
171 194 0
170 193 0
171 194 0
171 194 0
175 197 0
171 193 0
171 194 0
169 192 0
172 195 0
169 193 0
176 197 0
169 192 0
170 193 0
177 199 0
174 196 0
173 196 0
172 194 0
172 194 0
166 190 0
171 194 0
172 193 0
171 194 0
168 191 0
172 194 0
168 191 0
168 190 0
169 191 0
169 192 0
170 192 0
170 192 0
171 192 0
172 193 0
172 195 0
171 193 0
170 191 0
167 189 0
169 192 0
171 193 0
167 189 0
168 189 0
169 190 0
165 187 0
168 190 0
165 186 0
170 192 0
162 184 0
165 186 0
165 186 0
166 188 0
165 187 0
169 190 0
167 188 0
168 189 0
160 182 0
166 187 0
168 189 0
154 176 0
166 188 0
162 184 0
165 187 0
164 186 0
166 187 0
165 187 0
166 187 0
162 182 0
166 187 0
149 170 0
164 185 0
162 182 0
164 185 0
162 184 0
164 186 0
162 184 0
165 186 0
168 189 0
164 185 0
157 178 0
166 186 0
160 181 0
163 184 0
154 175 0
165 187 0
169 192 51
179 199 133
178 197 140
163 184 0
161 183 0
155 176 0
166 187 0
159 181 0
163 185 0
159 181 0
163 184 0
154 175 0
160 181 0
157 179 0
156 177 0
158 180 0
159 181 0
156 178 0
154 175 0
154 176 0
152 174 0
156 177 0
154 175 0
151 172 0
157 178 0
156 178 0
150 172 0
153 175 0
156 178 0
147 169 0
149 170 0
150 172 0
144 165 0
142 164 0
158 180 0
140 161 0
146 168 0
146 168 0
136 158 0
139 159 0
141 162 0
142 164 0
147 167 0
134 154 0
127 148 0
137 158 0
128 149 0
135 155 0
134 154 0
124 144 0
123 142 0
123 142 0
119 139 0
127 147 0
119 139 0
122 141 0
123 142 0
111 130 0
112 131 0
106 124 0
106 124 0
97 114 0
98 114 0
101 118 0
85 101 0
100 116 0
93 108 0
79 93 0
87 101 0
80 94 18
63 79 25
55 74 31
40 65 51
42 68 47
41 66 65
44 71 47
46 73 60
46 73 78
48 77 65
45 73 62
46 72 67
43 70 74
44 70 54
43 70 57
45 73 62
46 74 54
48 77 88
48 76 57
45 71 67
44 71 51
42 67 60
43 69 72
43 69 60
42 66 60
46 72 75
48 75 67
44 70 62
44 71 57
42 67 57
44 71 57
44 70 57
42 63 40
43 61 44
72 84 0
56 67 0
76 87 0
71 82 0
84 95 0
83 93 0
71 82 0
79 90 0
82 94 0
92 103 0
100 110 0
100 110 0
77 91 0
90 100 0
98 108 0
94 107 0
92 103 0
99 110 0
91 104 0
112 125 0
112 126 0
111 124 0
100 111 0
113 124 0
99 112 0
107 121 0
111 123 0
121 136 0
118 132 0
110 119 0
106 119 0
111 122 0
119 130 0
128 143 0
128 140 0
115 126 0
123 133 0
113 124 0
121 135 0
113 126 0
121 130 0
124 135 0
111 121 0
113 123 0
116 122 0
119 128 0
125 134 0
109 120 0
125 136 0
120 129 0
127 135 0
118 124 0
108 113 0
112 117 0
115 119 0
115 121 0
112 119 0
112 116 0
104 108 0
123 127 0
106 111 0
117 119 0
116 120 0
115 117 0
104 105 0
113 116 0
120 123 0
114 114 0
109 111 0
84 77 16
80 71 0
79 72 0
78 68 0
80 73 0
88 80 14
96 89 0
83 76 11
81 74 0
98 89 0
94 87 0
97 90 0
89 83 0
94 90 0
95 88 0
103 96 0
106 99 0
99 94 0
101 94 0
100 93 0
105 98 0
102 96 0
115 110 0
100 93 0
100 94 0
113 106 0
111 106 0
107 101 0
122 115 11
114 105 0
111 106 0
112 106 0
121 113 16
116 109 0
106 100 11
114 107 0
113 107 0
107 101 11
118 111 11
123 114 11
114 107 0
122 116 0
125 119 11
124 118 19
132 126 22
132 126 16
120 114 16
113 107 11
116 109 11
124 118 11
130 124 11
126 120 19
120 116 11
130 124 25
126 118 22
130 125 25
124 119 16
118 111 22
130 124 32
122 116 16
133 127 25
129 123 16
132 126 22
120 113 0
120 115 25
129 123 28
132 125 22
121 114 19
129 121 30
126 119 34
130 124 25
133 126 28
129 122 28
132 124 36
132 125 41
132 126 37
131 125 32
125 119 22
129 124 34
123 118 32
137 130 39
120 113 28
129 124 30
127 121 37
135 127 37
136 129 37
139 133 36
129 123 34
135 129 39
127 120 39
134 127 41
131 126 37
127 121 37
126 120 28
128 121 41
126 120 36
129 122 39
129 123 39
137 131 39
128 122 36
133 126 39
127 120 36
127 122 34
124 120 30
122 115 36
138 132 41
127 121 36
123 117 39
130 125 42
124 118 34
124 118 28
127 120 44
128 121 47
128 122 41
125 117 44
175 198 0
172 196 0
174 198 0
175 198 0
172 196 0
173 196 0
172 195 0
173 196 0
173 196 0
174 197 0
172 196 0
171 194 0
173 196 0
171 195 0
174 198 0
173 196 0
172 195 0
171 194 0
170 193 0
173 196 0
173 196 0
174 197 0
170 193 0
174 197 0
171 194 0
174 197 0
174 197 0
169 191 0
173 196 0
175 197 0
171 194 0
169 192 0
171 194 0
171 194 0
171 193 0
172 194 0
172 194 0
172 195 0
171 194 0
175 197 0
173 195 0
171 194 0
170 192 0
170 193 0
172 194 0
170 193 0
164 187 0
173 195 0
169 191 0
171 194 0
172 194 0
167 190 0
168 189 0
171 194 0
171 193 0
171 193 0
165 188 0
168 191 0
172 194 0
168 190 0
169 190 0
168 189 0
165 187 0
169 190 0
168 190 0
168 190 0
172 193 0
169 190 0
168 190 0
167 189 0
168 189 0
168 189 0
171 192 0
169 191 0
169 190 0
168 190 0
164 185 0
165 187 0
168 189 0
170 192 0
166 187 0
165 187 0
165 187 0
167 188 0
165 187 0
163 185 0
166 187 0
168 189 0
169 191 0
168 190 0
163 184 0
161 182 0
162 183 0
166 188 0
167 188 0
164 185 0
168 191 0
162 183 0
167 188 0
167 189 0
166 187 0
162 184 0
166 188 0
159 180 0
164 185 0
157 178 0
163 184 0
163 184 0
165 187 0
165 187 0
165 186 0
169 191 25
185 205 114
179 198 130
169 190 36
167 189 0
166 187 0
157 179 0
160 180 0
153 174 0
162 184 0
149 170 0
164 184 0
161 182 0
159 179 0
157 179 0
151 172 0
154 175 0
154 176 0
159 181 0
158 179 0
157 178 0
155 177 0
158 179 0
157 178 0
150 172 0
158 180 0
157 178 0
152 173 0
148 169 0
140 162 0
155 176 0
151 172 0
152 175 0
140 160 0
149 170 0
147 168 0
134 156 0
150 172 0
143 163 0
146 167 0
151 172 0
143 164 0
142 162 0
137 157 0
135 155 0
140 160 0
129 149 0
137 156 0
131 150 0
135 156 0
128 148 0
128 148 0
123 143 0
117 138 0
127 146 0
123 142 0
131 148 0
122 141 0
115 133 0
107 124 0
112 129 0
101 118 0
116 133 0
117 135 0
109 125 0
93 108 0
107 123 0
111 127 0
88 103 0
89 105 0
103 118 0
82 96 0
74 86 0
68 80 0
81 93 0
63 77 25
53 70 40
42 64 57
37 60 57
36 57 47
43 69 62
41 67 44
42 68 47
43 70 65
45 73 67
44 72 54
43 70 44
44 71 70
41 66 51
42 68 57
45 72 67
46 73 65
41 66 57
41 65 44
45 72 62
44 71 57
41 66 67
39 63 57
41 65 44
39 63 54
41 62 44
50 67 47
69 79 36
50 58 0
67 78 0
76 86 0
76 85 0
76 86 0
74 84 0
87 97 0
86 96 0
76 86 0
96 107 0
74 85 0
91 104 0
90 102 0
93 102 0
94 106 0
93 106 0
99 110 0
96 108 0
96 108 0
119 131 0
99 112 0
116 128 0
110 123 0
99 113 0
114 127 0
111 122 0
114 127 0
114 127 0
111 124 0
121 134 0
122 136 0
112 124 0
110 123 0
113 127 0
113 124 0
110 122 0
115 128 0
112 123 0
120 133 0
119 131 0
107 117 0
115 127 0
119 125 0
114 125 0
116 125 0
113 123 0
106 115 0
125 133 0
120 128 0
119 128 0
111 122 0
118 127 0
119 129 0
117 126 0
114 123 0
109 115 0
126 134 0
121 124 0
108 111 0
116 118 0
126 130 0
112 118 0
113 117 0
113 116 0
113 116 0
101 102 0
109 111 0
111 113 0
111 114 0
106 108 0
106 105 0
105 103 0
99 95 0
77 71 14
84 76 16
84 76 11
86 78 11
86 78 11
97 89 0
92 84 0
86 79 11
93 87 0
94 88 0
102 93 0
96 89 0
99 92 0
94 87 0
99 91 0
101 95 0
98 91 0
100 92 0
105 100 0
102 96 0
102 94 0
98 92 0
108 100 0
101 94 0
106 98 0
110 105 0
113 107 0
103 98 0
117 110 0
115 109 0
114 109 0
113 105 0
113 105 0
112 105 11
115 108 0
115 110 0
118 112 11
123 116 11
123 116 16
125 120 11
119 112 19
124 117 0
129 121 25
114 108 11
119 113 16
115 108 16
119 115 0
123 118 19
117 111 16
120 113 0
126 119 28
127 120 16
119 112 25
126 119 25
132 124 22
124 120 16
132 125 19
126 120 22
128 121 25
129 124 28
124 119 19
134 127 34
130 124 19
130 123 25
120 114 28
134 129 28
127 119 32
131 125 25
124 118 32
129 122 41
125 119 30
130 124 22
128 121 28
129 125 22
127 120 22
132 125 37
122 116 22
131 125 22
133 127 34
126 120 28
131 125 34
120 114 28
118 113 16
125 117 36
124 117 39
121 116 25
131 125 30
132 126 30
135 127 34
127 120 36
137 130 48
131 124 32
130 124 36
125 119 41
127 120 45
124 120 32
136 129 42
132 125 44
128 121 34
139 133 42
129 123 37
117 113 25
111 105 30
135 128 42
128 123 37
132 126 34
124 118 41
126 120 41
122 116 32
132 126 36
123 117 41
122 116 34
123 117 34
173 197 0
172 195 0
176 198 0
172 196 0
173 197 0
173 196 0
174 197 0
174 197 0
171 195 0
174 197 0
173 196 0
170 194 0
172 195 0
175 198 0
172 196 0
169 192 0
170 194 0
172 195 0
173 196 0
172 195 0
174 197 0
174 197 0
172 195 0
175 198 0
173 196 0
175 198 0
175 197 0
172 195 0
173 195 0
174 196 0
172 194 0
172 195 0
173 195 0
174 195 0
175 198 0
172 194 0
170 192 0
170 193 0
169 192 0
170 193 0
169 192 0
171 194 0
172 194 0
174 196 0
170 192 0
171 194 0
171 194 0
171 193 0
172 195 0
170 192 0
169 191 0
169 191 0
169 192 0
174 196 0
170 192 0
169 191 0
168 189 0
171 193 0
166 188 0
168 190 0
169 190 0
172 194 0
171 193 0
166 188 0
169 191 0
169 191 0
163 184 0
171 193 0
168 189 0
162 185 0
170 193 0
167 190 0
165 187 0
168 190 0
167 188 0
165 186 0
167 189 0
167 189 0
166 188 0
165 186 0
161 183 0
168 189 0
166 188 0
165 186 0
165 186 0
168 190 0
166 187 0
159 182 0
164 186 0
162 184 0
167 189 0
165 186 0
162 184 0
161 183 0
158 180 0
165 187 0
159 181 0
162 183 0
157 178 0
165 187 0
163 184 0
164 185 0
163 184 0
161 181 0
166 186 0
162 184 0
167 188 0
160 181 0
165 187 0
171 193 0
180 201 125
179 198 117
169 190 57
164 185 0
163 184 0
161 183 0
153 175 0
161 182 0
164 185 0
155 176 0
160 181 0
154 176 0
158 180 0
153 174 0
153 175 0
154 175 0
154 175 0
152 173 0
156 178 0
155 176 0
153 174 0
158 179 0
152 173 0
147 168 0
154 176 0
142 164 0
151 172 0
143 165 0
149 170 0
146 168 0
148 169 0
151 173 0
150 171 0
149 170 0
141 162 0
156 178 0
144 166 0
150 171 0
138 159 0
136 157 0
138 160 0
138 158 0
136 157 0
143 164 0
137 158 0
140 162 0
134 155 0
135 156 0
127 148 0
132 153 0
124 144 0
137 157 0
129 149 0
123 142 0
123 143 0
122 141 0
126 146 0
126 145 0
118 137 0
116 135 0
122 140 0
111 129 0
100 118 0
112 128 0
115 133 0
115 132 0
101 119 0
107 122 0
83 97 0
104 120 0
98 112 0
105 121 0
97 111 0
84 96 0
83 96 0
90 102 0
89 102 0
81 92 0
73 85 0
63 74 0
67 77 25
53 65 36
53 68 40
47 64 51
34 55 57
40 61 36
39 63 44
41 65 62
36 59 47
37 60 44
39 64 51
41 65 65
42 67 60
39 62 60
34 55 51
51 72 36
46 64 57
51 65 51
56 66 36
56 65 31
50 59 0
55 64 0
80 89 0
47 53 0
69 78 0
66 75 0
73 84 0
82 93 0
89 100 0
65 76 0
73 82 0
83 92 0
85 98 0
74 86 0
82 93 0
90 103 0
90 102 0
100 112 0
103 116 0
95 107 0
99 111 0
94 105 0
105 117 0
109 122 0
100 112 0
98 111 0
112 126 0
111 125 0
105 116 0
100 113 0
107 121 0
100 112 0
120 133 0
96 107 0
112 123 0
117 131 0
121 133 0
116 130 0
124 137 0
112 126 0
123 135 0
124 136 0
115 128 0
119 132 0
112 125 0
128 140 0
111 121 0
117 128 0
121 130 0
116 126 0
117 123 0
109 119 0
110 118 0
119 130 0
115 125 0
112 121 0
109 114 0
105 113 0
117 124 0
103 111 0
111 118 0
106 113 0
115 121 0
109 115 0
108 110 0
123 131 0
109 114 0
109 112 0
105 108 0
99 103 0
110 111 0
104 104 0
103 106 0
106 104 0
91 91 0
103 101 0
99 97 0
103 101 0
83 78 0
77 70 16
80 72 0
81 73 11
79 75 0
79 71 0
89 82 11
85 77 0
94 83 0
91 84 11
88 79 0
87 78 0
106 97 0
89 83 0
96 90 8
96 88 0
100 93 0
107 98 0
100 93 0
94 87 0
106 99 0
108 101 0
104 96 0
107 99 0
114 105 0
106 98 0
107 100 0
112 104 0
109 101 0
111 104 0
107 100 0
113 108 0
107 100 0
108 101 0
112 104 0
110 104 11
118 111 11
112 106 11
113 106 11
103 96 0
113 108 0
125 117 19
117 111 0
115 109 0
123 117 11
122 115 16
121 115 19
124 117 11
115 109 19
117 112 16
122 117 16
119 111 19
121 116 11
122 114 22
128 121 11
125 117 25
125 119 25
124 119 28
127 121 25
117 111 16
127 121 25
129 124 19
126 120 28
123 118 22
126 120 11
123 118 19
128 121 25
122 115 25
121 115 22
136 128 34
124 118 25
124 116 34
123 115 22
120 114 11
121 113 30
127 120 25
131 124 28
133 124 39
126 118 32
120 115 25
139 132 36
133 126 28
133 127 34
125 118 28
126 120 32
132 125 30
129 122 36
128 120 37
134 127 36
131 124 37
128 122 34
126 119 36
125 117 41
129 123 32
133 125 32
136 130 41
125 118 39
125 118 32
122 117 39
131 125 34
133 126 34
129 122 37
120 113 39
116 110 28
127 121 51
130 123 44
114 110 32
122 116 37
130 123 47
116 110 39
117 111 30
126 118 36
174 197 0
172 196 0
172 196 0
174 197 0
170 194 0
174 197 0
174 197 0
172 195 0
172 196 0
169 194 0
172 195 0
172 196 0
173 196 0
173 196 0
174 196 0
170 192 0
174 197 0
171 195 0
172 195 0
170 194 0
171 193 0
175 198 0
171 194 0
172 195 0
173 195 0
173 196 0
173 195 0
172 194 0
171 194 0
174 196 0
174 197 0
171 194 0
172 195 0
174 196 0
173 195 0
174 196 0
175 198 0
174 196 0
173 196 0
171 194 0
170 191 0
167 190 0
170 192 0
171 194 0
173 195 0
170 192 0
173 196 0
172 194 0
172 195 0
173 195 0
169 191 0
173 196 0
172 192 0
172 194 0
171 193 0
173 195 0
173 195 0
173 194 0
170 192 0
170 192 0
168 190 0
171 194 0
172 194 0
167 190 0
171 192 0
170 192 0
167 189 0
168 190 0
168 190 0
170 192 0
164 186 0
172 193 0
166 187 0
167 189 0
167 189 0
162 183 0
163 185 0
165 187 0
169 190 0
167 188 0
168 190 0
175 195 0
169 192 0
166 187 0
165 186 0
168 189 0
165 187 0
160 181 0
171 193 0
163 185 0
164 185 0
160 182 0
163 184 0
161 183 0
168 189 0
163 184 0
157 178 0
165 186 0
166 187 0
158 179 0
158 179 0
162 183 0
158 179 0
165 187 0
164 185 0
165 186 0
163 184 0
168 189 0
181 201 125
181 200 135
166 187 57
162 184 0
154 175 0
156 178 0
162 183 0
158 180 0
163 184 0
153 174 0
155 177 0
161 183 0
160 181 0
164 185 0
158 179 0
162 183 0
154 176 0
156 177 0
145 167 0
154 176 0
158 180 0
156 177 0
162 183 0
153 175 0
158 180 0
153 174 0
154 176 0
146 168 0
152 173 0
148 170 0
159 181 0
155 176 0
147 168 0
146 168 0
150 171 0
152 173 0
139 161 0
151 173 0
150 171 0
141 162 0
146 168 0
149 170 0
136 157 0
140 161 0
138 160 0
140 161 0
140 160 0
141 163 0
129 149 0
136 155 0
131 151 0
131 151 0
133 154 0
129 149 0
117 136 0
128 147 0
127 146 0
122 142 0
126 146 0
110 129 0
128 147 0
121 140 0
127 146 0
114 132 0
116 134 0
105 123 0
118 134 0
99 115 0
93 109 0
100 116 0
108 125 0
96 111 0
70 85 0
91 107 0
84 99 0
72 86 0
78 92 0
73 85 0
80 93 0
61 74 0
73 86 0
55 65 0
65 75 0
67 78 0
54 63 0
69 79 0
58 67 0
59 68 0
57 67 0
47 56 0
47 57 18
58 65 0
57 67 18
68 77 0
54 64 0
55 62 0
38 47 0
45 53 0
56 65 0
63 71 0
66 75 0
73 84 0
59 69 0
52 62 0
50 59 0
88 97 0
65 73 0
80 91 0
66 77 0
73 85 0
83 95 0
83 95 0
81 92 0
71 82 0
86 96 0
84 95 0
87 99 0
85 95 0
109 120 0
91 103 0
91 104 0
97 110 0
93 105 0
105 119 0
99 109 0
102 114 0
103 116 0
116 127 0
112 122 0
103 114 0
92 103 0
107 119 0
104 118 0
109 123 0
110 124 0
108 120 0
123 137 0
113 126 0
115 129 0
110 123 0
117 129 0
122 134 0
117 129 0
113 123 0
126 137 0
115 128 0
111 124 0
115 127 0
112 121 0
120 133 0
119 132 0
124 136 0
117 128 0
108 120 0
124 135 0
108 116 0
119 128 0
112 121 0
109 119 0
120 129 0
105 111 0
116 120 0
114 120 0
120 125 0
116 120 0
122 128 0
114 120 0
107 114 0
115 121 0
109 115 0
117 122 0
103 105 0
117 118 0
106 107 0
99 102 0
109 111 0
113 112 0
94 91 0
99 96 0
105 103 0
109 107 0
106 103 0
79 75 0
72 65 11
78 69 0
76 66 14
80 71 0
90 83 0
86 80 0
80 71 0
81 74 0
97 89 0
95 85 0
99 90 0
90 84 0
100 93 0
98 90 0
105 100 0
93 87 0
109 100 0
98 90 0
101 91 0
107 101 0
107 100 0
104 98 0
110 105 0
111 102 0
105 98 0
111 104 11
117 111 0
108 101 0
113 104 0
108 103 0
108 102 0
101 93 0
113 107 0
102 95 0
101 94 0
111 104 0
112 106 11
112 106 11
114 106 11
119 112 0
112 106 11
117 111 11
125 118 22
113 109 16
117 111 22
128 121 22
126 119 22
113 107 11
120 114 11
117 110 25
130 122 22
114 106 25
121 116 19
120 113 25
117 110 19
122 116 30
122 115 22
124 118 22
127 120 25
127 120 28
117 109 19
124 119 22
128 121 28
120 115 16
126 120 22
127 120 19
128 121 30
119 114 28
133 125 32
118 112 25
118 110 16
126 121 28
129 120 34
123 116 28
130 122 28
123 117 30
123 116 30
129 122 28
123 116 36
132 125 32
129 122 36
130 124 28
122 116 32
139 131 39
124 119 32
128 120 30
125 119 28
119 113 30
131 124 52
125 120 37
116 109 30
127 119 37
130 123 41
132 125 39
133 126 39
122 115 36
125 120 34
120 114 32
122 114 37
125 119 34
128 121 45
125 119 30
130 123 42
124 117 45
132 124 39
127 121 39
111 105 28
118 113 44
127 120 39
173 197 0
174 197 0
172 196 0
174 197 0
173 197 0
171 194 0
172 196 0
172 195 0
174 197 0
172 195 0
174 197 0
174 197 0
175 197 0
174 197 0
170 193 0
173 196 0
170 194 0
172 195 0
174 197 0
174 197 0
174 196 0
174 197 0
169 192 0
173 195 0
174 196 0
171 194 0
175 198 0
170 193 0
170 193 0
170 192 0
174 197 0
172 195 0
176 199 0
169 192 0
173 196 0
172 195 0
171 194 0
174 196 0
172 194 0
172 194 0
172 194 0
170 193 0
171 194 0
174 196 0
171 193 0
172 194 0
170 192 0
173 196 0
169 192 0
170 192 0
170 192 0
174 196 0
174 195 0
170 191 0
176 197 0
168 190 0
171 193 0
173 196 0
174 196 0
171 192 0
174 196 0
170 192 0
169 192 0
171 193 0
164 186 0
171 193 0
167 189 0
166 187 0
173 194 0
170 191 0
169 190 0
169 190 0
172 193 0
167 189 0
167 189 0
172 194 0
166 187 0
167 189 0
171 192 0
163 184 0
167 188 0
166 187 0
167 188 0
167 189 0
172 193 0
166 187 0
165 186 0
168 188 0
166 188 0
161 181 0
169 190 0
166 187 0
165 187 0
169 189 0
159 180 0
162 183 0
168 189 0
160 181 0
164 185 0
163 184 0
168 187 0
164 186 0
162 183 0
162 183 0
166 187 0
173 194 25
186 205 122
177 197 117
167 188 57
163 185 0
162 183 0
156 177 0
163 184 0
168 189 0
166 186 0
160 181 0
162 185 0
158 179 0
160 181 0
155 175 0
158 180 0
157 179 0
155 176 0
155 175 0
155 176 0
147 169 0
158 179 0
149 169 0
159 180 0
163 184 0
152 174 0
160 181 0
152 173 0
152 174 0
159 180 0
160 181 0
142 164 0
156 177 0
146 168 0
140 161 0
156 178 0
153 174 0
145 166 0
154 175 0
143 165 0
139 160 0
142 164 0
145 166 0
151 173 0
139 159 0
129 150 0
135 157 0
150 171 0
147 168 0
140 161 0
140 161 0
139 160 0
138 158 0
127 147 0
126 146 0
122 141 0
134 154 0
123 142 0
119 137 0
122 141 0
136 155 0
107 125 0
122 140 0
117 136 0
123 141 0
116 134 0
111 128 0
101 118 0
97 115 0
115 132 0
97 113 0
110 126 0
107 123 0
99 114 0
98 114 0
93 109 0
98 113 0
81 96 0
93 108 0
83 98 0
80 92 0
91 104 0
76 88 0
65 77 0
69 81 0
54 65 0
73 86 0
79 91 0
76 86 0
71 81 0
54 65 0
60 72 0
65 75 0
61 70 0
63 73 0
57 67 0
58 68 0
70 80 0
69 79 0
64 75 0
69 79 0
80 89 0
75 83 0
60 71 0
71 81 0
76 87 0
66 77 0
69 80 0
71 83 0
74 85 0
63 74 0
78 88 0
89 100 0
77 89 0
83 93 0
86 97 0
84 93 0
87 98 0
77 90 0
86 98 0
83 95 0
73 85 0
93 107 0
92 103 0
90 103 0
105 118 0
95 107 0
94 104 0
100 112 0
107 119 0
108 121 0
104 117 0
110 123 0
110 123 0
111 125 0
108 120 0
118 130 0
109 119 0
93 104 0
126 139 0
110 121 0
112 123 0
128 142 0
121 135 0
119 129 0
112 125 0
114 126 0
117 131 0
128 142 0
114 127 0
118 132 0
111 123 0
109 119 0
118 128 0
116 124 0
114 122 0
110 120 0
107 116 0
115 125 0
114 121 0
119 130 0
117 123 0
114 124 0
120 129 0
115 122 0
116 121 0
118 125 0
108 108 0
114 121 0
122 127 0
114 119 0
105 110 0
115 120 0
109 113 0
121 122 0
100 100 0
97 97 0
103 105 0
96 97 0
107 106 0
94 93 0
103 101 0
97 98 0
99 97 0
102 99 0
96 94 0
99 96 0
84 78 0
72 65 11
80 69 0
81 71 0
88 79 0
77 69 11
86 79 0
85 77 0
94 86 0
88 80 0
93 86 0
95 87 0
92 84 0
95 88 0
86 76 0
88 82 0
110 103 0
101 96 0
101 95 0
94 87 0
107 99 0
105 97 0
104 96 0
106 98 0
107 100 0
103 95 0
115 109 0
106 99 11
110 102 0
111 103 0
100 94 0
115 106 11
112 105 11
113 105 0
111 104 0
111 104 0
118 110 11
114 106 11
121 115 16
117 110 0
132 125 16
115 108 11
118 114 11
113 107 19
116 108 11
115 108 22
115 108 11
121 116 11
116 110 25
118 111 28
119 111 16
118 111 0
126 120 11
119 112 19
120 112 30
127 120 19
111 105 11
125 117 19
124 117 11
133 125 32
115 110 16
125 120 30
125 118 25
132 122 28
121 114 25
120 114 28
125 119 19
129 124 28
119 111 11
128 122 32
124 118 22
128 120 36
122 116 28
126 120 25
118 113 22
117 109 22
124 117 30
128 121 34
133 127 30
125 118 25
127 120 28
122 117 30
128 121 28
123 117 28
123 116 34
125 119 28
126 119 30
118 112 32
121 115 28
117 111 25
113 108 36
128 122 34
130 123 44
122 115 30
131 123 39
125 120 32
121 115 32
125 120 37
118 112 25
124 117 44
117 111 34
127 121 37
121 115 37
125 117 39
116 109 41
117 111 36
126 120 32
120 114 39
175 198 0
174 197 0
173 197 0
174 197 0
175 198 0
173 196 0
170 193 0
170 194 0
172 196 0
173 196 0
172 195 0
176 198 0
171 194 0
176 198 0
174 197 0
171 194 0
172 196 0
173 197 0
173 196 0
173 196 0
175 197 0
173 196 0
176 198 0
172 195 0
175 197 0
172 195 0
172 194 0
172 194 0
172 195 0
174 197 0
174 196 0
172 194 0
174 196 0
173 195 0
174 197 0
175 196 0
174 196 0
171 194 0
171 193 0
173 195 0
172 195 0
172 194 0
173 195 0
173 195 0
167 189 0
171 193 0
172 193 0
172 194 0
169 191 0
172 194 0
173 196 0
172 194 0
168 190 0
170 192 0
173 194 0
171 193 0
169 190 0
164 185 0
170 192 0
170 191 0
174 195 0
166 188 0
169 191 0
173 195 0
169 191 0
167 187 0
171 192 0
172 193 0
168 190 0
170 192 0
170 190 0
167 189 0
167 189 0
168 189 0
168 190 0
166 187 0
169 190 0
161 182 0
168 189 0
162 184 0
167 189 0
166 188 0
164 185 0
167 188 0
167 188 0
166 187 0
167 188 0
163 184 0
165 186 0
157 178 0
164 185 0
165 186 0
167 187 0
163 184 0
168 189 0
170 191 0
166 186 0
162 183 0
165 187 0
164 185 0
167 188 0
168 189 0
166 188 0
179 199 88
183 202 137
179 199 114
160 181 36
162 182 0
165 186 0
163 185 0
168 188 0
161 181 0
165 187 0
160 181 0
161 183 0
154 175 0
156 179 0
156 177 0
152 173 0
153 175 0
152 173 0
161 183 0
156 177 0
161 182 0
157 178 0
166 186 0
155 177 0
160 181 0
153 174 0
152 173 0
149 171 0
150 171 0
154 175 0
150 172 0
154 176 0
153 175 0
153 175 0
152 175 0
150 172 0
144 165 0
149 171 0
145 165 0
151 172 0
145 166 0
159 180 0
154 175 0
140 161 0
139 161 0
146 168 0
141 162 0
139 160 0
143 164 0
138 159 0
143 163 0
144 165 0
137 156 0
135 155 0
136 157 0
142 163 0
134 154 0
133 154 0
130 149 0
131 150 0
121 141 0
140 159 0
129 148 0
125 143 0
127 146 0
131 150 0
122 141 0
117 136 0
117 134 0
106 123 0
108 125 0
111 129 0
103 120 0
92 109 0
105 122 0
89 106 0
86 103 0
92 108 0
86 101 0
95 109 0
100 114 0
89 104 0
82 97 0
86 99 0
81 95 0
81 96 0
79 93 0
83 94 0
87 99 0
73 85 0
76 88 0
69 80 0
69 80 0
59 71 0
64 74 0
58 68 0
70 81 0
79 90 0
59 70 0
61 72 0
65 76 0
72 83 0
66 77 0
72 83 0
75 85 0
64 75 0
68 80 0
68 80 0
70 80 0
63 74 0
78 89 0
66 77 0
78 91 0
86 99 0
102 114 0
84 97 0
89 101 0
89 101 0
101 113 0
93 105 0
92 105 0
101 113 0
79 92 0
105 117 0
88 99 0
104 116 0
96 108 0
96 109 0
117 131 0
90 103 0
113 126 0
108 119 0
105 119 0
107 119 0
104 119 0
107 119 0
106 117 0
104 116 0
109 121 0
113 125 0
118 132 0
113 126 0
114 126 0
110 124 0
107 119 0
118 133 0
120 133 0
116 129 0
116 128 0
111 123 0
123 137 0
130 143 0
120 134 0
118 130 0
120 132 0
127 141 0
117 128 0
122 134 0
125 137 0
111 121 0
116 123 0
109 117 0
122 131 0
100 109 0
126 136 0
127 137 0
119 127 0
123 127 0
110 115 0
110 117 0
111 118 0
111 117 0
108 115 0
111 115 0
112 116 0
103 105 0
102 107 0
111 114 0
112 114 0
96 96 0
105 108 0
113 116 0
99 100 0
94 92 0
108 106 0
94 92 0
100 99 0
94 88 0
96 90 0
94 92 0
91 89 0
77 71 0
77 66 16
82 72 16
76 66 0
85 75 0
91 82 0
92 82 0
80 70 0
93 83 0
81 74 0
94 84 0
95 87 0
97 87 0
91 83 0
99 91 0
103 95 0
95 88 0
94 89 0
99 93 0
102 95 0
106 98 0
99 90 0
106 98 0
110 100 0
115 106 0
105 100 0
106 98 0
111 103 0
104 96 16
108 103 0
117 108 19
108 100 0
101 96 11
115 108 11
104 98 0
108 101 0
120 112 19
109 102 11
112 105 0
115 108 11
116 109 16
121 115 16
120 112 11
113 108 19
123 114 0
125 116 11
121 113 16
108 101 16
123 117 0
115 109 0
116 109 19
120 113 16
114 108 22
115 110 11
127 119 30
122 114 22
119 111 22
118 110 19
124 117 30
124 117 16
126 121 22
124 117 25
127 121 16
121 115 25
128 122 19
124 116 28
124 119 32
127 122 22
126 119 19
114 107 22
126 119 16
129 122 22
123 115 32
122 116 22
117 110 16
125 119 28
122 115 32
127 120 34
127 120 32
126 121 34
127 120 30
125 118 34
123 116 32
120 115 25
122 117 19
124 118 28
128 122 36
123 117 25
118 111 25
123 117 32
124 117 32
128 121 39
119 112 25
127 120 34
127 121 32
125 119 41
121 115 37
121 113 37
127 122 34
124 119 41
133 126 41
125 118 45
114 109 42
129 122 42
123 116 45
116 109 39
189 209 133
173 197 0
173 197 0
171 195 0
172 196 0
174 197 0
174 197 0
173 196 0
171 194 0
172 196 0
171 195 0
173 196 0
172 195 0
173 197 0
172 195 0
171 194 0
172 196 0
175 197 0
172 196 0
174 197 0
174 196 0
172 194 0
174 198 0
171 194 0
174 196 0
172 195 0
172 194 0
171 194 0
174 196 0
173 195 0
173 195 0
168 192 0
172 194 0
172 195 0
171 194 0
172 195 0
174 196 0
173 196 0
170 192 0
175 197 0
171 193 0
169 191 0
174 195 0
169 192 0
173 194 0
171 192 0
173 195 0
167 189 0
173 194 0
173 195 0
171 192 0
174 196 0
171 193 0
171 193 0
173 194 0
176 198 0
173 194 0
168 190 0
172 193 0
172 194 0
170 192 0
173 195 0
169 190 0
171 193 0
165 187 0
169 190 0
163 184 0
175 195 0
168 190 0
170 191 0
164 184 0
170 191 0
168 189 0
170 192 0
172 192 0
173 194 0
172 192 0
172 193 0
167 187 0
168 189 0
164 185 0
170 190 0
170 191 0
171 192 0
168 190 0
169 190 0
165 186 0
167 188 0
165 185 0
163 184 0
167 188 0
163 184 0
161 182 0
167 186 0
167 188 0
170 191 0
168 189 0
162 184 0
169 190 0
166 186 0
167 188 0
173 193 95
181 200 128
174 194 108
163 184 0
163 184 0
159 181 0
164 185 0
165 187 0
153 175 0
171 192 0
159 180 0
167 189 0
162 182 0
159 180 0
163 184 0
162 184 0
153 175 0
155 178 0
155 176 0
160 181 0
153 174 0
153 175 0
153 175 0
151 173 0
160 181 0
156 176 0
153 175 0
153 175 0
158 180 0
157 179 0
157 179 0
151 173 0
156 177 0
152 174 0
155 176 0
145 166 0
143 164 0
148 170 0
146 168 0
144 165 0
154 176 0
149 170 0
140 161 0
140 161 0
146 168 0
141 162 0
144 165 0
134 154 0
149 171 0
146 168 0
130 150 0
126 146 0
149 170 0
139 160 0
133 154 0
140 160 0
131 152 0
132 152 0
141 162 0
136 157 0
119 139 0
130 149 0
132 152 0
126 146 0
136 155 0
129 149 0
122 141 0
107 125 0
116 134 0
116 133 0
110 128 0
113 131 0
110 128 0
120 138 0
106 124 0
102 119 0
99 116 0
98 115 0
88 105 0
104 120 0
103 120 0
90 105 0
95 110 0
94 109 0
93 109 0
79 92 0
93 107 0
98 113 0
98 113 0
87 100 0
76 90 0
88 101 0
80 92 0
63 75 0
73 84 0
92 104 0
76 88 0
85 98 0
82 97 0
92 104 0
71 83 0
77 88 0
70 81 0
96 108 0
82 94 0
84 96 0
86 98 0
74 87 0
71 83 0
70 82 0
70 83 0
84 94 0
81 92 0
84 98 0
83 95 0
96 109 0
90 102 0
77 89 0
93 107 0
94 106 0
88 101 0
98 112 0
91 105 0
86 98 0
104 116 0
98 109 0
91 103 0
102 116 0
103 116 0
106 119 0
105 119 0
110 124 0
118 129 0
101 115 0
104 119 0
108 121 0
119 132 0
118 131 0
124 137 0
104 118 0
102 114 0
103 117 0
110 122 0
98 111 0
115 128 0
112 127 0
123 138 0
109 121 0
104 118 0
114 126 0
107 120 0
116 127 0
131 141 0
113 124 0
120 132 0
115 128 0
109 120 0
118 128 0
113 123 0
122 133 0
119 130 0
107 117 0
120 129 0
117 125 0
124 134 0
119 129 0
109 119 0
117 126 0
112 119 0
111 117 0
115 122 0
113 121 0
115 122 0
104 109 0
113 116 0
110 115 0
119 126 0
95 98 0
112 116 0
121 128 0
105 110 0
105 108 0
105 107 0
109 112 0
105 102 0
100 100 0
103 104 0
108 107 0
85 80 0
104 104 0
104 103 0
94 92 0
92 89 0
95 92 0
96 91 0
83 78 0
82 79 11
86 78 11
79 71 0
82 75 0
91 83 0
83 74 0
80 72 0
90 80 0
102 93 0
93 85 0
93 87 0
91 83 0
97 88 0
94 86 0
99 92 0
99 92 0
99 89 0
89 82 0
100 91 0
107 97 0
108 101 0
103 96 0
108 100 0
104 95 0
108 99 0
116 110 0
101 95 0
109 101 0
115 108 0
110 103 0
104 94 0
118 111 0
110 102 0
114 107 0
107 101 0
116 109 0
118 112 0
111 105 0
119 112 19
114 107 0
117 111 16
105 93 0
117 110 0
111 103 11
119 112 11
115 107 16
116 110 25
119 113 16
112 105 0
117 109 19
127 120 22
123 116 25
127 120 19
114 106 22
124 118 25
124 117 22
126 119 22
123 116 22
122 115 32
118 111 19
126 118 22
117 110 16
122 115 28
119 110 32
126 118 30
119 113 16
119 112 25
125 118 32
124 115 19
121 113 19
124 117 34
119 112 32
119 113 25
113 106 25
114 107 19
119 111 34
128 120 19
122 114 30
127 120 25
124 116 36
124 116 34
119 112 34
121 113 25
125 118 32
118 112 28
122 115 30
126 120 25
116 109 30
126 118 36
105 99 22
109 103 28
122 115 32
116 111 28
122 116 47
125 120 39
118 112 36
120 114 34
120 114 39
117 111 30
120 114 36
105 99 22
118 113 25
108 103 30
211 227 223
216 231 236
199 217 179
181 203 88
176 198 0
172 195 0
174 197 0
174 197 0
175 198 0
174 197 0
172 195 0
174 197 0
172 196 0
173 196 0
173 197 0
171 194 0
172 196 0
172 196 0
173 196 0
173 196 0
173 196 0
172 195 0
171 195 0
173 196 0
172 195 0
174 197 0
173 196 0
173 195 0
174 196 0
174 197 0
171 193 0
172 194 0
171 193 0
174 196 0
173 194 0
175 198 0
171 193 0
172 194 0
174 195 0
171 192 0
170 193 0
177 199 0
173 195 0
171 193 0
175 196 0
172 193 0
176 198 0
172 194 0
174 195 0
169 191 0
174 195 0
170 193 0
171 192 0
166 189 0
171 194 0
173 195 0
174 196 0
170 192 0
174 195 0
174 196 0
173 194 0
171 193 0
169 190 0
169 190 0
172 193 0
170 192 0
173 194 0
170 191 0
170 191 0
170 190 0
168 188 0
169 190 0
175 196 0
172 194 0
171 192 0
166 187 0
165 186 0
160 181 0
171 192 0
173 194 0
167 188 0
174 194 0
169 190 0
167 187 0
171 191 0
162 184 0
168 189 0
166 186 0
164 186 0
171 192 0
169 189 0
168 189 0
168 189 0
162 183 0
165 186 0
161 183 0
167 189 0
165 186 0
175 195 84
176 197 99
178 197 133
172 192 84
166 187 0
161 182 0
163 184 0
169 188 0
159 181 0
165 185 0
162 184 0
159 180 0
154 176 0
154 175 0
164 186 0
156 177 0
164 186 0
157 179 0
160 182 0
155 177 0
159 179 0
156 177 0
154 175 0
151 172 0
150 171 0
159 181 0
153 174 0
153 174 0
149 170 0
158 180 0
150 172 0
148 169 0
155 177 0
154 176 0
160 182 0
152 174 0
155 177 0
157 179 0
155 176 0
155 176 0
154 175 0
154 175 0
156 177 0
149 170 0
141 162 0
138 160 0
136 159 0
144 166 0
152 173 0
143 163 0
142 163 0
136 156 0
146 168 0
146 168 0
138 159 0
137 157 0
141 162 0
136 157 0
141 163 0
127 148 0
138 159 0
134 154 0
136 156 0
126 146 0
131 150 0
132 151 0
137 157 0
118 136 0
127 147 0
120 139 0
130 148 0
115 134 0
120 139 0
126 144 0
122 140 0
118 136 0
99 117 0
102 120 0
113 131 0
101 118 0
111 128 0
108 125 0
107 124 0
93 110 0
97 113 0
99 114 0
108 125 0
105 122 0
79 94 0
108 123 0
89 105 0
80 95 0
90 104 0
95 109 0
90 104 0
87 101 0
95 109 0
100 114 0
82 96 0
77 90 0
91 105 0
76 89 0
77 91 0
94 107 0
75 85 0
82 93 0
82 94 0
75 87 0
82 96 0
73 85 0
78 91 0
77 90 0
86 98 0
81 94 0
99 112 0
85 97 0
79 90 0
94 107 0
98 110 0
97 111 0
81 95 0
98 110 0
94 108 0
100 115 0
91 102 0
99 110 0
102 114 0
108 122 0
105 119 0
83 94 0
90 102 0
102 115 0
99 112 0
97 110 0
101 114 0
112 125 0
112 125 0
111 124 0
104 117 0
109 121 0
107 120 0
105 119 0
113 127 0
112 126 0
107 119 0
121 134 0
120 135 0
118 132 0
104 117 0
111 123 0
121 133 0
108 121 0
108 123 0
115 128 0
118 132 0
118 132 0
117 129 0
124 138 0
118 130 0
118 128 0
111 123 0
117 131 0
113 121 0
118 129 0
116 126 0
115 124 0
113 120 0
125 133 0
108 117 0
119 129 0
113 123 0
116 125 0
107 114 0
129 138 0
111 118 0
134 140 0
119 125 0
118 125 0
113 117 0
112 116 0
117 125 0
111 116 0
124 128 0
112 113 0
92 93 0
97 98 0
107 107 0
121 122 0
100 100 0
105 105 0
101 102 0
95 95 0
90 88 0
96 91 0
97 93 0
97 95 0
87 80 0
84 82 0
85 81 0
84 75 0
69 66 0
87 81 11
73 66 0
80 73 0
79 70 11
84 76 0
84 73 0
78 68 0
74 64 0
79 71 0
87 77 0
99 91 0
97 90 0
91 82 0
92 82 0
103 94 0
99 91 0
92 85 0
104 95 0
111 103 0
98 91 0
100 92 11
102 95 0
102 95 11
103 93 0
108 101 0
101 94 0
109 101 0
110 103 0
107 102 11
117 109 16
107 98 0
107 100 0
115 109 0
104 96 0
108 102 0
110 102 16
113 107 16
113 105 0
122 115 11
117 109 0
118 113 11
122 114 16
113 106 0
112 105 11
123 116 11
110 103 0
114 107 19
122 114 22
121 116 11
116 109 19
123 116 25
116 109 11
125 119 19
117 110 28
124 118 11
120 114 16
125 116 16
123 117 28
127 119 25
120 113 25
124 117 22
120 112 11
122 114 19
119 112 19
116 111 22
113 106 19
119 113 19
119 114 22
121 114 22
115 107 28
126 118 36
113 107 22
125 117 34
122 116 32
118 111 28
120 114 28
121 115 16
132 125 32
121 115 36
128 122 37
119 112 34
123 116 34
122 118 30
119 113 30
121 116 28
131 123 34
124 117 41
125 119 34
110 104 28
122 116 30
114 106 25
121 116 37
118 112 34
116 110 32
122 114 45
116 110 37
127 120 39
120 115 42
121 114 36
114 107 34
126 126 34
175 198 0
179 202 88
197 216 177
214 230 236
206 223 206
195 214 159
179 201 62
173 197 0
173 197 0
171 194 0
176 199 0
176 198 0
173 197 0
172 196 0
173 196 0
174 196 0
173 196 0
171 195 0
172 196 0
173 196 0
173 196 0
173 194 0
172 195 0
175 197 0
172 196 0
173 196 0
171 194 0
173 196 0
173 196 0
173 196 0
176 198 0
173 195 0
175 197 0
173 196 0
173 196 0
171 193 0
175 197 0
169 192 0
171 194 0
175 197 0
173 195 0
175 197 0
174 196 0
173 195 0
173 195 0
176 197 0
173 195 0
171 193 0
175 196 0
172 193 0
171 193 0
171 193 0
175 196 0
173 195 0
174 196 0
169 190 0
171 193 0
170 191 0
173 195 0
170 191 0
170 191 0
175 197 0
170 191 0
175 196 0
172 193 0
172 193 0
175 195 0
167 188 0
168 189 0
171 192 0
167 187 0
169 191 0
172 193 0
170 191 0
165 186 0
169 190 0
168 189 0
170 191 0
163 183 0
167 189 0
170 191 0
169 189 0
168 190 0
167 187 0
165 186 0
170 191 0
172 193 0
166 187 0
165 185 0
166 188 0
166 187 0
166 187 0
167 188 0
167 188 0
165 185 0
165 186 44
186 205 133
181 200 130
173 194 76
162 183 0
165 186 0
163 184 0
166 186 0
158 180 0
164 185 0
165 185 0
159 181 0
163 186 0
164 185 0
164 185 0
162 183 0
153 173 0
150 171 0
157 179 0
157 177 0
160 183 0
154 175 0
158 179 0
153 175 0
154 176 0
159 180 0
157 178 0
150 172 0
158 179 0
156 178 0
159 180 0
156 177 0
156 179 0
154 176 0
154 176 0
159 181 0
156 177 0
151 173 0
146 168 0
147 168 0
153 175 0
147 168 0
154 176 0
144 165 0
141 162 0
143 164 0
149 171 0
145 166 0
152 173 0
139 160 0
146 166 0
140 161 0
145 166 0
146 166 0
144 165 0
144 165 0
145 165 0
137 158 0
142 162 0
135 156 0
135 156 0
133 154 0
141 162 0
140 160 0
127 148 0
125 146 0
124 145 0
124 144 0
129 149 0
124 144 0
116 135 0
111 131 0
123 142 0
117 137 0
133 153 0
118 137 0
119 138 0
114 133 0
118 137 0
120 138 0
111 128 0
121 141 0
121 139 0
107 125 0
111 129 0
98 114 0
98 115 0
100 117 0
99 114 0
89 105 0
86 101 0
98 113 0
100 115 0
96 114 0
85 100 0
90 105 0
96 111 0
84 99 0
95 109 0
96 111 0
86 99 0
92 105 0
90 102 0
83 98 0
100 115 0
79 93 0
74 88 0
90 103 0
75 87 0
88 101 0
92 106 0
93 106 0
87 101 0
81 94 0
91 104 0
101 114 0
95 108 0
86 98 0
90 104 0
86 99 0
89 102 0
82 95 0
91 104 0
106 120 0
92 107 0
100 113 0
101 114 0
106 119 0
105 118 0
100 114 0
98 110 0
102 116 0
114 127 0
103 118 0
102 115 0
111 125 0
106 119 0
105 121 0
122 137 0
108 121 0
126 139 0
117 132 0
105 119 0
109 124 0
112 125 0
118 131 0
125 139 0
114 127 0
104 118 0
114 126 0
116 131 0
116 131 0
121 134 0
120 133 0
122 135 0
117 129 0
127 141 0
123 134 0
113 127 0
120 135 0
127 140 0
124 138 0
124 135 0
114 127 0
120 133 0
113 124 0
121 133 0
120 131 0
118 133 0
117 129 0
106 115 0
118 129 0
116 127 0
117 127 0
116 125 0
123 131 0
116 127 0
122 129 0
116 127 0
114 121 0
123 130 0
120 127 0
109 114 0
120 128 0
119 126 0
112 115 0
118 126 0
115 119 0
120 126 0
108 109 0
118 121 0
114 117 0
103 105 0
109 112 0
97 97 0
98 98 0
89 90 0
93 91 0
95 93 0
92 88 0
96 91 0
87 85 0
76 73 0
72 71 0
79 76 0
89 86 0
66 59 0
73 63 0
75 68 0
58 51 0
85 75 0
76 68 0
87 77 0
88 77 0
95 86 0
91 81 0
83 75 0
95 86 0
96 89 0
103 95 0
97 89 0
91 82 0
100 92 0
96 88 0
99 90 0
96 88 0
99 89 11
102 95 0
113 102 0
103 95 0
99 89 0
105 98 11
101 93 0
113 104 11
109 99 0
110 102 0
109 102 11
106 99 0
120 112 16
111 102 0
110 102 11
114 106 11
112 105 0
122 115 11
119 112 16
109 103 16
112 105 11
117 110 16
113 106 19
109 104 11
109 102 19
108 100 16
115 109 11
114 106 11
112 106 11
112 104 11
123 116 22
113 105 11
113 106 19
114 108 22
120 112 19
113 105 19
120 113 16
121 114 25
115 109 30
114 107 11
119 113 22
121 114 25
125 117 22
116 107 30
128 121 34
123 115 22
121 114 19
117 110 25
128 121 39
116 109 28
113 107 22
118 111 22
123 116 30
110 104 25
123 117 37
123 115 25
126 118 37
122 115 30
127 120 32
131 123 37
118 111 30
125 119 34
118 113 28
123 115 37
120 113 30
125 118 42
119 112 45
129 121 39
112 108 30
114 109 25
116 108 28
114 106 36
115 107 39
112 107 41
117 110 41
123 121 34
143 155 19
162 177 11
170 189 0
172 196 0
173 197 0
173 196 0
172 196 0
185 206 120
202 219 196
214 230 236
211 226 217
195 214 157
176 199 57
173 197 0
175 198 0
173 196 0
172 196 0
172 196 0
172 196 0
174 197 0
173 196 0
173 197 0
172 195 0
173 196 0
173 195 0
172 195 0
174 197 0
171 193 0
173 197 0
167 190 0
173 195 0
173 196 0
175 197 0
171 194 0
172 195 0
172 195 0
174 197 0
170 192 0
171 193 0
174 196 0
174 196 0
171 193 0
171 192 0
172 194 0
174 196 0
174 196 0
172 194 0
171 193 0
175 197 0
172 193 0
174 196 0
172 194 0
172 194 0
175 196 0
174 196 0
174 195 0
173 195 0
173 195 0
173 194 0
174 195 0
169 191 0
170 192 0
173 195 0
173 193 0
172 192 0
172 192 0
176 197 0
169 190 0
170 191 0
172 193 0
171 192 0
172 193 0
171 192 0
175 195 0
174 195 0
171 191 0
172 193 0
170 191 0
169 189 0
170 192 0
167 188 0
163 184 0
169 190 0
163 184 0
164 186 0
166 188 0
164 185 0
165 186 0
170 190 0
167 188 0
169 190 0
164 185 0
165 186 0
165 186 0
167 188 0
173 194 51
182 201 117
181 200 140
170 191 95
165 186 0
160 182 0
167 188 0
164 186 0
165 185 0
162 184 0
166 187 0
167 189 0
163 185 0
165 186 0
160 181 0
160 182 0
162 182 0
165 186 0
151 173 0
153 173 0
154 175 0
160 181 0
165 186 0
163 184 0
153 174 0
158 180 0
153 174 0
154 176 0
153 174 0
159 181 0
158 180 0
161 183 0
146 168 0
154 175 0
148 169 0
145 167 0
145 166 0
150 171 0
158 180 0
153 174 0
155 176 0
149 171 0
151 173 0
148 170 0
148 170 0
152 174 0
152 174 0
152 173 0
146 167 0
148 169 0
149 171 0
141 162 0
139 160 0
144 166 0
141 163 0
143 164 0
140 161 0
144 166 0
143 163 0
140 161 0
143 164 0
141 161 0
144 164 0
125 145 0
134 155 0
138 158 0
135 156 0
138 159 0
129 148 0
129 149 0
119 139 0
127 147 0
137 157 0
129 149 0
117 137 0
122 142 0
130 148 0
117 136 0
120 138 0
114 132 0
113 131 0
125 143 0
115 133 0
112 131 0
107 124 0
121 139 0
101 117 0
106 123 0
117 134 0
101 117 0
104 121 0
114 130 0
105 122 0
101 117 0
98 114 0
101 118 0
99 115 0
96 112 0
101 117 0
103 119 0
94 108 0
87 101 0
88 104 0
105 121 0
98 115 0
93 108 0
87 101 0
88 105 0
87 98 0
88 103 0
99 115 0
91 104 0
94 108 0
81 95 0
103 116 0
92 107 0
90 104 0
86 100 0
91 107 0
100 112 0
99 112 0
84 98 0
103 117 0
100 114 0
90 102 0
88 102 0
82 94 0
104 119 0
101 114 0
93 108 0
97 110 0
104 117 0
105 118 0
106 121 0
108 121 0
114 126 0
109 123 0
106 122 0
114 128 0
101 113 0
105 118 0
106 119 0
111 125 0
109 124 0
117 129 0
106 118 0
111 126 0
114 130 0
100 115 0
101 114 0
113 128 0
120 134 0
129 144 0
114 127 0
126 139 0
126 138 0
119 133 0
118 133 0
122 135 0
121 133 0
120 133 0
114 126 0
117 130 0
106 119 0
119 132 0
122 136 0
124 137 0
120 130 0
120 133 0
136 149 0
118 128 0
127 136 0
131 143 0
126 138 0
129 138 0
120 132 0
120 130 0
119 129 0
108 118 0
123 131 0
125 135 0
107 116 0
123 129 0
121 130 0
125 132 0
117 123 0
109 113 0
116 122 0
115 120 0
98 103 0
116 117 0
119 123 0
100 103 0
109 112 0
101 99 0
113 114 0
103 104 0
100 101 0
107 109 0
114 114 0
114 112 0
104 106 0
101 95 0
106 105 0
93 89 0
91 87 0
93 89 0
90 85 0
92 88 0
82 74 0
88 80 0
74 68 0
72 65 0
63 56 0
59 50 0
82 70 0
81 73 0
72 65 0
91 80 0
72 65 0
87 77 0
94 85 0
82 76 0
97 87 0
93 81 11
96 88 0
109 100 0
103 94 0
96 86 0
96 87 0
106 96 0
99 90 0
99 92 0
106 96 0
110 102 0
100 89 11
89 79 0
103 96 0
110 100 11
103 93 11
112 104 16
111 102 11
110 101 11
113 105 0
103 95 0
109 99 11
116 109 11
110 101 0
108 101 0
107 99 16
103 95 0
112 105 22
111 104 11
104 96 16
100 93 19
116 108 22
115 108 11
118 109 30
117 108 16
106 100 19
109 102 25
105 97 25
114 107 19
111 104 0
105 96 16
108 103 19
117 110 22
119 112 19
112 103 25
109 103 19
112 106 19
123 115 25
118 110 30
116 110 19
113 106 25
117 107 22
118 111 25
116 109 16
116 107 32
118 112 30
114 108 25
112 104 22
117 111 30
110 105 25
112 108 25
116 109 30
118 111 30
108 102 28
120 113 34
113 107 34
117 107 19
111 105 25
112 106 34
115 108 30
118 113 28
109 102 28
123 115 37
124 116 37
111 103 34
111 104 37
108 100 28
107 109 30
139 149 19
152 166 0
169 190 0
167 186 0
166 185 0
165 184 0
173 196 0
173 196 0
171 195 0
173 197 0
170 193 0
173 195 0
174 196 0
187 208 137
200 218 188
212 228 227
210 226 217
192 212 151
180 202 84
173 196 0
173 197 0
170 194 0
175 198 0
172 195 0
174 197 0
173 196 0
174 197 0
172 195 0
174 197 0
170 193 0
172 195 0
175 198 0
175 197 0
172 194 0
175 198 0
175 197 0
173 196 0
171 194 0
175 197 0
174 197 0
173 196 0
175 197 0
173 194 0
174 196 0
173 196 0
173 195 0
172 194 0
173 196 0
174 195 0
172 194 0
171 194 0
170 191 0
170 192 0
177 199 0
174 195 0
172 194 0
175 196 0
174 196 0
173 194 0
174 195 0
172 194 0
172 193 0
174 195 0
170 192 0
169 192 0
173 195 0
174 196 0
171 192 0
173 195 0
173 194 0
171 193 0
177 198 0
174 196 0
174 196 0
172 193 0
170 190 0
167 188 0
168 190 0
172 193 0
173 193 0
170 190 0
170 192 0
171 192 0
172 193 0
171 192 0
170 191 0
170 191 0
168 189 0
169 189 0
167 188 0
168 190 0
170 192 0
158 180 0
166 187 0
172 193 0
184 204 105
185 203 133
180 199 105
175 195 99
167 188 0
161 183 0
163 185 0
157 178 0
161 182 0
162 183 0
164 185 0
157 178 0
167 187 0
164 186 0
155 175 0
158 180 0
159 179 0
169 190 0
160 181 0
164 183 0
155 176 0
153 174 0
158 179 0
160 181 0
156 178 0
155 176 0
161 182 0
150 172 0
155 177 0
159 181 0
157 178 0
161 182 0
149 171 0
156 177 0
148 170 0
155 176 0
156 178 0
156 178 0
151 173 0
150 173 0
154 177 0
147 168 0
150 170 0
159 181 0
143 165 0
158 179 0
154 176 0
145 167 0
150 171 0
155 177 0
144 165 0
148 170 0
158 180 0
145 167 0
151 171 0
149 170 0
144 165 0
145 167 0
148 170 0
133 155 0
145 166 0
137 158 0
134 155 0
133 154 0
131 152 0
142 163 0
137 158 0
132 152 0
140 162 0
146 167 0
140 159 0
126 147 0
131 151 0
128 147 0
126 146 0
135 155 0
123 144 0
127 148 0
124 144 0
124 144 0
112 130 0
115 135 0
125 144 0
108 127 0
107 125 0
110 130 0
125 144 0
109 127 0
118 135 0
111 129 0
111 130 0
117 135 0
108 126 0
116 133 0
104 122 0
104 121 0
103 120 0
101 118 0
109 125 0
102 117 0
107 125 0
102 118 0
109 125 0
100 117 0
109 125 0
100 115 0
111 125 0
95 111 0
109 125 0
91 107 0
80 94 0
99 113 0
110 124 0
106 120 0
99 113 0
104 118 0
101 117 0
87 101 0
111 126 0
99 114 0
99 114 0
84 98 0
113 126 0
111 125 0
98 112 0
96 109 0
102 117 0
101 116 0
100 114 0
100 115 0
103 117 0
104 119 0
97 111 0
103 116 0
105 120 0
118 131 0
107 123 0
87 102 0
110 122 0
110 124 0
107 120 0
119 135 0
110 126 0
105 120 0
110 125 0
114 128 0
110 125 0
106 121 0
119 133 0
115 130 0
122 136 0
117 132 0
118 133 0
129 144 0
122 135 0
124 138 0
113 126 0
114 126 0
106 121 0
119 133 0
123 140 0
123 138 0
125 137 0
119 131 0
122 134 0
122 136 0
126 139 0
113 125 0
117 131 0
120 133 0
121 134 0
124 137 0
126 139 0
130 142 0
120 133 0
132 145 0
119 129 0
116 126 0
129 139 0
119 129 0
110 121 0
127 140 0
125 137 0
124 133 0
116 123 0
123 131 0
120 129 0
122 129 0
127 138 0
118 121 0
120 126 0
112 119 0
117 124 0
111 114 0
118 121 0
104 106 0
113 117 0
121 124 0
110 110 0
112 117 0
104 105 0
108 109 0
102 105 0
112 113 0
100 99 0
113 113 0
113 112 0
99 95 0
86 82 0
98 95 0
102 100 0
91 89 0
91 85 0
97 95 0
85 80 0
87 78 0
86 79 0
72 63 0
67 62 0
63 55 0
75 66 0
64 56 0
84 77 0
77 66 0
82 72 0
75 64 0
94 86 0
72 64 0
94 83 0
85 78 0
89 81 0
86 79 0
104 94 0
101 92 0
83 74 0
99 90 0
108 98 11
103 92 0
112 103 0
105 94 0
102 93 0
102 94 0
102 92 0
102 94 0
102 94 16
101 91 0
111 101 0
101 94 11
97 89 16
110 103 0
115 106 11
116 109 19
110 104 0
114 105 19
113 105 19
111 104 11
113 105 19
112 104 11
115 106 16
109 102 16
111 106 0
104 98 19
113 106 16
120 112 28
116 109 19
102 97 16
110 102 16
115 105 16
109 101 25
116 110 22
116 107 25
113 105 28
111 105 22
110 101 28
110 102 22
114 106 25
121 114 30
117 111 11
120 112 30
107 101 0
121 113 22
115 108 28
120 111 30
122 114 28
119 111 34
108 102 19
108 101 22
113 106 19
107 100 28
111 102 30
119 112 37
118 111 34
118 112 32
108 101 25
119 111 39
121 115 34
109 103 32
109 103 28
116 108 28
116 109 39
108 101 30
112 109 32
143 152 28
165 183 11
168 186 0
166 185 0
164 183 0
166 186 0
164 182 0
165 186 0
170 189 0
172 196 0
174 197 0
172 196 0
174 198 0
172 196 0
173 196 0
172 195 0
173 197 0
175 198 0
172 196 0
175 198 62
189 209 157
198 216 186
208 225 215
202 220 188
190 210 142
176 199 62
174 198 0
172 196 0
172 196 0
173 197 0
172 196 0
173 197 0
173 196 0
173 196 0
173 197 0
172 196 0
172 196 0
173 196 0
176 198 0
174 196 0
171 194 0
175 197 0
174 196 0
175 197 0
174 196 0
170 192 0
174 196 0
172 194 0
175 196 0
175 197 0
173 195 0
174 196 0
174 197 0
169 192 0
170 193 0
178 200 0
171 193 0
170 192 0
175 197 0
174 196 0
172 193 0
171 193 0
173 193 0
173 194 0
173 194 0
172 193 0
174 195 0
174 195 0
174 196 0
171 192 0
174 195 0
172 193 0
168 189 0
172 193 0
169 190 0
172 193 0
174 195 0
171 191 0
168 189 0
169 189 0
171 192 0
170 191 0
170 191 0
172 192 0
169 190 0
169 191 0
171 192 0
171 191 0
173 194 0
164 185 0
170 192 0
170 190 0
171 192 0
168 189 0
179 199 76
179 199 125
182 201 133
174 194 117
170 191 62
172 193 0
167 188 0
163 184 0
163 183 0
166 187 0
168 189 0
165 186 0
167 189 0
159 179 0
156 178 0
169 191 0
165 187 0
162 184 0
159 181 0
156 177 0
157 178 0
164 185 0
156 177 0
165 186 0
162 183 0
158 178 0
159 180 0
160 180 0
159 181 0
159 181 0
153 174 0
153 175 0
159 181 0
156 177 0
153 175 0
164 185 0
155 177 0
158 180 0
156 177 0
162 184 0
157 179 0
158 179 0
150 172 0
156 178 0
156 178 0
151 173 0
155 177 0
156 178 0
154 176 0
150 172 0
150 172 0
148 170 0
151 173 0
152 174 0
145 167 0
150 171 0
140 162 0
136 158 0
147 169 0
150 170 0
148 170 0
135 155 0
147 170 0
134 156 0
142 163 0
145 166 0
135 156 0
142 163 0
139 160 0
134 154 0
131 151 0
131 151 0
142 162 0
134 154 0
134 155 0
132 153 0
130 150 0
132 152 0
143 163 0
112 132 0
121 141 0
130 149 0
119 139 0
125 145 0
117 135 0
123 142 0
125 144 0
120 139 0
121 140 0
119 138 0
113 132 0
118 136 0
113 132 0
108 126 0
119 137 0
112 130 0
116 133 0
120 137 0
114 132 0
108 125 0
106 123 0
108 125 0
103 121 0
96 114 0
101 117 0
106 122 0
113 130 0
109 124 0
102 118 0
102 118 0
100 116 0
98 114 0
101 118 0
89 105 0
85 102 0
100 115 0
96 110 0
109 123 0
88 103 0
89 103 0
106 120 0
92 108 0
84 100 0
94 109 0
103 118 0
91 106 0
98 112 0
111 126 0
105 120 0
95 110 0
104 119 0
108 123 0
108 124 0
103 119 0
97 111 0
94 107 0
105 122 0
102 117 0
99 113 0
107 121 0
119 134 0
111 126 0
109 123 0
110 125 0
109 124 0
106 122 0
115 130 0
109 123 0
107 121 0
115 129 0
120 135 0
106 122 0
115 131 0
121 135 0
115 127 0
122 134 0
116 129 0
117 132 0
120 136 0
115 131 0
123 135 0
123 139 0
121 133 0
116 127 0
120 134 0
116 130 0
119 131 0
110 124 0
122 136 0
128 140 0
126 140 0
134 149 0
111 124 0
119 130 0
117 130 0
123 136 0
112 123 0
125 139 0
122 133 0
108 121 0
118 129 0
136 150 0
126 140 0
130 142 0
127 138 0
118 125 0
132 143 0
128 140 0
116 124 0
123 134 0
125 133 0
114 120 0
124 130 0
124 131 0
122 129 0
116 125 0
110 116 0
124 130 0
112 119 0
114 116 0
110 113 0
116 121 0
111 114 0
112 114 0
103 107 0
96 97 0
106 107 0
116 119 0
110 113 0
104 103 0
105 104 0
102 99 0
105 105 0
105 103 0
97 95 0
98 97 0
93 89 0
98 95 0
97 93 0
96 92 0
95 90 0
83 76 0
83 75 0
85 78 0
73 72 0
88 83 0
73 67 0
71 62 0
63 54 0
73 64 0
77 66 0
83 73 0
88 77 0
97 84 0
97 86 0
87 78 0
94 84 0
96 86 0
103 93 11
101 92 0
85 76 0
99 88 11
94 84 0
103 92 11
108 100 0
96 88 0
109 100 0
97 88 0
103 96 0
99 90 0
106 98 19
108 99 11
106 100 11
117 107 16
97 90 16
104 98 0
110 102 16
108 98 11
112 103 16
108 100 0
108 99 16
108 101 0
105 97 19
107 101 16
104 96 16
108 100 11
112 103 16
112 105 11
115 107 16
112 104 22
101 93 11
113 105 25
117 111 25
109 101 25
118 108 25
116 107 19
122 114 22
115 107 16
114 106 16
107 99 11
106 97 16
115 109 28
119 112 30
106 99 19
111 105 25
122 115 30
117 110 28
119 112 19
120 112 32
114 105 32
122 113 28
114 107 19
118 111 25
118 110 36
122 115 28
115 107 30
119 110 37
118 111 32
115 106 36
121 115 30
112 104 19
111 107 34
121 126 30
151 162 19
167 183 11
164 180 0
168 186 0
167 187 0
167 183 0
168 184 0
169 188 0
170 189 0
170 190 0
168 188 0
167 187 0
175 198 0
173 196 0
174 197 0
169 193 0
173 197 0
175 198 0
172 195 0
172 195 0
173 195 0
175 198 0
173 197 0
171 194 0
172 196 0
172 195 0
182 203 95
191 210 151
202 219 198
213 229 231
207 224 211
191 211 144
178 201 80
173 197 0
172 195 0
173 197 0
175 198 0
172 195 0
170 193 0
175 198 0
173 197 0
172 195 0
174 197 0
173 195 0
174 196 0
175 197 0
173 196 0
174 196 0
173 195 0
169 192 0
171 194 0
174 196 0
171 193 0
173 196 0
170 192 0
175 198 0
172 195 0
171 194 0
174 195 0
171 192 0
174 197 0
176 196 0
173 194 0
175 197 0
172 194 0
174 195 0
175 195 0
175 196 0
170 191 0
170 192 0
174 195 0
173 194 0
176 197 0
170 191 0
170 191 0
174 195 0
172 193 0
173 193 0
175 196 0
173 194 0
168 189 0
169 190 0
169 190 0
168 188 0
174 194 0
172 193 0
166 187 0
174 195 0
170 191 0
169 190 0
170 192 0
167 189 0
169 191 0
178 197 102
184 203 135
183 203 135
184 203 137
174 194 95
163 184 0
168 189 0
164 186 0
167 188 0
167 187 0
163 184 0
164 185 0
167 188 0
170 191 0
164 185 0
165 187 0
168 189 0
162 185 0
168 188 0
162 183 0
166 187 0
167 189 0
161 181 0
162 183 0
153 176 0
164 187 0
163 185 0
155 177 0
152 173 0
162 184 0
161 183 0
151 173 0
160 181 0
166 188 0
160 182 0
162 183 0
157 178 0
155 176 0
157 179 0
153 175 0
158 181 0
155 177 0
150 171 0
151 173 0
148 170 0
146 168 0
155 178 0
156 178 0
151 173 0
160 182 0
152 174 0
143 164 0
156 178 0
146 168 0
147 168 0
154 176 0
153 175 0
154 176 0
152 174 0
155 176 0
139 161 0
151 173 0
150 172 0
143 165 0
140 162 0
151 173 0
146 168 0
142 163 0
134 154 0
145 166 0
143 165 0
139 160 0
138 160 0
137 158 0
141 162 0
143 164 0
145 166 0
141 162 0
134 155 0
136 158 0
133 153 0
130 150 0
136 157 0
137 155 0
132 152 0
135 156 0
130 150 0
133 153 0
130 149 0
126 145 0
131 151 0
129 150 0
114 133 0
125 144 0
127 145 0
120 138 0
134 153 0
114 134 0
119 137 0
118 137 0
113 133 0
103 121 0
112 130 0
117 135 0
113 130 0
122 140 0
113 131 0
112 130 0
104 121 0
118 136 0
97 113 0
108 124 0
93 109 0
92 109 0
99 116 0
89 106 0
119 136 0
113 131 0
104 118 0
102 119 0
100 114 0
97 113 0
99 113 0
104 118 0
104 120 0
102 117 0
97 113 0
104 121 0
104 118 0
111 129 0
108 124 0
110 124 0
115 130 0
113 128 0
111 127 0
99 116 0
106 120 0
100 116 0
113 129 0
103 117 0
118 133 0
117 134 0
114 130 0
123 139 0
104 119 0
106 121 0
104 119 0
111 126 0
106 121 0
110 125 0
113 128 0
110 127 0
111 127 0
107 121 0
119 134 0
124 140 0
121 138 0
108 124 0
119 134 0
111 124 0
119 134 0
124 139 0
118 133 0
120 136 0
121 133 0
111 126 0
115 130 0
122 137 0
119 132 0
123 137 0
127 141 0
118 130 0
122 135 0
114 127 0
120 133 0
118 131 0
128 144 0
122 134 0
128 142 0
118 131 0
124 139 0
130 144 0
124 135 0
126 136 0
134 148 0
125 135 0
121 132 0
124 134 0
118 130 0
122 133 0
131 141 0
124 135 0
115 126 0
118 128 0
134 145 0
128 137 0
124 132 0
130 141 0
111 115 0
125 134 0
128 135 0
118 128 0
123 128 0
112 117 0
129 137 0
111 116 0
121 127 0
122 128 0
117 122 0
107 110 0
111 115 0
115 121 0
110 112 0
114 119 0
110 110 0
113 115 0
108 108 0
110 112 0
106 102 0
90 88 0
93 91 0
99 99 0
93 88 0
99 97 0
105 101 0
93 93 0
96 94 0
88 85 0
94 92 0
84 79 0
79 69 0
91 86 0
81 74 0
97 92 0
69 59 0
83 73 0
92 82 0
73 64 0
87 77 0
84 76 0
86 74 0
84 75 0
94 81 0
91 80 11
86 75 0
97 90 11
96 86 0
93 80 0
98 88 0
98 89 11
94 85 0
102 94 11
107 97 0
99 89 0
103 94 0
106 97 11
97 88 11
103 94 11
95 87 0
108 99 0
100 92 11
102 95 16
101 93 16
107 99 16
116 107 0
111 100 22
110 102 16
114 105 25
106 97 16
109 101 19
117 111 11
107 99 19
97 90 19
113 104 19
113 104 16
102 94 19
116 107 19
110 102 22
96 90 0
108 99 19
111 103 28
98 89 11
105 97 25
101 94 16
111 102 22
114 108 22
105 97 22
103 95 16
110 103 25
119 112 22
104 97 22
116 110 30
114 107 30
106 100 16
107 100 22
102 95 32
111 103 32
121 113 28
107 100 28
116 108 28
111 104 22
117 115 30
128 132 30
142 150 16
147 162 0
165 182 11
166 185 0
167 184 0
162 180 0
170 186 0
166 186 0
167 185 0
161 177 0
167 185 0
165 184 0
165 185 0
167 185 0
168 185 0
171 191 0
175 198 0
173 196 0
174 197 0
171 195 0
172 196 0
175 198 0
174 197 0
177 199 0
175 198 0
172 196 0
175 197 0
174 197 0
171 194 0
174 197 0
172 195 0
173 196 0
174 196 0
173 196 0
179 201 72
185 205 140
199 218 184
204 221 201
205 222 201
204 221 196
188 208 128
181 203 99
172 196 0
171 195 0
173 197 0
174 197 0
172 196 0
175 198 0
171 194 0
171 193 0
174 196 0
172 195 0
173 196 0
173 195 0
174 195 0
170 193 0
172 194 0
174 196 0
172 194 0
168 191 0
175 197 0
172 193 0
173 195 0
173 193 0
171 193 0
170 192 0
173 194 0
175 196 0
170 192 0
175 196 0
175 195 0
173 194 0
173 194 0
175 196 0
172 193 0
174 195 0
177 197 0
171 192 0
168 190 0
175 195 0
175 195 0
176 197 0
171 193 0
166 189 0
172 193 0
175 196 0
169 190 0
171 192 0
173 194 0
175 195 0
171 192 0
174 195 44
178 199 88
187 205 140
178 197 105
187 205 137
177 198 108
179 199 99
168 189 0
159 180 0
167 188 0
161 182 0
165 186 0
166 187 0
168 188 0
171 191 0
162 183 0
167 189 0
169 190 0
165 185 0
164 186 0
163 184 0
165 186 0
166 188 0
161 182 0
161 183 0
159 181 0
159 180 0
164 185 0
165 187 0
166 187 0
155 177 0
160 181 0
153 176 0
156 177 0
163 185 0
159 181 0
159 180 0
156 178 0
159 181 0
160 182 0
152 174 0
160 181 0
158 180 0
162 182 0
146 168 0
162 184 0
150 172 0
152 175 0
156 179 0
156 177 0
156 178 0
147 169 0
161 183 0
153 175 0
159 181 0
154 176 0
162 184 0
156 178 0
148 169 0
156 178 0
157 179 0
148 169 0
144 166 0
154 175 0
144 165 0
156 179 0
144 167 0
150 172 0
149 170 0
153 176 0
153 175 0
149 170 0
143 165 0
154 175 0
149 170 0
141 161 0
140 162 0
141 162 0
145 166 0
131 153 0
143 164 0
142 163 0
136 157 0
135 156 0
133 152 0
128 148 0
132 152 0
131 152 0
135 156 0
127 147 0
126 146 0
125 145 0
128 149 0
137 157 0
124 144 0
133 154 0
131 151 0
129 150 0
120 139 0
124 143 0
127 146 0
125 144 0
123 143 0
132 151 0
116 136 0
121 139 0
125 145 0
117 136 0
118 137 0
113 131 0
118 136 0
108 126 0
103 121 0
109 126 0
107 123 0
115 132 0
106 124 0
102 118 0
106 121 0
106 123 0
109 126 0
107 124 0
110 125 0
103 120 0
100 116 0
85 102 0
110 126 0
110 126 0
107 123 0
111 125 0
113 130 0
104 120 0
116 132 0
109 124 0
105 120 0
106 122 0
101 115 0
112 128 0
118 136 0
108 123 0
104 120 0
110 125 0
106 123 0
109 125 0
107 124 0
120 136 0
118 134 0
115 130 0
114 130 0
107 123 0
113 127 0
107 122 0
115 129 0
111 126 0
112 128 0
115 131 0
118 132 0
119 135 0
127 142 0
117 133 0
121 136 0
109 124 0
117 132 0
114 128 0
135 151 0
122 136 0
115 131 0
129 146 0
124 139 0
123 139 0
121 134 0
122 136 0
125 140 0
123 137 0
130 146 0
126 141 0
141 155 0
131 143 0
123 137 0
123 137 0
127 140 0
122 135 0
117 132 0
131 146 0
127 142 0
116 130 0
121 132 0
130 143 0
133 147 0
115 129 0
119 133 0
124 135 0
133 147 0
125 134 0
119 131 0
120 132 0
116 128 0
123 134 0
132 145 0
113 122 0
119 130 0
125 135 0
118 129 0
131 141 0
116 125 0
123 133 0
128 133 0
128 136 0
123 131 0
123 130 0
115 122 0
122 130 0
122 129 0
116 121 0
105 106 0
119 123 0
122 125 0
119 125 0
120 124 0
113 115 0
106 108 0
108 107 0
114 114 0
107 109 0
121 121 0
102 102 0
106 104 0
100 97 0
103 102 0
97 96 0
102 99 0
109 105 0
110 109 0
99 99 0
96 91 0
98 95 0
98 96 0
93 89 0
100 94 0
90 85 0
84 77 0
85 76 0
91 85 0
77 70 0
82 75 0
80 72 0
88 77 0
85 73 0
72 61 0
81 71 0
79 68 0
85 75 0
85 75 0
93 83 11
83 74 0
87 77 0
91 81 0
91 82 11
88 80 0
101 92 11
95 87 0
100 89 11
97 87 11
97 88 16
109 100 11
102 93 0
106 96 16
108 98 16
107 99 0
103 95 11
119 107 16
105 97 16
103 94 19
110 101 22
103 95 11
103 97 0
111 103 22
107 97 22
105 95 19
110 101 0
113 104 22
109 100 28
110 100 11
112 104 22
97 90 22
103 95 22
110 103 22
117 107 30
112 104 22
109 103 22
116 110 25
119 109 22
115 107 32
101 93 11
112 104 22
100 93 28
111 104 30
117 109 32
108 100 30
113 107 16
102 96 22
108 101 16
108 104 32
113 114 19
138 140 22
141 151 11
154 166 19
160 175 0
165 178 0
169 185 0
164 180 0
162 181 0
166 182 0
163 179 0
168 183 0
162 177 0
168 187 0
165 182 0
161 177 0
166 183 0
164 181 0
168 185 0
166 182 0
167 183 0
165 183 0
171 195 0
174 197 0
170 195 0
173 196 0
171 195 0
171 195 0
172 195 0
172 196 0
175 198 0
172 195 0
174 197 0
171 196 0
171 195 0
172 196 0
171 195 0
171 193 0
174 197 0
172 196 0
171 194 0
174 197 0
170 192 0
174 197 0
171 194 0
179 201 80
181 202 108
194 213 177
200 218 184
201 219 193
203 220 194
199 218 184
193 213 157
179 201 92
177 199 62
175 198 0
174 198 0
174 197 0
173 197 0
172 194 0
174 197 0
176 198 0
175 197 0
172 195 0
171 195 0
173 195 0
173 196 0
176 198 0
172 195 0
172 195 0
171 193 0
171 193 0
174 196 0
173 195 0
175 196 0
176 197 0
170 192 0
173 194 0
172 194 0
179 199 0
174 195 0
174 195 0
173 195 0
169 191 0
171 193 0
175 196 0
176 197 0
176 197 0
169 190 0
175 196 0
174 195 25
178 199 67
182 203 108
191 210 153
186 205 125
183 203 144
188 208 140
182 201 125
169 190 67
169 189 0
168 189 0
169 189 0
164 186 0
169 190 0
167 188 0
170 192 0
163 184 0
164 184 0
168 189 0
168 189 0
171 192 0
165 187 0
163 184 0
167 189 0
163 183 0
165 186 0
166 187 0
165 186 0
161 183 0
167 187 0
154 176 0
155 176 0
158 180 0
162 183 0
161 182 0
162 184 0
163 184 0
161 183 0
159 181 0
163 185 0
157 177 0
157 178 0
157 180 0
158 180 0
160 181 0
157 178 0
158 180 0
160 182 0
158 180 0
164 186 0
153 175 0
155 176 0
161 183 0
157 179 0
151 173 0
154 175 0
157 179 0
149 171 0
155 177 0
153 175 0
142 164 0
146 168 0
147 169 0
152 175 0
149 171 0
149 171 0
150 172 0
146 168 0
157 178 0
151 174 0
153 175 0
140 161 0
153 174 0
150 172 0
143 164 0
142 163 0
150 171 0
141 162 0
145 166 0
140 161 0
137 158 0
143 165 0
138 159 0
144 165 0
135 157 0
138 160 0
145 167 0
140 162 0
133 154 0
134 155 0
137 158 0
132 151 0
140 161 0
141 161 0
124 145 0
134 155 0
125 145 0
131 152 0
132 153 0
135 156 0
133 153 0
117 137 0
119 139 0
118 138 0
126 146 0
128 148 0
121 141 0
126 146 0
123 142 0
118 138 0
117 135 0
115 133 0
126 145 0
112 130 0
116 135 0
110 129 0
113 131 0
119 137 0
120 138 0
115 134 0
109 126 0
125 143 0
116 132 0
114 131 0
96 114 0
127 145 0
114 131 0
114 131 0
118 136 0
124 141 0
111 129 0
110 127 0
108 126 0
107 124 0
110 128 0
103 118 0
109 125 0
108 124 0
98 113 0
97 112 0
94 112 0
112 129 0
113 129 0
102 117 0
120 136 0
121 138 0
116 130 0
118 135 0
113 127 0
112 129 0
116 132 0
112 127 0
118 133 0
94 107 0
109 126 0
117 132 0
110 126 0
104 120 0
117 134 0
113 130 0
116 133 0
118 133 0
112 130 0
104 120 0
117 133 0
106 123 0
122 136 0
103 118 0
113 130 0
117 133 0
113 127 0
116 130 0
113 129 0
123 137 0
113 128 0
140 157 0
127 144 0
121 132 0
118 134 0
126 142 0
130 145 0
126 140 0
114 131 0
123 138 0
122 135 0
125 138 0
123 133 0
128 143 0
125 140 0
129 144 0
132 146 0
132 147 0
128 139 0
121 135 0
127 139 0
123 136 0
141 153 0
117 129 0
119 130 0
134 146 0
129 143 0
126 138 0
126 136 0
113 124 0
119 130 0
118 127 0
121 130 0
131 145 0
127 138 0
112 118 0
125 133 0
126 134 0
118 123 0
134 144 0
127 134 0
121 126 0
115 122 0
121 129 0
115 121 0
118 124 0
126 133 0
110 116 0
118 125 0
122 125 0
110 115 0
120 124 0
110 110 0
122 127 0
113 115 0
121 122 0
115 116 0
124 127 0
117 117 0
104 105 0
101 100 0
101 102 0
114 111 0
112 112 0
115 112 0
106 102 0
118 119 0
99 98 0
99 97 0
105 101 0
95 91 0
96 90 0
103 100 0
92 85 0
93 85 0
104 100 0
101 96 0
80 71 0
92 86 0
87 78 0
93 87 0
90 85 0
89 80 0
87 79 11
75 67 0
84 74 0
83 74 11
91 78 11
83 75 0
83 74 0
93 83 11
90 82 0
88 80 0
89 80 0
87 74 0
99 90 0
97 90 11
98 90 0
98 90 11
96 86 0
106 97 19
92 82 11
91 83 0
100 91 0
103 94 0
105 97 16
115 103 22
92 84 0
101 93 19
91 82 11
103 95 16
115 106 19
107 96 22
108 100 16
105 98 16
108 98 19
102 94 16
110 100 22
101 91 25
110 100 16
112 105 19
96 89 19
108 98 28
111 104 28
108 100 16
103 97 16
106 100 22
106 100 28
115 106 25
112 107 25
124 123 32
130 131 25
136 143 11
147 154 11
157 169 0
162 174 0
158 170 0
161 175 0
165 181 0
159 172 0
163 178 0
163 177 0
163 177 0
163 180 0
163 179 0
158 173 0
156 170 0
168 185 0
164 182 0
167 184 0
161 178 0
168 184 0
167 186 0
162 179 0
164 182 0
163 182 0
163 178 0
162 178 0
173 197 0
173 196 0
174 197 0
174 197 0
172 195 0
171 195 0
173 197 0
171 195 0
173 196 0
171 195 0
173 196 0
174 197 0
172 196 0
173 196 0
175 198 0
172 195 0
173 196 0
174 197 0
173 195 0
175 198 0
175 197 0
173 196 0
170 192 0
172 195 0
173 196 0
175 197 0
173 195 0
176 199 0
172 195 0
176 198 51
180 202 99
190 209 144
196 215 169
197 214 173
201 218 186
197 216 179
200 217 181
196 214 169
196 215 173
191 211 153
186 207 128
182 203 95
181 203 102
184 205 108
175 198 51
174 196 0
169 192 0
171 194 0
172 194 0
171 194 0
173 195 0
175 198 0
172 194 0
176 197 0
175 198 0
172 195 0
171 193 25
175 198 51
176 197 67
182 203 105
184 205 114
187 207 133
187 207 140
185 205 135
185 204 137
188 207 147
192 211 157
186 205 140
186 206 130
179 199 111
170 190 51
169 191 0
171 192 0
167 188 0
171 192 0
168 188 0
171 192 0
172 193 0
170 191 0
169 190 0
164 186 0
167 187 0
166 188 0
167 188 0
162 183 0
169 190 0
163 184 0
165 186 0
166 187 0
169 190 0
162 183 0
168 190 0
158 179 0
166 188 0
163 185 0
157 177 0
166 187 0
166 187 0
164 185 0
165 186 0
160 182 0
158 180 0
156 177 0
160 182 0
164 186 0
159 180 0
163 185 0
158 179 0
164 186 0
160 182 0
157 179 0
160 182 0
152 174 0
159 181 0
157 180 0
162 184 0
159 181 0
156 178 0
152 173 0
158 180 0
164 185 0
158 180 0
153 174 0
156 178 0
158 181 0
155 176 0
155 176 0
151 173 0
159 180 0
153 174 0
146 169 0
156 178 0
138 160 0
154 176 0
151 173 0
150 172 0
155 177 0
150 172 0
147 168 0
157 179 0
152 174 0
146 168 0
149 171 0
148 168 0
146 167 0
146 168 0
139 160 0
146 166 0
151 173 0
136 159 0
139 159 0
140 162 0
139 159 0
143 165 0
146 167 0
139 160 0
141 161 0
138 159 0
137 159 0
141 161 0
131 151 0
120 140 0
128 148 0
136 156 0
136 157 0
135 154 0
120 139 0
134 155 0
132 152 0
142 163 0
136 156 0
124 144 0
131 151 0
126 145 0
138 158 0
128 147 0
123 143 0
122 141 0
124 143 0
113 131 0
123 142 0
134 155 0
130 148 0
115 134 0
115 133 0
122 140 0
120 138 0
127 146 0
114 133 0
105 123 0
119 138 0
114 131 0
120 137 0
113 132 0
113 131 0
105 123 0
111 129 0
120 138 0
116 134 0
111 129 0
125 143 0
123 141 0
113 131 0
112 130 0
110 128 0
116 133 0
103 119 0
114 132 0
120 137 0
109 127 0
110 129 0
121 137 0
115 132 0
113 130 0
117 133 0
107 121 0
109 126 0
109 125 0
113 128 0
125 142 0
115 132 0
123 140 0
115 132 0
108 123 0
117 133 0
121 136 0
124 139 0
111 129 0
111 126 0
125 141 0
121 138 0
101 117 0
119 135 0
114 129 0
109 125 0
119 135 0
119 135 0
119 134 0
126 143 0
131 147 0
123 138 0
121 137 0
121 136 0
126 142 0
126 143 0
130 145 0
129 142 0
122 137 0
130 145 0
134 150 0
119 135 0
116 130 0
133 149 0
128 143 0
122 135 0
123 138 0
126 140 0
130 143 0
126 140 0
136 150 0
134 146 0
125 139 0
121 135 0
138 151 0
122 134 0
137 151 0
136 149 0
126 139 0
131 145 0
131 144 0
120 132 0
122 136 0
126 138 0
120 132 0
123 134 0
129 140 0
124 136 0
130 141 0
122 130 0
126 134 0
117 127 0
117 128 0
138 147 0
128 137 0
135 148 0
127 136 0
131 139 0
119 127 0
123 132 0
125 132 0
121 125 0
129 138 0
114 119 0
112 117 0
120 121 0
109 112 0
105 108 0
123 125 0
120 125 0
117 123 0
108 113 0
115 116 0
119 121 0
112 111 0
116 115 0
110 111 0
113 111 0
100 97 0
112 111 0
108 105 0
94 90 0
109 108 0
104 99 0
112 111 0
102 96 0
98 93 0
111 111 0
94 87 0
101 97 0
94 88 0
101 93 0
110 104 0
100 96 0
97 92 0
94 86 0
97 89 0
103 100 0
87 81 0
89 81 0
101 95 0
89 83 0
90 79 0
100 93 0
90 82 11
111 105 11
82 74 11
94 86 0
95 85 11
92 82 0
81 72 0
94 82 11
93 83 16
95 83 11
99 90 0
94 83 16
89 81 0
92 83 19
104 95 22
95 86 11
104 93 22
101 93 0
102 91 25
106 96 11
103 94 16
94 83 22
91 83 16
105 97 19
109 100 22
99 91 22
100 91 25
105 97 19
99 92 22
111 102 19
104 97 25
111 111 11
123 124 11
130 128 11
129 133 22
143 148 11
149 156 0
151 160 0
155 167 0
157 170 0
150 160 0
160 174 0
154 165 0
159 170 0
153 162 0
152 164 0
155 167 0
160 172 0
158 171 0
159 174 0
160 174 0
162 176 0
158 171 0
155 169 0
161 176 0
156 170 0
164 180 0
165 182 0
159 172 0
161 179 0
159 176 0
166 181 0
166 182 0
168 188 0
166 184 0
170 189 0
168 186 0
171 195 0
174 197 0
173 195 0
173 196 0
175 198 0
172 196 0
171 195 0
172 194 0
171 194 0
174 196 0
175 198 0
172 195 0
172 195 0
173 197 0
171 195 0
176 198 0
176 198 0
175 197 0
172 195 0
172 195 0
173 196 0
173 196 0
173 195 0
173 195 0
175 198 0
174 196 0
174 196 0
173 196 0
172 195 0
172 195 0
172 195 0
175 196 0
174 196 0
176 198 0
173 196 0
172 194 0
173 195 0
171 193 0
175 197 44
178 199 67
181 202 92
187 208 133
188 207 133
184 204 117
190 209 142
196 214 173
193 211 163
189 207 163
191 210 151
195 214 161
193 211 153
193 211 163
193 211 155
195 213 165
186 205 140
190 208 142
191 210 142
190 209 155
185 204 114
179 199 95
175 197 76
174 195 36
171 192 0
172 193 0
175 195 0
170 191 0
169 189 0
169 189 0
170 190 0
166 188 0
168 190 0
168 188 0
174 195 0
173 193 0
169 189 0
167 188 0
165 186 0
171 192 0
172 193 0
170 191 0
168 190 0
164 185 0
164 184 0
162 184 0
165 186 0
165 187 0
169 191 0
160 182 0
163 184 0
165 187 0
161 181 0
165 186 0
165 187 0
163 186 0
163 184 0
158 180 0
165 187 0
162 184 0
164 185 0
161 182 0
163 185 0
161 183 0
163 185 0
162 183 0
156 177 0
160 181 0
162 183 0
160 182 0
163 185 0
158 181 0
160 182 0
158 179 0
159 181 0
155 176 0
158 179 0
155 176 0
154 176 0
152 174 0
157 179 0
156 178 0
152 174 0
155 177 0
155 176 0
159 181 0
157 179 0
151 172 0
153 175 0
152 174 0
154 176 0
151 173 0
148 170 0
157 179 0
152 173 0
150 173 0
154 176 0
144 166 0
153 176 0
146 168 0
150 172 0
151 172 0
150 172 0
152 173 0
147 168 0
147 169 0
145 166 0
140 161 0
154 176 0
135 157 0
145 167 0
141 162 0
146 166 0
148 169 0
148 169 0
140 161 0
138 159 0
143 164 0
144 167 0
148 169 0
140 162 0
134 155 0
132 153 0
137 158 0
129 150 0
137 158 0
130 150 0
125 146 0
135 156 0
132 152 0
136 156 0
131 151 0
118 138 0
134 154 0
127 145 0
127 147 0
113 134 0
121 139 0
126 145 0
121 140 0
120 140 0
116 136 0
122 142 0
115 135 0
124 142 0
119 138 0
115 134 0
131 150 0
120 139 0
125 144 0
115 134 0
113 131 0
125 143 0
123 141 0
109 127 0
115 134 0
122 140 0
113 130 0
115 132 0
116 135 0
126 144 0
118 135 0
108 123 0
124 142 0
112 129 0
113 130 0
115 131 0
112 130 0
114 131 0
112 130 0
120 135 0
122 141 0
126 143 0
116 134 0
113 131 0
112 129 0
112 129 0
117 135 0
121 137 0
110 126 0
114 131 0
123 142 0
125 144 0
124 141 0
117 135 0
113 129 0
109 127 0
126 143 0
115 129 0
113 129 0
105 120 0
121 137 0
128 145 0
124 141 0
123 141 0
122 138 0
115 131 0
127 143 0
128 144 0
130 145 0
119 133 0
117 132 0
126 142 0
122 137 0
123 139 0
125 139 0
113 127 0
123 139 0
124 140 0
115 132 0
122 136 0
129 143 0
121 138 0
140 158 0
136 151 0
138 154 0
131 147 0
118 132 0
132 149 0
130 146 0
134 148 0
134 149 0
136 151 0
136 152 0
131 145 0
119 132 0
121 134 0
121 135 0
126 141 0
123 136 0
120 132 0
125 137 0
116 127 0
122 131 0
123 135 0
119 131 0
116 128 0
123 133 0
136 148 0
128 141 0
124 134 0
114 125 0
117 129 0
129 138 0
130 140 0
123 135 0
129 137 0
120 125 0
118 125 0
126 136 0
123 132 0
126 134 0
119 127 0
126 134 0
116 123 0
125 131 0
120 127 0
122 122 0
130 136 0
120 127 0
106 111 0
112 116 0
125 128 0
124 127 0
118 119 0
120 122 0
111 112 0
123 123 0
112 112 0
115 116 0
105 104 0
105 106 0
115 115 0
105 104 0
106 103 0
111 110 0
103 99 0
105 105 0
105 102 0
102 97 0
109 105 0
106 102 0
109 106 0
110 108 0
96 92 0
97 88 0
103 99 0
102 100 0
101 96 0
100 94 0
102 94 0
102 100 0
101 96 0
93 83 0
100 94 0
100 94 0
105 96 0
119 115 0
103 97 0
110 104 0
108 105 0
111 106 0
114 110 0
128 129 0
109 106 0
111 106 19
113 108 0
115 109 11
114 108 11
107 105 0
111 107 0
122 121 11
119 116 0
123 119 0
121 119 16
117 114 0
123 121 16
115 115 11
120 120 0
129 132 0
132 133 11
141 146 16
145 150 0
151 155 0
147 154 0
149 156 0
153 162 0
148 155 0
146 156 0
149 155 0
155 162 0
155 164 0
154 163 0
154 166 0
156 167 0
153 165 0
150 162 0
162 171 0
161 172 0
155 165 0
156 166 0
157 168 0
160 171 0
160 173 0
156 167 0
162 175 0
154 164 0
161 174 0
162 178 0
165 180 0
161 174 0
162 177 0
166 179 0
160 173 0
161 173 0
165 182 0
162 177 0
169 185 0
161 178 0
170 189 0
166 185 0
169 187 0
173 197 0
173 196 0
171 194 0
172 195 0
170 194 0
172 196 0
174 197 0
171 193 0
177 199 0
171 195 0
174 197 0
169 192 0
174 196 0
173 196 0
172 195 0
175 198 0
172 195 0
171 194 0
176 199 0
172 195 0
173 196 0
172 194 0
172 195 0
174 197 0
174 197 0
174 196 0
168 191 0
172 194 0
172 195 0
174 196 0
176 198 0
171 194 0
171 193 0
172 194 0
171 193 0
170 193 0
175 197 0
173 195 0
176 197 0
174 196 0
176 198 0
174 196 0
174 196 0
173 195 0
174 196 0
175 197 0
173 196 0
174 195 0
172 194 0
174 195 0
174 196 0
173 195 0
173 193 0
170 192 0
173 195 0
171 191 0
171 191 0
174 195 0
173 195 0
175 196 0
173 194 0
171 193 0
173 195 0
173 193 0
171 191 0
175 196 0
173 194 0
164 185 0
173 193 0
174 195 0
168 188 0
172 192 0
174 194 0
165 186 0
173 194 0
167 187 0
175 195 0
169 190 0
169 190 0
170 190 0
171 193 0
165 187 0
168 189 0
172 193 0
169 190 0
166 186 0
161 184 0
167 189 0
164 185 0
166 186 0
164 185 0
162 182 0
169 190 0
163 184 0
159 181 0
167 189 0
164 186 0
164 187 0
156 178 0
155 177 0
157 180 0
162 183 0
161 183 0
157 177 0
161 183 0
162 184 0
159 180 0
153 175 0
158 180 0
162 185 0
156 177 0
154 176 0
161 183 0
153 174 0
155 177 0
150 172 0
157 180 0
155 178 0
155 177 0
155 176 0
150 172 0
159 180 0
153 174 0
147 170 0
148 169 0
151 172 0
151 173 0
156 178 0
149 172 0
156 177 0
146 169 0
160 181 0
159 181 0
148 170 0
157 178 0
152 175 0
144 166 0
147 169 0
155 177 0
144 166 0
149 169 0
156 178 0
152 173 0
147 169 0
146 167 0
157 179 0
145 167 0
147 169 0
145 167 0
132 153 0
138 159 0
142 163 0
147 168 0
133 154 0
147 169 0
136 158 0
144 164 0
137 157 0
135 155 0
128 149 0
138 160 0
136 158 0
137 159 0
139 159 0
126 147 0
136 157 0
141 163 0
135 156 0
130 150 0
134 155 0
121 142 0
131 151 0
131 150 0
135 155 0
121 140 0
134 154 0
138 159 0
124 142 0
114 134 0
133 153 0
125 145 0
128 148 0
126 144 0
132 151 0
121 139 0
130 148 0
123 142 0
128 147 0
113 133 0
123 143 0
117 135 0
112 130 0
121 141 0
121 140 0
127 146 0
111 128 0
124 143 0
117 137 0
123 140 0
118 136 0
116 132 0
126 145 0
113 131 0
118 133 0
114 134 0
107 124 0
118 138 0
125 142 0
96 111 0
123 141 0
119 138 0
121 137 0
120 137 0
122 140 0
121 140 0
117 134 0
114 131 0
122 139 0
113 130 0
110 128 0
115 133 0
117 134 0
125 142 0
122 137 0
115 132 0
123 140 0
124 140 0
123 139 0
126 144 0
115 132 0
127 146 0
122 137 0
120 136 0
127 143 0
111 127 0
124 141 0
127 144 0
111 127 0
119 135 0
125 143 0
115 131 0
126 142 0
123 140 0
122 138 0
131 148 0
124 142 0
136 152 0
121 138 0
132 149 0
126 141 0
124 139 0
128 143 0
133 149 0
123 137 0
132 148 0
120 136 0
124 139 0
131 147 0
132 145 0
138 154 0
131 145 0
127 141 0
129 142 0
127 140 0
126 139 0
131 146 0
137 151 0
132 146 0
131 146 0
135 150 0
123 135 0
134 148 0
120 130 0
125 135 0
127 136 0
132 145 0
128 141 0
125 139 0
128 139 0
126 136 0
126 134 0
133 144 0
126 135 0
126 137 0
119 130 0
131 142 0
125 133 0
136 144 0
125 138 0
126 133 0
124 133 0
127 132 0
123 129 0
124 131 0
122 128 0
134 141 0
117 122 0
115 119 0
126 134 0
128 134 0
118 124 0
122 127 0
115 120 0
117 121 0
129 132 0
118 124 0
110 113 0
119 118 0
126 131 0
118 120 0
104 106 0
114 112 0
121 119 0
111 110 0
116 113 0
116 113 0
101 97 0
122 123 0
117 118 0
105 103 0
102 99 0
106 105 0
107 106 0
109 104 0
113 108 0
110 104 0
102 96 0
108 99 0
100 96 0
105 100 0
94 87 0
114 112 0
112 110 0
111 106 0
108 104 0
118 113 0
108 100 0
114 109 0
118 114 0
113 109 0
119 115 0
116 114 0
126 124 0
113 109 0
125 121 0
125 120 0
120 115 0
117 113 0
123 120 0
128 130 0
135 133 0
133 132 0
121 120 0
141 144 0
138 140 0
139 144 0
139 143 0
137 140 0
145 149 0
147 152 0
139 144 0
146 150 0
150 155 0
151 155 0
146 152 0
144 150 0
142 148 0
152 157 0
148 155 0
147 153 0
157 167 0
156 164 0
153 160 0
153 164 0
151 162 0
156 169 0
159 169 0
154 166 0
159 172 0
154 166 0
153 163 0
159 171 0
159 172 0
158 172 0
164 178 0
160 172 0
165 179 0
167 184 0
156 170 0
156 171 0
159 172 0
163 179 0
164 181 0
164 179 0
164 183 0
160 175 0
164 181 0
162 178 0
167 186 0
163 180 0
170 193 0
174 198 0
172 195 0
173 196 0
173 196 0
171 194 0
173 197 0
173 196 0
174 197 0
174 197 0
171 194 0
173 196 0
174 197 0
175 198 0
171 194 0
168 191 0
172 195 0
173 196 0
174 197 0
172 196 0
173 196 0
176 198 0
175 198 0
171 194 0
170 192 0
172 194 0
176 197 0
171 194 0
173 196 0
173 196 0
174 196 0
173 195 0
173 196 0
175 197 0
175 196 0
174 196 0
174 197 0
174 196 0
175 197 0
171 193 0
168 189 0
174 196 0
175 196 0
176 198 0
173 195 0
174 196 0
173 195 0
172 194 0
171 192 0
176 197 0
172 193 0
173 194 0
170 192 0
172 192 0
174 196 0
173 194 0
174 196 0
170 191 0
176 197 0
171 191 0
172 192 0
174 196 0
173 194 0
173 193 0
174 195 0
170 192 0
171 193 0
171 192 0
171 192 0
167 187 0
170 190 0
162 183 0
168 189 0
169 189 0
166 187 0
168 190 0
167 188 0
170 191 0
161 182 0
165 185 0
171 191 0
168 190 0
165 187 0
170 191 0
168 190 0
166 188 0
162 183 0
163 185 0
161 183 0
163 185 0
169 190 0
163 184 0
155 177 0
165 187 0
164 187 0
167 188 0
156 177 0
165 186 0
159 182 0
156 178 0
160 183 0
158 180 0
158 180 0
152 174 0
163 185 0
161 184 0
153 175 0
162 184 0
164 186 0
156 178 0
160 183 0
157 178 0
157 179 0
157 179 0
156 178 0
162 184 0
153 174 0
153 176 0
149 170 0
164 187 0
155 177 0
156 179 0
157 179 0
153 175 0
157 180 0
147 168 0
156 177 0
157 179 0
152 174 0
158 179 0
149 172 0
146 168 0
150 173 0
155 176 0
144 165 0
148 170 0
149 171 0
154 175 0
157 179 0
148 169 0
151 173 0
152 174 0
147 169 0
150 171 0
149 170 0
148 169 0
143 165 0
138 160 0
145 166 0
147 168 0
155 177 0
142 163 0
144 166 0
144 165 0
147 168 0
136 157 0
135 157 0
135 155 0
135 155 0
144 166 0
139 161 0
134 155 0
137 157 0
141 162 0
132 152 0
137 157 0
134 155 0
141 163 0
133 154 0
138 161 0
136 156 0
137 156 0
140 160 0
141 159 0
126 146 0
134 154 0
135 156 0
136 157 0
129 150 0
128 148 0
129 149 0
120 139 0
129 149 0
129 148 0
121 139 0
115 134 0
127 146 0
137 156 0
127 147 0
110 128 0
118 138 0
120 138 0
119 138 0
122 141 0
122 141 0
124 142 0
115 133 0
119 138 0
112 130 0
118 137 0
120 138 0
119 136 0
115 133 0
127 145 0
116 134 0
124 142 0
126 144 0
122 138 0
115 134 0
120 137 0
126 143 0
125 143 0
128 145 0
112 129 0
122 139 0
127 145 0
120 138 0
118 137 0
124 143 0
126 142 0
118 136 0
106 123 0
128 146 0
124 142 0
123 139 0
130 147 0
124 141 0
123 138 0
131 147 0
115 132 0
124 139 0
127 144 0
133 150 0
133 151 0
132 150 0
126 141 0
125 141 0
129 146 0
132 148 0
119 136 0
127 144 0
129 146 0
116 131 0
120 135 0
133 149 0
129 146 0
125 140 0
130 147 0
133 149 0
122 136 0
131 146 0
131 149 0
127 142 0
136 153 0
129 144 0
136 150 0
136 152 0
128 143 0
131 144 0
135 151 0
124 137 0
127 142 0
133 146 0
122 136 0
131 146 0
135 152 0
122 137 0
126 140 0
139 153 0
143 158 0
133 147 0
130 143 0
127 143 0
133 148 0
139 151 0
139 151 0
132 145 0
125 137 0
128 140 0
130 142 0
126 137 0
125 132 0
139 151 0
129 137 0
142 154 0
124 131 0
138 150 0
125 135 0
127 137 0
126 134 0
132 139 0
129 137 0
129 139 0
130 137 0
121 129 0
120 125 0
121 128 0
127 134 0
126 132 0
127 135 0
128 133 0
119 123 0
107 106 0
123 125 0
115 117 0
118 123 0
121 127 0
126 130 0
120 121 0
118 120 0
117 113 0
117 116 0
122 123 0
122 121 0
119 120 0
116 116 0
117 117 0
109 108 0
127 128 0
104 101 0
106 103 0
108 104 0
121 117 0
109 105 0
111 107 0
101 97 0
122 120 0
111 108 0
115 112 0
105 100 0
110 107 0
125 122 0
114 113 0
112 109 0
99 92 0
122 117 0
120 119 0
110 104 0
115 113 0
112 109 0
122 120 0
132 134 0
124 121 0
123 118 0
117 117 0
137 138 0
126 124 0
120 117 0
128 127 0
133 135 0
127 127 0
127 127 0
137 138 0
138 141 0
129 130 0
140 142 0
143 148 0
141 142 0
149 153 0
137 140 0
141 143 0
141 145 0
139 141 0
148 155 0
148 154 0
153 160 0
151 159 0
140 146 0
147 154 0
148 154 0
156 164 0
154 163 0
151 161 0
156 168 0
148 157 0
154 164 0
154 161 0
156 168 0
150 161 0
154 164 0
159 173 0
160 173 0
157 168 0
166 179 0
160 173 0
158 171 0
153 165 0
162 176 0
155 168 0
159 172 0
161 175 0
159 170 0
163 178 0
158 171 0
160 176 0
163 179 0
166 182 0
164 182 0
164 179 0
166 184 0
175 198 0
173 196 0
170 193 0
175 197 0
173 196 0
174 197 0
170 194 0
174 197 0
171 194 0
173 195 0
172 195 0
169 192 0
171 194 0
174 197 0
172 194 0
174 197 0
172 195 0
171 193 0
171 194 0
173 196 0
177 198 0
175 198 0
176 198 0
174 195 0
175 198 0
171 194 0
174 196 0
170 193 0
173 195 0
174 197 0
175 197 0
169 192 0
174 196 0
174 196 0
175 196 0
174 196 0
172 193 0
171 192 0
174 196 0
174 196 0
175 196 0
172 195 0
171 194 0
173 194 0
172 193 0
174 195 0
172 193 0
176 197 0
172 194 0
172 194 0
173 194 0
175 196 0
173 194 0
173 193 0
171 192 0
174 195 0
170 191 0
172 193 0
171 193 0
171 193 0
170 192 0
171 193 0
171 192 0
171 193 0
171 192 0
173 193 0
169 190 0
174 195 0
166 187 0
173 194 0
168 190 0
169 190 0
165 186 0
170 191 0
167 189 0
163 184 0
165 187 0
168 189 0
167 187 0
166 188 0
166 188 0
165 188 0
167 188 0
169 191 0
168 189 0
164 186 0
162 184 0
159 181 0
166 187 0
165 187 0
166 188 0
155 177 0
166 189 0
161 183 0
165 187 0
160 182 0
165 187 0
164 187 0
157 179 0
163 184 0
150 173 0
156 179 0
154 175 0
164 184 0
158 180 0
163 184 0
157 179 0
161 184 0
156 178 0
158 180 0
166 189 0
157 179 0
160 182 0
150 173 0
152 174 0
157 179 0
158 181 0
155 176 0
153 175 0
159 181 0
156 177 0
145 167 0
152 174 0
149 172 0
156 178 0
154 177 0
150 172 0
145 166 0
162 183 0
151 172 0
149 171 0
152 174 0
145 167 0
155 177 0
147 168 0
148 171 0
152 173 0
154 175 0
151 173 0
144 165 0
148 171 0
149 170 0
141 162 0
148 169 0
156 178 0
149 171 0
147 169 0
142 163 0
144 165 0
149 171 0
145 167 0
141 161 0
136 157 0
149 172 0
138 158 0
140 161 0
143 165 0
140 160 0
141 161 0
142 164 0
140 161 0
136 157 0
148 170 0
127 149 0
137 157 0
125 145 0
146 168 0
121 141 0
132 153 0
136 157 0
145 166 0
128 147 0
134 153 0
137 157 0
132 152 0
134 154 0
130 151 0
131 151 0
136 155 0
134 154 0
115 134 0
130 150 0
123 143 0
130 150 0
122 142 0
125 145 0
141 160 0
120 141 0
122 140 0
129 149 0
128 146 0
139 157 0
120 139 0
128 146 0
116 135 0
133 152 0
126 143 0
124 143 0
121 140 0
116 134 0
117 136 0
123 142 0
121 139 0
116 134 0
127 143 0
121 140 0
119 137 0
134 152 0
122 139 0
128 146 0
134 153 0
105 122 0
122 140 0
114 130 0
117 135 0
128 147 0
118 137 0
113 130 0
128 147 0
122 140 0
118 136 0
143 161 0
111 127 0
119 135 0
132 149 0
123 141 0
120 137 0
127 144 0
133 149 0
114 131 0
126 143 0
124 140 0
127 142 0
117 135 0
127 145 0
125 141 0
122 138 0
129 146 0
126 143 0
128 144 0
127 145 0
127 144 0
133 149 0
135 152 0
137 153 0
135 150 0
130 145 0
135 152 0
124 141 0
125 139 0
132 150 0
124 141 0
119 135 0
129 144 0
136 152 0
127 143 0
127 141 0
132 148 0
133 149 0
139 155 0
134 152 0
120 136 0
134 150 0
132 148 0
136 150 0
126 139 0
134 148 0
131 146 0
136 148 0
132 148 0
130 145 0
139 150 0
128 141 0
124 138 0
127 140 0
134 147 0
133 144 0
123 134 0
128 140 0
129 140 0
131 143 0
124 134 0
126 137 0
128 140 0
138 151 0
133 143 0
134 147 0
127 136 0
131 140 0
125 136 0
129 137 0
136 145 0
132 141 0
132 140 0
125 133 0
129 135 0
125 130 0
130 135 0
136 144 0
124 129 0
124 129 0
118 125 0
116 120 0
129 133 0
134 141 0
127 133 0
124 129 0
119 125 0
124 127 0
124 128 0
126 129 0
113 115 0
120 119 0
123 121 0
125 127 0
127 128 0
116 115 0
117 115 0
125 126 0
115 115 0
110 110 0
113 109 0
116 113 0
115 115 0
126 127 0
116 113 0
109 107 0
123 121 0
114 113 0
117 117 0
122 119 0
115 115 0
114 112 0
115 111 0
124 122 0
118 115 0
120 117 0
118 115 0
124 118 0
120 116 0
132 131 0
116 113 0
124 121 0
123 120 0
129 128 0
125 123 0
117 113 0
130 128 0
127 127 0
130 130 0
133 135 0
135 138 0
131 134 0
133 135 0
142 144 0
135 136 0
144 146 0
142 146 0
134 137 0
135 136 0
143 147 0
141 145 0
146 150 0
140 142 0
150 155 0
142 148 0
147 153 0
147 154 0
148 154 0
149 155 0
150 158 0
151 158 0
155 164 0
152 160 0
151 160 0
147 156 0
150 158 0
150 159 0
145 154 0
158 168 0
158 170 0
153 163 0
157 167 0
163 175 0
158 169 0
163 176 0
156 168 0
161 174 0
157 169 0
161 175 0
157 173 0
159 173 0
160 172 0
163 174 0
161 172 0
164 179 0
165 181 0
160 175 0
164 179 0
154 168 0
174 196 0
171 195 0
171 194 0
176 199 0
174 197 0
172 194 0
172 195 0
169 192 0
172 195 0
175 197 0
173 196 0
174 197 0
174 196 0
173 196 0
174 196 0
173 195 0
172 195 0
174 197 0
174 196 0
173 196 0
173 195 0
174 197 0
173 196 0
174 196 0
172 194 0
170 193 0
171 194 0
175 198 0
175 198 0
175 198 0
170 192 0
171 193 0
172 194 0
169 190 0
176 197 0
170 192 0
174 196 0
174 196 0
174 196 0
176 197 0
170 192 0
172 194 0
173 195 0
173 195 0
176 197 0
172 193 0
173 195 0
169 191 0
175 196 0
171 193 0
172 194 0
173 196 0
175 196 0
171 192 0
172 193 0
171 192 0
172 194 0
173 195 0
172 193 0
165 186 0
167 190 0
171 193 0
173 195 0
170 191 0
167 188 0
165 187 0
163 185 0
167 190 0
166 186 0
166 188 0
165 186 0
167 190 0
166 187 0
164 187 0
170 191 0
170 191 0
168 188 0
164 185 0
165 186 0
157 178 0
170 191 0
165 187 0
162 184 0
164 186 0
160 182 0
160 182 0
164 186 0
159 180 0
164 186 0
157 178 0
163 184 0
160 181 0
164 187 0
161 183 0
159 181 0
157 178 0
152 174 0
159 181 0
163 186 0
150 173 0
159 181 0
161 183 0
154 176 0
162 184 0
155 178 0
158 179 0
156 178 0
167 189 0
151 173 0
155 177 0
157 179 0
154 177 0
162 184 0
154 177 0
155 178 0
157 179 0
159 180 0
156 179 0
148 170 0
155 178 0
159 180 0
156 178 0
158 180 0
152 174 0
152 175 0
149 172 0
156 178 0
154 176 0
157 179 0
160 183 0
157 179 0
152 174 0
158 180 0
156 179 0
145 166 0
158 180 0
153 175 0
146 168 0
150 172 0
141 163 0
147 169 0
159 180 0
149 172 0
158 180 0
144 165 0
149 170 0
153 174 0
153 175 0
153 174 0
145 165 0
144 165 0
147 169 0
143 165 0
146 168 0
141 163 0
133 154 0
140 161 0
143 163 0
144 165 0
131 153 0
145 167 0
143 166 0
141 163 0
141 162 0
130 151 0
143 163 0
143 165 0
135 155 0
139 160 0
133 153 0
134 154 0
142 162 0
146 166 0
139 160 0
128 149 0
137 157 0
136 156 0
142 163 0
129 149 0
125 146 0
121 141 0
129 149 0
130 150 0
127 147 0
130 151 0
125 145 0
131 150 0
122 142 0
132 153 0
139 159 0
135 153 0
126 144 0
126 145 0
118 136 0
118 136 0
133 153 0
129 147 0
129 149 0
129 149 0
109 127 0
122 141 0
130 149 0
117 136 0
129 146 0
124 143 0
130 149 0
126 145 0
126 144 0
127 145 0
130 149 0
128 147 0
127 146 0
116 133 0
130 149 0
113 130 0
128 147 0
121 138 0
130 148 0
123 142 0
120 138 0
126 143 0
118 135 0
126 144 0
124 143 0
129 148 0
124 143 0
129 147 0
126 145 0
125 141 0
134 151 0
127 145 0
119 137 0
118 136 0
122 138 0
133 150 0
134 154 0
126 144 0
123 139 0
124 140 0
130 147 0
132 151 0
127 144 0
135 153 0
134 151 0
117 133 0
125 144 0
120 136 0
132 148 0
128 142 0
123 139 0
136 151 0
134 150 0
132 150 0
132 149 0
125 141 0
127 144 0
134 149 0
133 149 0
123 138 0
124 137 0
128 144 0
127 145 0
133 149 0
124 137 0
131 145 0
140 156 0
134 149 0
131 144 0
132 146 0
133 147 0
126 139 0
135 147 0
129 142 0
141 155 0
133 145 0
139 153 0
143 155 0
127 140 0
132 146 0
131 142 0
134 148 0
131 142 0
120 130 0
134 148 0
135 147 0
139 150 0
138 150 0
132 142 0
123 132 0
127 135 0
128 136 0
126 134 0
129 140 0
134 142 0
138 146 0
130 140 0
132 140 0
132 140 0
136 144 0
131 139 0
129 134 0
127 132 0
128 135 0
120 125 0
114 121 0
137 143 0
124 130 0
119 123 0
120 122 0
119 123 0
125 127 0
125 130 0
129 135 0
121 125 0
124 123 0
126 126 0
128 129 0
120 123 0
131 130 0
123 125 0
122 127 0
119 119 0
125 126 0
118 118 0
126 126 0
128 128 0
126 126 0
119 120 0
127 127 0
126 122 0
114 115 0
126 124 0
118 118 0
112 108 0
125 126 0
115 112 0
128 127 0
114 112 0
115 110 0
115 113 0
117 114 0
118 116 0
122 118 0
125 121 0
119 118 0
123 120 0
130 130 0
138 140 0
135 135 0
128 128 0
118 118 0
132 133 0
140 144 0
131 132 0
134 134 0
133 133 0
139 144 0
139 142 0
136 140 0
142 147 0
136 139 0
140 143 0
137 141 0
141 145 0
146 151 0
145 147 0
142 146 0
149 154 0
145 151 0
145 150 0
143 148 0
150 158 0
153 160 0
152 159 0
144 153 0
150 159 0
160 171 0
155 163 0
150 159 0
158 171 0
152 161 0
155 166 0
157 168 0
155 166 0
152 160 0
161 173 0
156 168 0
154 163 0
155 167 0
159 172 0
160 173 0
156 171 0
160 174 0
159 174 0
160 175 0
163 177 0
159 175 0
164 178 0
162 177 0
158 173 0
172 195 0
173 197 0
173 196 0
171 195 0
174 197 0
170 193 0
171 194 0
172 195 0
174 196 0
173 196 0
173 195 0
174 197 0
173 196 0
170 193 0
172 195 0
171 193 0
173 195 0
173 195 0
174 196 0
170 193 0
171 194 0
175 197 0
172 195 0
172 195 0
174 196 0
172 195 0
171 194 0
174 197 0
173 195 0
174 196 0
174 196 0
171 192 0
174 196 0
170 193 0
171 193 0
174 195 0
171 193 0
178 198 0
172 195 0
169 191 0
173 194 0
170 192 0
176 197 0
170 191 0
172 194 0
173 196 0
172 194 0
176 197 0
178 199 0
171 192 0
175 196 0
171 192 0
174 195 0
171 193 0
169 191 0
171 193 0
173 193 0
172 193 0
169 191 0
173 195 0
172 193 0
167 189 0
166 187 0
169 190 0
172 192 0
173 193 0
172 193 0
171 191 0
170 192 0
168 189 0
165 186 0
168 190 0
164 186 0
171 192 0
172 193 0
168 190 0
166 188 0
165 187 0
165 186 0
171 192 0
172 193 0
160 182 0
164 186 0
168 190 0
163 184 0
160 182 0
162 184 0
166 189 0
164 186 0
163 185 0
166 188 0
164 186 0
158 179 0
156 178 0
164 185 0
164 186 0
162 184 0
155 177 0
160 182 0
158 181 0
164 186 0
160 183 0
161 184 0
157 179 0
160 181 0
158 180 0
161 183 0
165 188 0
152 174 0
157 179 0
161 183 0
157 180 0
161 183 0
152 173 0
156 179 0
160 182 0
155 177 0
160 182 0
157 179 0
150 170 0
155 178 0
162 184 0
154 176 0
154 176 0
157 179 0
154 176 0
157 178 0
152 174 0
152 174 0
150 171 0
156 179 0
157 180 0
152 175 0
156 178 0
147 169 0
145 166 0
148 170 0
149 171 0
153 175 0
152 174 0
151 173 0
158 179 0
141 164 0
156 178 0
145 167 0
136 157 0
151 171 0
146 169 0
155 177 0
140 162 0
135 156 0
154 175 0
138 160 0
144 166 0
142 164 0
142 163 0
139 161 0
147 168 0
147 169 0
140 162 0
146 168 0
144 166 0
142 164 0
128 151 0
141 163 0
136 157 0
141 163 0
137 158 0
140 162 0
134 154 0
131 152 0
132 153 0
137 159 0
126 147 0
132 152 0
137 158 0
141 161 0
134 153 0
131 151 0
137 157 0
129 148 0
126 146 0
142 162 0
136 157 0
130 150 0
126 146 0
129 149 0
122 139 0
136 153 0
127 145 0
141 161 0
125 145 0
128 146 0
123 142 0
133 154 0
125 144 0
124 143 0
125 142 0
127 146 0
129 148 0
117 135 0
133 153 0
128 145 0
122 140 0
122 140 0
131 149 0
124 143 0
115 134 0
120 138 0
115 133 0
122 139 0
122 140 0
128 145 0
111 128 0
127 145 0
126 144 0
112 131 0
127 146 0
110 126 0
120 137 0
128 147 0
124 142 0
125 143 0
123 140 0
131 150 0
123 141 0
128 145 0
121 138 0
119 137 0
129 149 0
137 156 0
118 136 0
127 145 0
130 148 0
127 145 0
132 151 0
134 152 0
139 156 0
135 152 0
138 156 0
130 146 0
140 158 0
127 143 0
121 135 0
136 154 0
137 155 0
130 150 0
115 132 0
130 147 0
136 154 0
135 151 0
130 146 0
140 158 0
132 149 0
128 144 0
130 147 0
130 145 0
127 143 0
128 147 0
131 146 0
141 159 0
129 146 0
136 152 0
132 149 0
134 150 0
144 161 0
138 154 0
130 143 0
142 158 0
139 152 0
137 151 0
129 142 0
139 153 0
130 144 0
130 145 0
125 139 0
127 141 0
139 154 0
135 146 0
124 137 0
134 147 0
137 151 0
130 140 0
128 139 0
130 143 0
130 144 0
135 145 0
125 136 0
137 148 0
137 152 0
126 136 0
128 135 0
130 140 0
135 145 0
135 144 0
138 148 0
132 143 0
133 140 0
130 138 0
134 143 0
134 142 0
128 136 0
130 136 0
134 144 0
137 145 0
138 144 0
132 140 0
125 130 0
128 134 0
124 128 0
122 128 0
116 122 0
133 138 0
121 123 0
125 129 0
134 137 0
111 113 0
124 126 0
131 134 0
125 124 0
125 128 0
136 139 0
125 124 0
121 121 0
126 126 0
124 124 0
119 118 0
128 131 0
119 119 0
123 123 0
117 115 0
125 125 0
117 116 0
118 120 0
131 130 0
117 115 0
128 124 0
129 128 0
122 120 0
124 122 0
125 124 0
130 130 0
127 126 0
128 126 0
124 120 0
132 133 0
133 135 0
133 135 0
127 126 0
128 127 0
129 130 0
133 136 0
138 139 0
118 116 0
138 141 0
131 133 0
133 135 0
133 134 0
140 141 0
137 138 0
140 140 0
138 140 0
143 149 0
143 147 0
139 143 0
148 153 0
139 144 0
143 147 0
150 153 0
141 145 0
150 155 0
146 154 0
145 150 0
156 163 0
147 152 0
152 160 0
143 148 0
151 159 0
152 160 0
164 176 0
163 174 0
150 160 0
153 163 0
150 159 0
155 168 0
151 161 0
156 168 0
155 166 0
158 169 0
157 168 0
164 177 0
159 172 0
161 172 0
156 167 0
164 179 0
153 166 0
157 170 0
160 174 0
160 175 0
162 175 0
174 197 0
172 196 0
170 194 0
174 198 0
174 196 0
174 197 0
172 194 0
173 196 0
173 196 0
172 195 0
175 197 0
173 196 0
172 195 0
175 198 0
171 194 0
171 193 0
172 195 0
172 194 0
173 195 0
174 197 0
173 196 0
170 191 0
175 197 0
174 196 0
174 196 0
170 192 0
173 195 0
171 194 0
172 193 0
173 194 0
171 193 0
172 194 0
174 196 0
171 193 0
172 194 0
176 197 0
171 193 0
173 195 0
176 198 0
174 195 0
173 194 0
174 195 0
174 196 0
171 193 0
175 196 0
172 194 0
176 197 0
169 190 0
173 194 0
174 195 0
173 194 0
174 195 0
164 186 0
172 193 0
172 193 0
173 193 0
173 194 0
172 193 0
169 192 0
174 195 0
171 191 0
173 194 0
168 190 0
172 193 0
165 187 0
177 198 0
170 191 0
166 188 0
170 190 0
172 193 0
166 188 0
169 192 0
167 188 0
167 188 0
168 189 0
170 191 0
162 185 0
166 187 0
167 187 0
167 188 0
162 183 0
163 185 0
166 187 0
163 186 0
158 181 0
161 183 0
165 187 0
163 185 0
161 183 0
163 186 0
164 186 0
160 182 0
169 190 0
163 185 0
160 182 0
162 184 0
160 183 0
159 180 0
157 179 0
163 185 0
159 181 0
167 189 0
158 180 0
156 178 0
158 181 0
159 182 0
158 181 0
159 182 0
162 184 0
156 179 0
159 180 0
152 175 0
160 183 0
152 175 0
155 176 0
155 178 0
161 183 0
153 176 0
152 175 0
159 181 0
157 180 0
158 181 0
159 181 0
151 172 0
155 178 0
158 180 0
153 175 0
158 180 0
150 172 0
153 175 0
153 175 0
154 176 0
144 166 0
157 179 0
159 180 0
146 168 0
151 173 0
149 172 0
149 171 0
147 169 0
149 171 0
156 177 0
156 179 0
146 167 0
148 170 0
146 169 0
147 169 0
135 156 0
140 163 0
150 172 0
151 173 0
149 170 0
147 168 0
155 176 0
147 169 0
139 159 0
150 171 0
141 163 0
150 172 0
144 165 0
149 171 0
131 152 0
146 167 0
135 156 0
143 162 0
141 163 0
145 166 0
138 159 0
143 165 0
129 150 0
145 165 0
129 149 0
144 164 0
141 162 0
143 164 0
124 145 0
131 151 0
126 146 0
133 153 0
133 154 0
132 151 0
136 157 0
127 148 0
139 159 0
126 145 0
135 155 0
139 159 0
140 160 0
136 157 0
140 159 0
129 148 0
138 157 0
135 155 0
128 148 0
124 143 0
128 148 0
123 142 0
125 144 0
124 142 0
126 145 0
122 139 0
121 140 0
126 145 0
127 145 0
124 142 0
125 143 0
127 146 0
119 137 0
133 152 0
120 141 0
115 133 0
125 144 0
132 151 0
123 142 0
130 149 0
123 142 0
126 143 0
124 143 0
136 155 0
117 134 0
140 157 0
128 147 0
131 150 0
124 142 0
125 144 0
130 149 0
130 149 0
120 136 0
122 140 0
123 142 0
135 154 0
121 138 0
129 148 0
134 152 0
132 149 0
125 141 0
128 145 0
133 152 0
126 144 0
134 153 0
131 149 0
126 141 0
135 152 0
131 144 0
138 155 0
121 139 0
130 150 0
132 149 0
128 145 0
122 136 0
132 147 0
126 142 0
130 147 0
134 149 0
134 152 0
142 159 0
129 146 0
128 144 0
132 150 0
130 147 0
130 143 0
130 148 0
135 152 0
128 142 0
134 152 0
142 160 0
142 158 0
129 147 0
139 156 0
143 160 0
132 147 0
135 148 0
130 145 0
122 135 0
134 149 0
132 146 0
127 140 0
141 155 0
133 147 0
144 157 0
122 134 0
144 158 0
123 138 0
133 147 0
135 148 0
124 135 0
139 153 0
128 138 0
132 142 0
130 141 0
134 147 0
132 142 0
122 133 0
134 147 0
131 139 0
131 139 0
128 139 0
135 144 0
134 143 0
131 141 0
128 136 0
137 146 0
134 140 0
131 138 0
135 142 0
134 140 0
133 140 0
133 139 0
124 130 0
126 131 0
125 128 0
123 128 0
119 125 0
123 125 0
129 133 0
128 131 0
132 137 0
135 139 0
133 138 0
131 135 0
119 123 0
125 127 0
122 123 0
135 138 0
116 118 0
119 118 0
129 132 0
123 123 0
124 123 0
118 117 0
119 117 0
128 130 0
119 121 0
123 122 0
119 117 0
131 131 0
123 123 0
127 126 0
130 130 0
129 131 0
128 129 0
120 116 0
122 122 0
126 125 0
143 145 0
125 122 0
134 134 0
136 138 0
131 133 0
130 130 0
133 131 0
128 130 0
135 135 0
137 139 0
131 129 0
141 143 0
138 142 0
135 137 0
126 126 0
139 143 0
131 133 0
136 142 0
138 139 0
150 152 0
139 142 0
142 144 0
140 146 0
143 145 0
134 136 0
148 156 0
145 151 0
145 150 0
147 156 0
158 170 0
147 152 0
156 165 0
156 164 0
152 161 0
150 158 0
151 162 0
149 160 0
150 160 0
154 163 0
157 166 0
158 170 0
154 164 0
156 167 0
157 169 0
159 168 0
162 176 0
158 168 0
156 168 0
158 172 0
153 165 0
159 174 0
150 163 0
162 175 0
163 178 0
163 176 0
161 178 0
174 196 0
176 198 0
171 194 0
173 196 0
169 192 0
173 196 0
174 196 0
173 195 0
174 196 0
176 198 0
171 194 0
173 195 0
168 190 0
175 198 0
173 195 0
171 193 0
174 197 0
173 195 0
175 197 0
175 197 0
172 194 0
175 197 0
171 194 0
170 193 0
172 194 0
176 198 0
174 196 0
174 196 0
170 192 0
170 193 0
175 196 0
171 193 0
171 193 0
172 194 0
171 193 0
176 197 0
172 194 0
171 193 0
172 194 0
171 193 0
171 193 0
175 197 0
176 197 0
172 193 0
173 194 0
169 191 0
173 194 0
168 188 0
169 190 0
175 196 0
174 195 0
170 193 0
175 196 0
173 194 0
167 189 0
173 194 0
174 195 0
172 192 0
173 194 0
171 192 0
170 192 0
167 187 0
170 192 0
167 189 0
169 191 0
170 190 0
169 190 0
167 189 0
173 194 0
169 190 0
168 190 0
165 187 0
167 188 0
162 184 0
163 184 0
164 187 0
164 186 0
168 189 0
167 189 0
167 189 0
160 181 0
165 186 0
166 188 0
165 187 0
162 183 0
165 187 0
156 178 0
169 190 0
161 184 0
168 190 0
161 183 0
164 186 0
162 184 0
162 183 0
162 184 0
161 182 0
162 185 0
161 184 0
164 186 0
162 184 0
152 174 0
158 179 0
160 183 0
158 181 0
160 182 0
161 183 0
158 180 0
164 186 0
158 180 0
155 178 0
157 179 0
165 187 0
154 176 0
160 182 0
156 179 0
162 184 0
156 179 0
148 170 0
160 184 0
152 174 0
156 178 0
147 170 0
159 181 0
155 177 0
151 174 0
154 177 0
163 186 0
155 178 0
160 183 0
150 172 0
150 173 0
152 174 0
148 172 0
148 170 0
154 176 0
147 169 0
148 170 0
158 180 0
153 175 0
142 164 0
148 171 0
155 176 0
154 176 0
151 173 0
153 175 0
150 173 0
147 168 0
134 154 0
149 169 0
156 178 0
141 163 0
142 163 0
148 170 0
148 170 0
145 166 0
146 168 0
146 168 0
146 167 0
140 161 0
138 159 0
148 170 0
141 162 0
132 153 0
142 163 0
144 165 0
133 154 0
132 153 0
142 163 0
139 161 0
140 160 0
137 157 0
149 170 0
134 155 0
139 159 0
143 165 0
143 163 0
127 147 0
135 157 0
135 156 0
137 159 0
141 161 0
130 149 0
135 154 0
123 144 0
136 157 0
142 162 0
128 149 0
132 152 0
133 154 0
135 154 0
133 154 0
127 147 0
126 146 0
128 147 0
130 150 0
136 156 0
126 146 0
129 147 0
130 147 0
131 150 0
131 150 0
137 156 0
132 150 0
124 144 0
130 151 0
131 149 0
134 153 0
132 151 0
121 140 0
121 138 0
124 144 0
134 154 0
134 153 0
132 153 0
119 137 0
136 156 0
127 145 0
135 153 0
124 144 0
128 147 0
129 148 0
132 151 0
136 155 0
126 144 0
117 134 0
134 152 0
136 155 0
141 159 0
129 147 0
128 146 0
134 154 0
131 149 0
121 140 0
130 149 0
125 144 0
126 143 0
131 151 0
136 155 0
133 151 0
134 152 0
124 141 0
129 147 0
144 163 0
136 154 0
128 145 0
131 148 0
132 151 0
140 158 0
124 141 0
133 151 0
139 156 0
140 157 0
137 154 0
137 152 0
138 154 0
137 154 0
132 149 0
130 147 0
136 152 0
138 154 0
129 144 0
137 153 0
131 146 0
138 157 0
133 147 0
135 152 0
140 158 0
144 159 0
147 164 0
134 148 0
133 149 0
131 146 0
134 146 0
129 144 0
132 145 0
137 152 0
131 148 0
138 152 0
139 153 0
139 152 0
137 149 0
133 145 0
135 151 0
130 144 0
141 154 0
125 139 0
125 136 0
132 144 0
124 133 0
136 150 0
134 145 0
140 151 0
135 146 0
137 149 0
132 142 0
135 145 0
134 144 0
130 140 0
131 137 0
131 142 0
129 139 0
138 147 0
134 142 0
128 137 0
132 140 0
134 144 0
138 146 0
129 136 0
120 128 0
128 135 0
132 139 0
126 132 0
127 131 0
131 135 0
127 132 0
122 125 0
130 136 0
132 136 0
129 135 0
131 132 0
137 140 0
132 138 0
122 124 0
113 113 0
126 127 0
126 129 0
136 140 0
128 131 0
124 128 0
128 130 0
121 120 0
130 132 0
133 136 0
141 144 0
126 125 0
131 131 0
129 129 0
134 140 0
130 131 0
125 125 0
126 126 0
142 144 0
134 132 0
128 130 0
138 137 0
136 133 0
129 128 0
132 131 0
125 126 0
131 132 0
131 133 0
134 137 0
133 132 0
135 137 0
138 137 0
136 136 0
133 137 0
139 145 0
132 133 0
139 142 0
145 146 0
131 130 0
136 141 0
134 135 0
140 143 0
143 149 0
141 146 0
150 157 0
149 153 0
145 150 0
146 151 0
145 151 0
147 154 0
147 152 0
149 154 0
155 162 0
154 161 0
143 150 0
158 166 0
153 162 0
150 159 0
152 163 0
156 166 0
155 167 0
159 170 0
154 163 0
160 170 0
159 171 0
155 165 0
156 167 0
160 174 0
155 166 0
155 167 0
154 166 0
158 172 0
165 175 0
161 173 0
162 175 0
160 173 0
161 173 0
172 195 0
174 197 0
172 195 0
174 197 0
171 194 0
172 195 0
171 193 0
171 194 0
173 196 0
171 194 0
174 197 0
171 194 0
174 196 0
175 197 0
175 196 0
174 197 0
171 193 0
173 195 0
173 195 0
174 196 0
173 195 0
174 196 0
174 197 0
171 193 0
175 196 0
171 193 0
173 195 0
174 196 0
172 194 0
174 195 0
174 196 0
174 196 0
174 197 0
172 194 0
173 195 0
174 195 0
174 196 0
174 196 0
175 196 0
174 196 0
176 198 0
169 191 0
171 192 0
172 194 0
173 194 0
173 195 0
168 190 0
173 193 0
173 195 0
171 192 0
171 192 0
173 195 0
171 192 0
169 191 0
172 194 0
173 194 0
167 189 0
171 192 0
168 189 0
174 195 0
174 194 0
171 192 0
170 191 0
170 191 0
167 188 0
167 189 0
171 192 0
167 189 0
165 186 0
169 190 0
172 193 0
166 188 0
163 185 0
167 188 0
167 189 0
167 188 0
164 186 0
163 185 0
168 191 0
167 189 0
167 189 0
170 192 0
162 184 0
163 185 0
169 190 0
163 185 0
158 180 0
161 184 0
163 186 0
165 187 0
166 189 0
164 186 0
163 185 0
163 185 0
165 187 0
165 187 0
167 189 0
164 186 0
157 180 0
159 181 0
165 187 0
161 184 0
162 185 0
163 185 0
157 179 0
160 182 0
154 177 0
158 181 0
156 179 0
162 183 0
158 180 0
164 186 0
157 180 0
168 191 0
155 177 0
158 180 0
151 174 0
158 181 0
162 184 0
148 172 0
155 177 0
154 176 0
159 181 0
152 175 0
161 184 0
153 176 0
161 183 0
146 169 0
151 171 0
154 177 0
147 169 0
151 173 0
159 181 0
154 177 0
154 177 0
153 176 0
143 166 0
147 169 0
149 171 0
152 174 0
152 174 0
150 172 0
146 168 0
148 171 0
155 178 0
144 167 0
151 172 0
149 170 0
145 166 0
149 171 0
149 171 0
147 169 0
147 168 0
143 165 0
146 168 0
145 167 0
142 163 0
142 164 0
144 165 0
139 162 0
149 171 0
142 163 0
144 165 0
148 170 0
136 156 0
132 152 0
136 158 0
143 164 0
139 160 0
137 159 0
141 161 0
128 149 0
129 149 0
137 158 0
139 161 0
137 158 0
144 165 0
139 159 0
137 157 0
134 156 0
132 154 0
141 161 0
138 158 0
133 153 0
135 155 0
138 158 0
137 157 0
135 155 0
126 145 0
135 155 0
136 156 0
134 155 0
134 153 0
132 151 0
122 142 0
133 152 0
131 151 0
134 153 0
128 148 0
135 155 0
137 157 0
126 145 0
134 154 0
128 147 0
135 155 0
127 145 0
129 149 0
133 153 0
124 142 0
122 140 0
128 147 0
132 152 0
128 148 0
136 154 0
139 159 0
134 153 0
140 159 0
140 159 0
137 155 0
127 146 0
117 134 0
141 160 0
128 146 0
131 149 0
134 152 0
137 157 0
119 137 0
134 152 0
133 152 0
133 152 0
130 146 0
135 153 0
131 151 0
122 141 0
137 155 0
125 142 0
131 148 0
134 150 0
143 161 0
125 141 0
129 148 0
137 154 0
130 146 0
142 160 0
129 147 0
132 148 0
132 150 0
137 155 0
141 158 0
134 149 0
136 152 0
138 153 0
128 145 0
139 156 0
139 156 0
133 150 0
146 162 0
133 149 0
141 157 0
130 145 0
139 156 0
130 146 0
133 150 0
142 158 0
134 149 0
127 144 0
138 155 0
129 143 0
142 158 0
137 153 0
140 153 0
136 152 0
124 139 0
130 144 0
143 158 0
141 156 0
133 147 0
136 152 0
137 152 0
142 156 0
133 145 0
144 157 0
129 144 0
137 152 0
131 143 0
143 159 0
130 140 0
133 148 0
137 149 0
139 151 0
138 150 0
142 152 0
124 133 0
137 147 0
139 152 0
126 137 0
124 136 0
131 142 0
131 140 0
138 150 0
131 140 0
137 147 0
138 148 0
139 149 0
126 132 0
135 143 0
137 145 0
125 132 0
140 146 0
126 133 0
137 143 0
146 155 0
119 125 0
138 144 0
131 138 0
133 135 0
139 144 0
133 137 0
135 141 0
133 137 0
131 135 0
133 138 0
128 133 0
130 130 0
122 125 0
133 135 0
133 136 0
124 126 0
136 138 0
124 125 0
135 135 0
132 134 0
119 120 0
117 122 0
133 135 0
134 136 0
127 130 0
133 136 0
125 127 0
122 119 0
130 133 0
128 128 0
125 125 0
130 132 0
126 126 0
131 133 0
133 136 0
136 140 0
132 133 0
128 127 0
136 137 0
129 127 0
129 131 0
141 145 0
134 133 0
129 130 0
139 143 0
134 137 0
132 135 0
133 136 0
142 146 0
140 144 0
138 138 0
136 137 0
138 140 0
143 147 0
142 144 0
146 148 0
147 152 0
149 153 0
149 154 0
146 151 0
143 146 0
147 155 0
150 154 0
145 149 0
152 159 0
154 161 0
142 151 0
148 155 0
148 152 0
154 163 0
157 165 0
154 162 0
151 159 0
160 174 0
157 168 0
153 160 0
156 165 0
156 166 0
159 172 0
157 170 0
160 172 0
154 164 0
158 171 0
152 161 0
157 170 0
161 175 0
162 175 0
161 176 0
175 197 0
175 197 0
173 196 0
174 196 0
172 195 0
175 197 0
175 196 0
177 199 0
173 195 0
175 198 0
174 196 0
174 196 0
169 193 0
172 195 0
174 196 0
173 195 0
174 196 0
170 191 0
173 195 0
172 194 0
171 193 0
173 196 0
176 198 0
175 197 0
169 192 0
172 194 0
171 194 0
173 195 0
174 196 0
171 193 0
173 195 0
173 195 0
173 194 0
174 196 0
173 194 0
170 192 0
173 195 0
172 194 0
176 197 0
176 197 0
167 189 0
167 188 0
173 194 0
172 192 0
171 192 0
175 195 0
171 191 0
168 189 0
168 190 0
169 190 0
167 187 0
173 195 0
168 189 0
170 191 0
167 187 0
167 190 0
174 195 0
169 190 0
165 187 0
169 191 0
166 189 0
166 188 0
167 188 0
167 188 0
168 190 0
164 186 0
168 189 0
169 191 0
164 186 0
165 187 0
165 187 0
165 187 0
168 189 0
166 188 0
163 185 0
164 187 0
159 182 0
165 186 0
165 186 0
163 185 0
162 184 0
165 187 0
162 185 0
164 186 0
161 183 0
165 187 0
164 186 0
167 190 0
161 184 0
164 187 0
164 186 0
164 186 0
166 189 0
158 180 0
164 185 0
162 184 0
165 187 0
163 186 0
159 182 0
160 181 0
155 177 0
157 179 0
158 180 0
149 171 0
158 181 0
158 181 0
157 179 0
160 183 0
160 182 0
159 180 0
157 179 0
158 180 0
163 185 0
161 183 0
155 178 0
160 183 0
156 178 0
153 175 0
157 179 0
160 181 0
157 180 0
161 183 0
156 178 0
141 164 0
163 186 0
148 171 0
158 181 0
155 177 0
152 174 0
160 183 0
149 171 0
156 178 0
156 178 0
153 175 0
150 172 0
157 179 0
151 173 0
157 179 0
153 176 0
139 161 0
153 175 0
155 179 0
147 169 0
145 167 0
145 167 0
144 166 0
152 174 0
147 170 0
146 168 0
150 172 0
149 171 0
150 171 0
154 176 0
142 164 0
139 160 0
142 163 0
138 160 0
148 170 0
137 159 0
142 164 0
144 166 0
144 165 0
145 166 0
140 161 0
133 154 0
145 167 0
137 158 0
141 162 0
139 160 0
138 159 0
135 156 0
137 158 0
132 153 0
139 161 0
144 166 0
144 166 0
137 159 0
135 156 0
133 155 0
141 163 0
138 158 0
142 163 0
143 164 0
144 166 0
137 158 0
135 156 0
129 149 0
129 149 0
135 157 0
133 154 0
144 165 0
127 147 0
143 164 0
138 157 0
130 148 0
137 157 0
136 156 0
133 153 0
136 157 0
136 155 0
133 153 0
137 157 0
138 156 0
134 152 0
134 153 0
128 146 0
135 155 0
132 152 0
129 148 0
134 152 0
126 146 0
136 155 0
134 153 0
134 153 0
133 153 0
136 153 0
119 137 0
131 150 0
120 138 0
128 147 0
140 161 0
123 143 0
129 148 0
134 152 0
135 155 0
131 150 0
137 154 0
127 145 0
138 158 0
120 139 0
129 148 0
136 154 0
134 152 0
132 151 0
126 145 0
131 150 0
143 162 0
134 151 0
134 152 0
134 152 0
124 141 0
129 146 0
138 156 0
134 153 0
128 146 0
132 150 0
138 155 0
131 149 0
140 159 0
129 145 0
133 148 0
131 148 0
138 155 0
140 157 0
138 156 0
136 153 0
126 143 0
140 156 0
134 151 0
128 144 0
143 162 0
139 155 0
135 151 0
142 158 0
131 147 0
138 154 0
143 157 0
136 153 0
130 145 0
124 139 0
145 160 0
128 143 0
138 154 0
132 147 0
143 159 0
140 155 0
135 150 0
135 149 0
126 141 0
131 146 0
136 149 0
142 156 0
129 143 0
137 150 0
136 151 0
142 155 0
140 151 0
140 154 0
125 135 0
135 144 0
137 150 0
136 147 0
134 145 0
142 153 0
135 148 0
136 150 0
141 154 0
132 141 0
128 140 0
130 141 0
135 148 0
142 155 0
146 158 0
138 149 0
130 142 0
136 147 0
142 154 0
141 148 0
129 137 0
133 141 0
138 147 0
137 145 0
127 133 0
137 145 0
137 141 0
121 128 0
128 137 0
135 142 0
127 132 0
132 137 0
133 137 0
134 138 0
130 136 0
135 141 0
138 143 0
138 142 0
129 130 0
129 134 0
124 124 0
130 134 0
113 114 0
127 127 0
135 142 0
128 131 0
127 129 0
131 131 0
132 136 0
132 134 0
131 133 0
124 123 0
134 136 0
130 131 0
135 138 0
135 138 0
131 131 0
132 132 0
126 126 0
126 127 0
137 142 0
139 139 0
135 136 0
141 145 0
142 146 0
136 139 0
136 138 0
138 141 0
136 140 0
135 137 0
140 142 0
138 138 0
139 142 0
145 150 0
145 148 0
151 155 0
124 126 0
142 146 0
141 141 0
136 137 0
143 146 0
145 148 0
143 144 0
144 149 0
146 150 0
147 152 0
148 154 0
148 155 0
140 144 0
145 152 0
151 159 0
145 151 0
143 149 0
143 149 0
149 156 0
154 162 0
158 167 0
156 167 0
153 164 0
154 165 0
152 160 0
153 163 0
159 171 0
157 169 0
157 169 0
157 170 0
152 164 0
158 171 0
152 163 0
159 171 0
159 170 0
161 172 0
172 195 0
173 196 0
174 197 0
168 192 0
172 195 0
172 195 0
173 196 0
169 192 0
170 193 0
171 194 0
171 193 0
172 193 0
173 195 0
173 196 0
173 196 0
177 199 0
173 195 0
173 196 0
174 197 0
169 192 0
173 196 0
169 192 0
171 193 0
174 196 0
173 196 0
169 191 0
173 194 0
172 194 0
177 199 0
176 198 0
174 195 0
175 197 0
173 196 0
169 191 0
169 191 0
171 193 0
174 196 0
173 195 0
171 192 0
174 195 0
172 195 0
168 189 0
167 188 0
174 196 0
169 191 0
170 192 0
173 194 0
167 190 0
170 192 0
168 189 0
170 191 0
171 193 0
168 189 0
170 192 0
166 188 0
169 190 0
169 192 0
167 188 0
169 191 0
175 196 0
165 187 0
171 193 0
168 190 0
168 189 0
165 187 0
166 188 0
169 191 0
170 191 0
165 188 0
164 186 0
162 184 0
163 185 0
167 189 0
168 189 0
165 187 0
166 188 0
157 180 0
167 188 0
160 182 0
165 187 0
171 194 0
164 185 0
165 188 0
160 182 0
169 192 0
161 183 0
160 183 0
164 186 0
158 181 0
159 181 0
165 187 0
165 187 0
161 183 0
161 183 0
163 186 0
158 181 0
156 177 0
163 185 0
163 185 0
159 181 0
162 184 0
154 177 0
156 178 0
154 177 0
156 179 0
156 178 0
158 181 0
161 184 0
161 183 0
162 184 0
156 179 0
158 180 0
148 170 0
154 177 0
160 182 0
158 181 0
154 177 0
145 167 0
155 178 0
157 180 0
151 173 0
151 173 0
153 176 0
158 181 0
150 172 0
161 183 0
159 181 0
156 178 0
155 177 0
158 182 0
149 172 0
157 179 0
156 178 0
150 173 0
145 168 0
156 178 0
159 181 0
152 175 0
147 169 0
148 169 0
155 178 0
155 177 0
155 176 0
156 178 0
147 169 0
151 172 0
149 171 0
149 172 0
146 168 0
150 172 0
144 167 0
149 171 0
150 171 0
142 163 0
147 169 0
149 170 0
149 171 0
145 166 0
143 165 0
149 171 0
139 161 0
148 170 0
143 166 0
145 166 0
140 162 0
148 168 0
143 164 0
137 158 0
142 165 0
138 159 0
138 158 0
143 164 0
148 168 0
141 161 0
139 160 0
139 159 0
137 157 0
139 159 0
136 156 0
137 159 0
138 159 0
127 148 0
127 147 0
136 157 0
134 155 0
132 151 0
135 156 0
129 151 0
129 149 0
125 146 0
135 156 0
140 160 0
134 153 0
131 152 0
152 172 0
131 152 0
127 147 0
134 154 0
139 160 0
134 155 0
133 153 0
135 156 0
126 146 0
137 158 0
136 157 0
134 153 0
138 158 0
139 158 0
143 164 0
130 151 0
126 146 0
143 164 0
128 148 0
120 139 0
134 156 0
135 154 0
131 150 0
142 162 0
141 160 0
127 147 0
126 146 0
135 155 0
121 140 0
120 139 0
136 153 0
136 155 0
131 150 0
143 162 0
142 161 0
137 154 0
124 144 0
133 152 0
137 156 0
139 158 0
131 151 0
130 147 0
134 152 0
139 157 0
144 165 0
145 163 0
137 155 0
122 139 0
135 154 0
136 154 0
135 153 0
135 153 0
127 145 0
126 143 0
130 149 0
130 148 0
133 151 0
140 158 0
135 152 0
140 157 0
136 155 0
141 158 0
131 147 0
148 166 0
135 152 0
140 158 0
134 152 0
126 143 0
135 150 0
143 158 0
143 160 0
140 156 0
140 156 0
143 159 0
132 149 0
141 157 0
139 155 0
129 146 0
134 151 0
141 155 0
136 150 0
139 153 0
136 152 0
133 148 0
138 155 0
139 151 0
136 148 0
140 155 0
141 158 0
131 146 0
136 151 0
137 153 0
142 157 0
130 141 0
134 146 0
139 153 0
140 155 0
136 149 0
125 136 0
138 150 0
144 158 0
141 156 0
135 144 0
131 144 0
137 145 0
139 149 0
130 140 0
139 151 0
131 141 0
135 145 0
143 154 0
139 149 0
137 149 0
132 141 0
138 145 0
129 136 0
134 143 0
136 142 0
140 151 0
131 137 0
126 132 0
132 138 0
141 149 0
129 133 0
134 138 0
131 137 0
138 146 0
137 146 0
128 135 0
130 135 0
136 140 0
136 141 0
134 137 0
128 135 0
144 148 0
130 134 0
131 133 0
132 137 0
132 138 0
137 142 0
137 141 0
137 139 0
130 133 0
137 141 0
132 133 0
128 132 0
136 140 0
137 140 0
141 146 0
135 137 0
131 134 0
135 136 0
133 138 0
139 144 0
137 139 0
135 138 0
135 140 0
133 136 0
125 124 0
136 138 0
128 128 0
139 142 0
134 135 0
138 141 0
130 133 0
141 142 0
139 141 0
145 150 0
142 145 0
135 137 0
134 137 0
139 143 0
138 141 0
142 147 0
139 142 0
151 157 0
143 146 0
146 151 0
148 156 0
142 147 0
148 154 0
140 146 0
141 149 0
147 154 0
147 155 0
155 165 0
157 167 0
148 155 0
151 160 0
153 161 0
157 166 0
155 165 0
152 161 0
146 155 0
152 161 0
157 167 0
150 160 0
157 170 0
157 169 0
150 159 0
162 173 0
157 167 0
160 172 0
156 168 0
157 168 0
156 168 0
175 198 0
173 195 0
173 196 0
173 196 0
173 196 0
171 194 0
170 192 0
171 193 0
171 194 0
172 195 0
174 196 0
173 195 0
172 195 0
171 194 0
172 195 0
173 195 0
175 197 0
174 195 0
172 194 0
169 192 0
172 194 0
175 197 0
173 196 0
171 193 0
171 193 0
176 197 0
174 196 0
171 193 0
166 188 0
175 196 0
173 194 0
173 195 0
173 195 0
171 194 0
168 190 0
171 193 0
175 197 0
168 189 0
170 192 0
167 189 0
171 192 0
176 197 0
171 192 0
175 196 0
171 193 0
176 198 0
171 193 0
172 194 0
171 192 0
172 194 0
171 193 0
168 190 0
169 191 0
173 195 0
169 191 0
170 192 0
172 194 0
167 189 0
166 188 0
172 193 0
166 189 0
164 186 0
167 188 0
167 190 0
163 185 0
169 190 0
166 189 0
167 189 0
162 184 0
162 185 0
166 188 0
168 190 0
166 188 0
163 185 0
167 190 0
165 188 0
165 188 0
163 185 0
163 185 0
167 188 0
163 185 0
159 181 0
166 189 0
159 181 0
161 183 0
161 183 0
162 184 0
154 176 0
160 182 0
161 183 0
164 185 0
165 186 0
165 188 0
159 182 0
156 178 0
156 179 0
158 181 0
157 179 0
161 184 0
156 179 0
159 181 0
161 183 0
157 181 0
160 182 0
163 185 0
161 183 0
164 187 0
158 180 0
161 183 0
155 178 0
155 177 0
152 175 0
163 186 0
153 175 0
152 174 0
155 178 0
148 169 0
159 182 0
156 177 0
158 180 0
151 174 0
159 182 0
161 184 0
150 172 0
159 181 0
155 177 0
152 175 0
156 178 0
153 174 0
159 181 0
156 177 0
151 173 0
149 170 0
155 176 0
152 174 0
147 169 0
149 171 0
154 177 0
163 185 0
154 176 0
157 179 0
156 178 0
153 175 0
148 171 0
145 168 0
154 175 0
154 175 0
143 164 0
143 165 0
144 165 0
154 175 0
149 170 0
147 168 0
147 169 0
144 166 0
145 167 0
145 167 0
147 169 0
152 174 0
147 169 0
142 164 0
153 175 0
140 161 0
149 171 0
144 164 0
134 155 0
153 174 0
153 175 0
144 165 0
149 170 0
135 155 0
140 161 0
139 160 0
145 167 0
145 166 0
140 161 0
143 162 0
140 161 0
144 165 0
141 162 0
140 161 0
135 156 0
136 156 0
136 156 0
138 158 0
135 156 0
120 139 0
144 164 0
130 151 0
141 161 0
144 165 0
131 152 0
124 145 0
129 150 0
132 152 0
141 161 0
134 155 0
131 150 0
136 155 0
135 156 0
132 153 0
141 161 0
128 148 0
136 155 0
139 160 0
126 145 0
138 158 0
139 157 0
137 156 0
139 159 0
135 155 0
133 152 0
136 157 0
138 157 0
145 166 0
121 139 0
128 148 0
123 142 0
130 150 0
129 148 0
134 154 0
134 153 0
137 158 0
140 160 0
134 153 0
136 154 0
136 157 0
149 170 0
129 146 0
132 150 0
130 148 0
138 158 0
135 154 0
131 148 0
132 150 0
126 145 0
140 159 0
135 154 0
130 148 0
127 145 0
141 161 0
131 149 0
142 160 0
140 159 0
120 136 0
150 170 0
144 163 0
132 150 0
121 139 0
127 143 0
127 146 0
138 156 0
132 148 0
132 151 0
131 148 0
137 154 0
135 152 0
142 160 0
143 159 0
134 148 0
137 154 0
146 164 0
133 149 0
138 156 0
121 134 0
141 157 0
136 154 0
135 153 0
147 163 0
131 147 0
139 158 0
144 160 0
132 148 0
135 149 0
143 159 0
132 146 0
138 152 0
127 141 0
144 159 0
143 159 0
147 163 0
142 158 0
139 153 0
138 153 0
136 150 0
138 153 0
123 139 0
137 150 0
141 158 0
132 146 0
139 152 0
136 146 0
140 150 0
143 156 0
139 152 0
123 133 0
137 149 0
139 150 0
133 144 0
137 152 0
129 138 0
138 148 0
134 146 0
137 150 0
135 147 0
133 143 0
135 143 0
139 150 0
133 144 0
133 145 0
142 153 0
131 143 0
134 143 0
134 144 0
133 140 0
135 141 0
126 136 0
137 143 0
140 148 0
135 143 0
138 145 0
137 143 0
141 150 0
133 139 0
137 144 0
135 138 0
136 142 0
139 147 0
125 129 0
141 148 0
135 141 0
133 136 0
133 137 0
148 156 0
128 131 0
139 141 0
134 139 0
127 131 0
138 139 0
137 141 0
140 145 0
138 142 0
134 139 0
137 138 0
135 140 0
138 143 0
133 135 0
129 134 0
133 138 0
134 136 0
134 135 0
134 137 0
141 141 0
138 141 0
134 135 0
146 150 0
144 148 0
147 150 0
136 139 0
134 137 0
140 141 0
137 141 0
147 152 0
143 147 0
137 140 0
146 151 0
142 147 0
144 152 0
139 142 0
142 150 0
146 149 0
153 159 0
152 157 0
145 150 0
146 150 0
148 155 0
147 155 0
148 154 0
151 158 0
157 165 0
151 158 0
146 153 0
154 163 0
149 154 0
146 152 0
156 164 0
153 163 0
157 163 0
152 163 0
154 163 0
157 169 0
150 159 0
154 166 0
153 163 0
154 161 0
157 169 0
155 170 0
155 164 0
160 173 0
158 170 0
171 194 0
172 195 0
174 197 0
174 197 0
170 193 0
172 195 0
171 194 0
174 196 0
171 194 0
170 192 0
172 195 0
173 196 0
174 197 0
174 197 0
174 196 0
174 196 0
174 196 0
175 197 0
173 196 0
170 192 0
171 193 0
170 192 0
172 194 0
175 197 0
173 195 0
173 194 0
173 194 0
172 194 0
176 197 0
172 194 0
170 192 0
168 190 0
171 193 0
177 198 0
174 195 0
170 192 0
171 193 0
169 191 0
173 194 0
174 195 0
172 194 0
171 193 0
174 197 0
168 190 0
171 192 0
168 190 0
170 191 0
171 193 0
171 192 0
174 196 0
168 189 0
168 189 0
169 191 0
168 190 0
175 196 0
166 188 0
173 195 0
166 188 0
172 194 0
168 190 0
166 188 0
166 188 0
167 189 0
167 190 0
167 189 0
167 188 0
171 194 0
168 191 0
162 184 0
165 186 0
165 187 0
171 193 0
163 185 0
171 193 0
162 184 0
166 189 0
165 187 0
167 190 0
160 183 0
160 181 0
164 185 0
164 185 0
161 183 0
158 179 0
165 188 0
164 186 0
163 185 0
159 181 0
163 185 0
159 182 0
161 184 0
160 182 0
158 180 0
162 185 0
159 183 0
157 179 0
162 184 0
159 182 0
164 186 0
159 181 0
165 187 0
154 177 0
159 182 0
156 179 0
159 182 0
153 175 0
161 182 0
160 183 0
150 172 0
159 182 0
163 185 0
160 182 0
154 177 0
145 166 0
154 176 0
150 171 0
155 177 0
162 185 0
155 177 0
157 180 0
164 186 0
163 186 0
163 185 0
159 181 0
154 177 0
153 176 0
161 184 0
151 174 0
156 178 0
160 182 0
155 177 0
151 174 0
152 175 0
154 176 0
152 174 0
155 178 0
155 177 0
151 173 0
152 173 0
156 179 0
151 174 0
152 175 0
147 169 0
147 170 0
152 174 0
153 175 0
143 165 0
145 166 0
151 172 0
147 170 0
141 163 0
152 175 0
143 164 0
141 162 0
152 175 0
153 176 0
153 175 0
151 172 0
154 176 0
145 166 0
147 168 0
152 174 0
144 166 0
141 162 0
144 165 0
147 168 0
134 154 0
147 169 0
146 167 0
131 152 0
141 161 0
138 160 0
142 163 0
145 166 0
135 156 0
132 153 0
138 158 0
151 172 0
143 164 0
141 162 0
139 160 0
131 153 0
137 157 0
138 159 0
142 163 0
136 156 0
133 153 0
145 166 0
126 148 0
136 156 0
141 162 0
133 154 0
133 154 0
134 155 0
143 162 0
131 151 0
131 151 0
135 155 0
135 155 0
138 159 0
144 164 0
137 156 0
138 159 0
144 164 0
130 150 0
135 155 0
137 158 0
138 157 0
138 159 0
136 156 0
137 157 0
134 152 0
142 162 0
133 153 0
143 163 0
134 154 0
134 153 0
132 151 0
136 157 0
137 156 0
137 157 0
134 154 0
144 165 0
129 149 0
136 154 0
136 155 0
134 153 0
141 162 0
126 146 0
139 159 0
131 150 0
130 150 0
130 149 0
133 151 0
136 155 0
142 162 0
130 148 0
141 159 0
134 152 0
141 159 0
128 146 0
141 159 0
143 162 0
135 153 0
144 162 0
135 152 0
133 152 0
138 155 0
135 152 0
131 149 0
139 157 0
138 157 0
138 155 0
135 154 0
130 147 0
137 156 0
137 156 0
140 157 0
132 148 0
147 167 0
133 151 0
143 160 0
134 153 0
143 160 0
143 159 0
142 160 0
139 158 0
142 157 0
129 145 0
139 156 0
136 152 0
140 157 0
133 148 0
138 155 0
133 149 0
145 164 0
143 158 0
146 163 0
135 149 0
134 148 0
135 152 0
137 152 0
140 156 0
142 159 0
136 151 0
138 153 0
142 158 0
139 155 0
139 151 0
137 151 0
131 142 0
139 152 0
130 144 0
141 154 0
145 160 0
143 157 0
135 147 0
143 158 0
139 150 0
139 151 0
137 149 0
135 148 0
139 152 0
127 141 0
139 150 0
141 154 0
137 145 0
134 142 0
137 146 0
130 141 0
141 150 0
141 155 0
139 150 0
138 150 0
136 144 0
130 138 0
139 150 0
132 142 0
135 144 0
137 145 0
135 143 0
139 149 0
136 145 0
136 145 0
137 143 0
129 136 0
136 147 0
138 144 0
135 141 0
136 142 0
134 139 0
133 141 0
135 140 0
137 143 0
139 146 0
131 134 0
137 142 0
132 136 0
142 145 0
134 137 0
129 131 0
143 147 0
143 148 0
140 146 0
140 143 0
147 150 0
137 143 0
140 146 0
138 145 0
136 138 0
133 134 0
136 137 0
142 146 0
144 150 0
133 138 0
138 140 0
139 143 0
137 140 0
133 137 0
137 140 0
132 133 0
138 146 0
137 143 0
140 143 0
134 135 0
142 146 0
139 142 0
138 141 0
148 151 0
143 148 0
148 155 0
147 154 0
151 155 0
146 154 0
151 158 0
148 154 0
146 153 0
152 160 0
148 152 0
153 162 0
146 152 0
149 157 0
154 162 0
155 164 0
146 153 0
154 164 0
147 155 0
150 158 0
151 159 0
148 157 0
153 160 0
155 167 0
158 166 0
159 170 0
156 166 0
152 160 0
151 162 0
149 159 0
161 174 0
157 169 0
174 196 0
173 195 0
173 196 0
175 197 0
173 196 0
170 193 0
175 197 0
172 194 0
174 196 0
171 194 0
175 196 0
176 198 0
172 195 0
172 195 0
174 196 0
174 196 0
171 193 0
172 195 0
173 195 0
174 195 0
175 196 0
174 197 0
171 193 0
172 193 0
170 192 0
172 194 0
172 195 0
172 193 0
173 195 0
169 193 0
169 192 0
168 191 0
169 191 0
174 195 0
172 194 0
171 193 0
171 193 0
172 193 0
168 190 0
170 191 0
169 191 0
169 192 0
173 195 0
169 191 0
170 192 0
171 193 0
172 194 0
174 195 0
166 188 0
170 193 0
168 189 0
169 191 0
171 193 0
167 189 0
165 187 0
167 188 0
165 187 0
165 187 0
168 190 0
171 192 0
163 185 0
168 190 0
173 194 0
167 190 0
163 185 0
170 192 0
172 194 0
170 192 0
162 184 0
169 192 0
164 186 0
169 191 0
160 183 0
160 182 0
165 188 0
162 184 0
162 185 0
164 186 0
165 187 0
160 182 0
167 190 0
160 182 0
162 184 0
163 185 0
163 185 0
164 186 0
160 182 0
165 188 0
160 182 0
161 183 0
164 186 0
160 183 0
162 185 0
155 176 0
160 183 0
161 184 0
164 187 0
166 188 0
154 178 0
158 181 0
165 188 0
152 176 0
158 181 0
157 180 0
164 188 0
157 179 0
152 174 0
161 184 0
168 189 0
156 178 0
157 179 0
151 174 0
159 182 0
161 183 0
153 176 0
148 170 0
153 175 0
159 181 0
161 183 0
156 178 0
161 184 0
150 173 0
151 174 0
150 171 0
153 176 0
149 171 0
149 171 0
159 180 0
153 175 0
151 174 0
153 175 0
153 175 0
152 174 0
159 182 0
144 166 0
154 176 0
153 175 0
147 169 0
154 177 0
156 179 0
149 171 0
148 169 0
150 172 0
146 169 0
152 175 0
153 175 0
146 168 0
155 179 0
150 173 0
146 168 0
147 170 0
148 169 0
153 175 0
147 168 0
142 163 0
143 165 0
150 173 0
143 164 0
145 167 0
142 162 0
149 170 0
148 170 0
143 165 0
144 166 0
134 154 0
145 167 0
154 177 0
144 165 0
139 160 0
144 166 0
143 164 0
147 169 0
145 165 0
131 152 0
149 172 0
135 157 0
144 166 0
144 165 0
140 162 0
144 165 0
140 161 0
135 155 0
141 162 0
143 165 0
141 161 0
138 158 0
144 164 0
136 157 0
152 174 0
142 161 0
139 161 0
148 169 0
141 160 0
141 161 0
140 161 0
141 160 0
131 151 0
135 156 0
141 161 0
133 153 0
136 157 0
140 160 0
135 155 0
125 145 0
138 159 0
132 153 0
142 162 0
138 159 0
138 157 0
135 154 0
139 160 0
138 158 0
129 148 0
127 145 0
134 154 0
132 152 0
136 155 0
125 144 0
133 153 0
127 148 0
133 152 0
131 150 0
127 145 0
133 151 0
139 158 0
138 157 0
129 151 0
144 163 0
126 144 0
136 156 0
134 154 0
130 149 0
138 157 0
137 156 0
128 146 0
144 164 0
139 159 0
135 152 0
134 154 0
139 158 0
134 153 0
143 163 0
140 157 0
136 154 0
142 161 0
139 158 0
132 150 0
144 162 0
144 161 0
142 162 0
143 161 0
139 157 0
138 156 0
149 169 0
147 164 0
134 151 0
137 155 0
148 165 0
137 154 0
141 157 0
138 157 0
128 146 0
140 158 0
139 156 0
138 152 0
146 164 0
138 153 0
141 159 0
145 163 0
147 163 0
139 157 0
146 161 0
125 141 0
133 150 0
147 166 0
135 153 0
143 158 0
147 164 0
134 151 0
137 152 0
136 152 0
151 168 0
132 146 0
141 153 0
154 170 0
144 160 0
138 155 0
135 150 0
144 157 0
144 160 0
140 155 0
134 147 0
147 162 0
143 158 0
141 155 0
133 147 0
153 167 0
137 148 0
133 145 0
145 159 0
141 153 0
133 140 0
130 140 0
138 149 0
140 151 0
145 156 0
139 151 0
139 152 0
140 150 0
140 153 0
137 149 0
137 148 0
137 147 0
136 147 0
142 153 0
135 143 0
141 148 0
135 144 0
140 150 0
139 145 0
140 149 0
134 144 0
132 139 0
129 140 0
134 142 0
134 139 0
147 156 0
151 158 0
146 153 0
121 128 0
137 145 0
141 148 0
141 145 0
132 138 0
139 144 0
126 130 0
134 139 0
136 143 0
139 147 0
138 143 0
134 140 0
139 143 0
137 142 0
135 137 0
137 140 0
129 133 0
138 142 0
145 150 0
138 143 0
139 142 0
141 148 0
143 146 0
133 136 0
141 143 0
138 141 0
133 136 0
141 147 0
136 141 0
137 140 0
141 145 0
137 141 0
140 142 0
142 146 0
141 145 0
141 145 0
141 146 0
147 153 0
140 144 0
140 145 0
141 147 0
144 152 0
144 149 0
148 154 0
142 145 0
153 161 0
150 158 0
152 158 0
142 147 0
150 155 0
154 162 0
145 150 0
142 146 0
150 158 0
149 156 0
151 162 0
152 162 0
152 161 0
158 168 0
154 156 0
150 159 0
156 167 0
150 160 0
153 161 0
157 169 0
156 164 0
156 167 0
154 165 0
160 170 0
156 166 0
158 167 0
172 195 0
173 196 0
170 193 0
170 193 0
172 195 0
170 192 0
173 194 0
171 195 0
175 198 0
172 194 0
167 189 0
174 197 0
173 195 0
173 195 0
172 194 0
174 197 0
174 195 0
175 197 0
172 194 0
173 195 0
172 195 0
172 194 0
171 194 0
170 193 0
170 192 0
167 190 0
170 192 0
170 192 0
175 196 0
173 195 0
173 195 0
175 197 0
171 193 0
173 195 0
172 195 0
171 193 0
174 195 0
172 193 0
171 193 0
170 191 0
173 193 0
171 193 0
170 193 0
169 192 0
165 188 0
170 192 0
169 191 0
170 191 0
169 191 0
167 189 0
171 193 0
169 192 0
168 189 0
164 186 0
167 189 0
167 189 0
169 190 0
169 192 0
167 190 0
167 189 0
165 188 0
168 189 0
172 194 0
161 183 0
163 186 0
161 183 0
168 190 0
165 187 0
163 185 0
169 191 0
167 189 0
167 190 0
167 189 0
163 185 0
164 185 0
158 180 0
164 186 0
166 188 0
159 181 0
163 186 0
167 191 0
166 188 0
157 179 0
157 180 0
162 185 0
165 187 0
160 183 0
162 185 0
165 187 0
156 178 0
163 184 0
158 180 0
163 186 0
161 184 0
167 191 0
158 181 0
159 181 0
159 181 0
159 182 0
163 186 0
171 193 0
156 179 0
164 186 0
159 182 0
158 181 0
154 177 0
162 185 0
163 185 0
150 173 0
161 183 0
155 178 0
160 183 0
155 177 0
159 183 0
150 173 0
164 187 0
163 185 0
157 179 0
153 175 0
149 172 0
156 179 0
155 177 0
160 182 0
146 168 0
161 183 0
151 174 0
146 168 0
152 175 0
149 172 0
151 173 0
155 177 0
145 167 0
144 166 0
141 163 0
149 170 0
152 174 0
155 178 0
148 171 0
148 171 0
160 184 0
146 168 0
153 175 0
146 167 0
147 169 0
155 177 0
149 171 0
146 168 0
148 170 0
144 165 0
149 172 0
137 160 0
148 169 0
146 168 0
141 163 0
154 177 0
149 171 0
142 165 0
152 173 0
146 167 0
139 159 0
139 161 0
153 176 0
141 163 0
139 160 0
151 172 0
143 165 0
152 174 0
146 167 0
150 173 0
146 167 0
144 164 0
147 168 0
136 158 0
138 161 0
149 170 0
148 170 0
144 166 0
142 162 0
147 169 0
140 161 0
138 159 0
148 170 0
133 153 0
132 152 0
128 149 0
135 155 0
144 165 0
147 167 0
131 152 0
141 162 0
136 157 0
141 162 0
140 160 0
131 151 0
140 161 0
140 160 0
130 149 0
141 161 0
141 162 0
137 158 0
139 161 0
131 151 0
140 161 0
145 165 0
145 165 0
132 149 0
146 166 0
124 145 0
138 158 0
135 155 0
138 157 0
134 154 0
133 152 0
144 163 0
137 158 0
128 146 0
126 146 0
146 165 0
148 168 0
129 148 0
132 151 0
136 156 0
139 159 0
134 153 0
132 149 0
134 154 0
133 153 0
142 161 0
136 154 0
136 155 0
147 166 0
142 160 0
141 161 0
133 152 0
138 159 0
136 155 0
133 154 0
142 160 0
136 153 0
135 153 0
135 153 0
134 153 0
144 163 0
145 162 0
140 158 0
127 146 0
149 167 0
141 159 0
136 153 0
141 160 0
131 149 0
139 158 0
140 158 0
139 156 0
137 153 0
141 158 0
140 159 0
146 165 0
140 156 0
135 153 0
148 165 0
142 161 0
137 153 0
141 161 0
140 157 0
139 155 0
145 163 0
143 161 0
143 161 0
148 165 0
145 162 0
144 162 0
142 159 0
147 166 0
124 141 0
140 154 0
142 158 0
135 152 0
142 158 0
136 150 0
141 156 0
141 156 0
131 146 0
143 158 0
145 162 0
139 153 0
132 147 0
151 167 0
146 162 0
142 158 0
133 149 0
145 158 0
142 155 0
135 148 0
137 151 0
137 150 0
142 155 0
136 147 0
135 149 0
143 156 0
139 150 0
143 157 0
138 151 0
142 155 0
141 152 0
138 151 0
142 155 0
143 156 0
143 154 0
135 147 0
139 148 0
137 147 0
135 147 0
145 154 0
134 146 0
146 158 0
135 143 0
140 149 0
136 146 0
145 154 0
139 148 0
138 148 0
143 151 0
131 140 0
137 145 0
146 155 0
144 153 0
146 154 0
131 137 0
139 147 0
137 145 0
144 153 0
139 146 0
135 141 0
132 139 0
132 136 0
133 139 0
136 143 0
143 151 0
136 141 0
141 148 0
141 148 0
135 141 0
136 139 0
133 137 0
142 148 0
136 140 0
138 145 0
143 147 0
145 153 0
143 150 0
142 150 0
146 152 0
144 151 0
138 140 0
142 148 0
139 144 0
143 149 0
137 140 0
140 145 0
141 145 0
142 145 0
145 152 0
137 141 0
149 156 0
144 149 0
154 161 0
141 148 0
140 148 0
148 152 0
145 151 0
151 159 0
146 154 0
148 155 0
149 158 0
148 155 0
148 154 0
143 147 0
146 150 0
150 159 0
150 155 0
149 156 0
150 159 0
147 155 0
153 161 0
143 148 0
151 163 0
155 167 0
146 152 0
155 164 0
154 163 0
150 160 0
157 164 0
159 169 0
151 160 0
155 163 0
153 164 0
152 162 0
160 173 0
158 170 0
173 197 0
170 193 0
172 195 0
175 198 0
174 197 0
175 196 0
172 195 0
171 194 0
171 194 0
175 198 0
170 193 0
173 195 0
172 194 0
173 195 0
171 193 0
172 194 0
170 193 0
171 194 0
175 197 0
174 196 0
174 196 0
174 196 0
173 196 0
174 196 0
169 191 0
170 192 0
173 194 0
169 193 0
173 195 0
169 192 0
176 197 0
172 193 0
171 193 0
174 195 0
172 194 0
170 192 0
170 193 0
168 190 0
170 192 0
170 192 0
170 191 0
170 192 0
168 190 0
170 191 0
167 190 0
170 192 0
173 195 0
165 187 0
168 189 0
167 188 0
171 193 0
169 190 0
166 188 0
170 191 0
166 188 0
173 195 0
164 187 0
166 188 0
163 185 0
166 187 0
161 182 0
168 190 0
166 188 0
169 192 0
168 190 0
167 189 0
161 183 0
164 186 0
166 189 0
171 194 0
160 183 0
169 191 0
167 190 0
166 189 0
162 185 0
162 185 0
165 187 0
160 181 0
162 184 0
160 182 0
164 186 0
169 191 0
163 186 0
167 188 0
162 184 0
160 183 0
159 182 0
164 187 0
161 183 0
159 182 0
167 190 0
160 182 0
160 182 0
158 181 0
160 183 0
155 179 0
164 186 0
161 183 0
158 180 0
156 178 0
155 177 0
155 178 0
161 183 0
164 187 0
161 184 0
159 183 0
159 182 0
158 180 0
155 177 0
162 185 0
154 177 0
156 178 0
152 175 0
162 185 0
154 176 0
164 186 0
164 187 0
155 177 0
155 178 0
153 177 0
154 176 0
157 180 0
163 185 0
160 182 0
156 178 0
159 182 0
154 176 0
153 175 0
153 174 0
151 173 0
161 184 0
154 176 0
160 183 0
155 178 0
157 178 0
152 174 0
155 178 0
154 177 0
141 163 0
158 180 0
155 177 0
151 173 0
150 171 0
154 177 0
150 171 0
135 157 0
156 178 0
149 170 0
149 171 0
143 165 0
149 171 0
151 173 0
150 172 0
149 171 0
155 176 0
151 174 0
150 171 0
149 172 0
152 173 0
148 171 0
138 161 0
156 177 0
149 170 0
147 168 0
142 164 0
148 171 0
146 168 0
139 159 0
142 163 0
141 160 0
143 164 0
139 161 0
141 162 0
145 166 0
145 165 0
147 168 0
141 162 0
137 159 0
148 170 0
144 163 0
131 152 0
149 169 0
138 158 0
141 164 0
141 163 0
136 157 0
138 160 0
137 158 0
144 165 0
141 161 0
153 174 0
133 153 0
137 158 0
138 158 0
146 168 0
145 165 0
137 159 0
135 157 0
128 147 0
139 158 0
135 154 0
141 160 0
142 162 0
138 159 0
140 162 0
137 156 0
136 156 0
131 152 0
140 160 0
134 153 0
137 158 0
133 154 0
133 152 0
138 158 0
135 154 0
140 160 0
143 164 0
127 149 0
134 154 0
137 156 0
132 150 0
128 148 0
141 160 0
131 151 0
140 160 0
144 165 0
131 150 0
128 148 0
136 157 0
137 156 0
134 154 0
146 166 0
134 155 0
141 161 0
148 169 0
141 162 0
138 158 0
139 156 0
137 156 0
137 154 0
139 158 0
132 151 0
132 151 0
139 157 0
140 158 0
143 161 0
128 145 0
136 155 0
135 153 0
140 158 0
139 157 0
131 151 0
141 160 0
139 159 0
132 150 0
140 159 0
143 162 0
147 166 0
145 164 0
140 157 0
142 162 0
136 154 0
145 162 0
141 160 0
138 155 0
133 150 0
141 159 0
146 164 0
146 163 0
138 154 0
142 158 0
150 168 0
137 154 0
133 151 0
137 154 0
146 164 0
143 160 0
142 157 0
139 153 0
137 154 0
136 151 0
138 153 0
133 148 0
144 161 0
139 154 0
130 144 0
136 152 0
133 145 0
147 163 0
138 154 0
136 152 0
139 153 0
138 151 0
145 159 0
134 148 0
151 164 0
146 161 0
138 153 0
141 156 0
138 151 0
145 159 0
148 163 0
135 148 0
139 152 0
146 158 0
143 155 0
136 148 0
135 147 0
141 154 0
153 169 0
137 148 0
142 153 0
141 153 0
142 154 0
141 151 0
136 147 0
138 146 0
142 154 0
148 157 0
135 142 0
144 155 0
139 149 0
152 162 0
134 139 0
140 151 0
149 155 0
143 155 0
144 153 0
140 150 0
141 151 0
137 141 0
139 149 0
148 157 0
142 147 0
136 144 0
139 147 0
146 154 0
138 143 0
141 147 0
142 150 0
144 155 0
133 140 0
144 151 0
137 144 0
143 146 0
129 136 0
133 138 0
144 152 0
149 157 0
137 146 0
146 153 0
147 154 0
143 150 0
139 147 0
140 144 0
143 148 0
138 143 0
132 135 0
144 149 0
136 141 0
134 137 0
136 140 0
145 150 0
141 143 0
142 147 0
143 148 0
137 142 0
150 158 0
144 148 0
147 153 0
146 152 0
135 139 0
138 144 0
146 152 0
140 148 0
138 144 0
148 155 0
144 150 0
148 155 0
147 155 0
149 155 0
153 160 0
144 150 0
152 159 0
146 153 0
148 155 0
153 161 0
148 154 0
152 159 0
158 168 0
143 149 0
146 151 0
150 160 0
151 159 0
152 161 0
152 162 0
156 167 0
156 166 0
159 169 0
149 159 0
171 194 0
174 196 0
172 195 0
174 197 0
173 196 0
173 195 0
173 196 0
171 193 0
168 190 0
170 193 0
172 194 0
173 195 0
172 195 0
171 193 0
172 195 0
175 197 0
170 192 0
170 194 0
172 194 0
171 193 0
172 194 0
173 195 0
172 194 0
168 190 0
170 192 0
173 195 0
170 192 0
171 194 0
169 192 0
171 193 0
172 193 0
168 191 0
170 192 0
174 196 0
171 193 0
171 192 0
172 194 0
166 188 0
166 188 0
165 188 0
168 189 0
174 196 0
171 194 0
173 195 0
175 197 0
166 189 0
167 188 0
168 190 0
168 190 0
165 186 0
167 188 0
172 193 0
172 194 0
165 187 0
168 190 0
171 193 0
168 190 0
168 189 0
166 188 0
169 192 0
155 177 0
163 185 0
160 182 0
166 188 0
161 183 0
165 186 0
163 185 0
166 188 0
159 181 0
162 184 0
167 189 0
158 180 0
163 185 0
165 188 0
163 186 0
162 185 0
160 182 0
164 186 0
164 187 0
164 186 0
162 185 0
158 180 0
163 184 0
162 185 0
164 186 0
159 182 0
157 179 0
157 180 0
165 187 0
162 184 0
155 178 0
163 186 0
165 188 0
162 184 0
161 183 0
157 180 0
160 182 0
160 184 0
159 182 0
160 183 0
161 183 0
155 177 0
160 183 0
158 180 0
157 179 0
160 183 0
159 181 0
157 180 0
157 179 0
160 183 0
163 185 0
153 175 0
162 184 0
157 181 0
159 181 0
156 180 0
153 176 0
155 177 0
156 178 0
149 173 0
158 181 0
151 174 0
155 177 0
149 172 0
154 177 0
154 176 0
163 186 0
149 172 0
157 179 0
157 180 0
158 181 0
154 177 0
154 175 0
153 176 0
152 175 0
150 173 0
157 181 0
154 177 0
154 176 0
151 173 0
154 176 0
151 173 0
152 174 0
153 175 0
151 172 0
152 175 0
144 166 0
148 170 0
152 175 0
152 174 0
156 178 0
151 174 0
155 177 0
138 161 0
147 169 0
137 159 0
145 167 0
149 171 0
146 168 0
142 165 0
142 164 0
150 171 0
147 168 0
140 162 0
146 168 0
155 177 0
149 170 0
142 164 0
143 164 0
142 162 0
145 166 0
148 170 0
141 162 0
149 171 0
136 156 0
145 166 0
150 171 0
142 164 0
133 155 0
150 170 0
153 175 0
142 164 0
138 159 0
142 163 0
141 162 0
136 157 0
144 166 0
149 170 0
137 159 0
145 166 0
135 155 0
138 159 0
144 165 0
134 155 0
142 163 0
140 162 0
151 172 0
147 167 0
140 160 0
132 153 0
138 159 0
134 154 0
136 156 0
140 160 0
134 154 0
131 150 0
138 158 0
141 161 0
149 170 0
140 159 0
138 156 0
136 154 0
138 159 0
140 160 0
139 158 0
145 164 0
142 163 0
138 158 0
137 158 0
136 155 0
142 164 0
139 157 0
146 167 0
138 158 0
142 161 0
133 152 0
136 155 0
141 160 0
144 164 0
144 164 0
141 159 0
128 148 0
144 162 0
135 153 0
135 154 0
142 162 0
135 153 0
143 162 0
140 159 0
139 159 0
140 160 0
134 153 0
146 165 0
141 162 0
142 163 0
145 165 0
142 159 0
138 156 0
145 163 0
140 159 0
131 148 0
132 150 0
142 160 0
137 155 0
145 162 0
129 145 0
143 161 0
134 150 0
141 158 0
142 160 0
146 164 0
154 173 0
150 166 0
135 151 0
143 161 0
146 163 0
141 159 0
142 159 0
133 150 0
139 156 0
124 138 0
153 171 0
136 155 0
142 159 0
150 168 0
140 157 0
144 162 0
140 156 0
150 165 0
141 157 0
139 156 0
141 157 0
146 164 0
146 162 0
131 146 0
140 154 0
142 158 0
140 155 0
136 151 0
141 155 0
138 152 0
129 144 0
147 164 0
137 150 0
140 156 0
137 149 0
140 155 0
134 146 0
146 158 0
141 155 0
143 158 0
147 161 0
138 152 0
137 150 0
139 152 0
141 156 0
141 155 0
145 157 0
142 154 0
139 153 0
144 155 0
138 151 0
142 156 0
142 152 0
136 147 0
144 157 0
138 147 0
138 150 0
139 149 0
145 155 0
134 145 0
142 151 0
140 150 0
139 150 0
143 151 0
130 141 0
148 157 0
144 156 0
142 149 0
145 155 0
138 148 0
141 148 0
139 147 0
140 149 0
138 147 0
139 150 0
135 142 0
140 145 0
145 151 0
147 157 0
147 154 0
142 151 0
146 155 0
138 142 0
140 146 0
138 144 0
144 150 0
135 138 0
141 147 0
144 149 0
143 152 0
136 141 0
143 150 0
142 149 0
147 153 0
137 145 0
143 150 0
143 148 0
141 147 0
140 142 0
138 144 0
148 153 0
150 159 0
139 143 0
136 141 0
147 153 0
150 158 0
136 139 0
147 153 0
146 150 0
139 145 0
144 147 0
142 150 0
146 152 0
149 157 0
149 155 0
143 147 0
146 154 0
150 157 0
149 158 0
148 158 0
151 157 0
151 157 0
151 159 0
156 166 0
150 158 0
151 162 0
146 151 0
154 162 0
158 165 0
143 150 0
161 171 0
153 164 0
150 160 0
151 162 0
158 168 0
155 165 0
148 159 0
153 162 0
153 163 0
173 196 0
173 196 0
172 196 0
176 199 0
176 198 0
171 194 0
172 196 0
168 191 0
169 191 0
171 194 0
172 194 0
173 195 0
173 196 0
174 196 0
175 197 0
171 194 0
172 195 0
171 193 0
169 192 0
174 195 0
168 191 0
174 196 0
172 195 0
167 189 0
171 194 0
174 195 0
174 196 0
171 193 0
172 195 0
170 192 0
171 193 0
169 192 0
169 191 0
172 194 0
172 195 0
172 194 0
171 193 0
172 194 0
173 195 0
171 193 0
171 193 0
170 191 0
167 189 0
168 190 0
175 197 0
168 189 0
163 185 0
166 188 0
168 190 0
165 189 0
168 190 0
169 191 0
168 190 0
165 188 0
166 188 0
170 191 0
168 190 0
166 189 0
167 189 0
169 191 0
166 188 0
168 190 0
169 192 0
161 185 0
168 190 0
167 189 0
164 187 0
164 186 0
167 190 0
158 181 0
170 192 0
166 188 0
168 191 0
162 186 0
158 180 0
167 189 0
160 184 0
164 187 0
161 183 0
161 184 0
157 180 0
161 183 0
165 187 0
163 185 0
164 187 0
162 183 0
160 183 0
156 178 0
160 183 0
161 184 0
162 184 0
159 183 0
161 184 0
161 184 0
163 186 0
160 183 0
166 188 0
159 182 0
163 184 0
155 178 0
160 183 0
161 183 0
166 188 0
161 184 0
164 186 0
153 176 0
159 182 0
156 179 0
159 181 0
161 183 0
161 184 0
155 177 0
150 173 0
160 183 0
168 191 0
153 175 0
160 181 0
157 179 0
157 180 0
152 174 0
154 177 0
153 176 0
158 180 0
153 175 0
157 179 0
158 181 0
159 181 0
152 174 0
150 172 0
154 176 0
157 179 0
156 178 0
159 181 0
154 177 0
155 176 0
148 170 0
154 175 0
148 170 0
155 177 0
157 180 0
149 172 0
157 179 0
150 170 0
148 169 0
147 170 0
159 183 0
149 170 0
154 175 0
153 175 0
156 178 0
150 173 0
148 171 0
150 172 0
151 173 0
147 169 0
147 169 0
151 173 0
149 172 0
147 170 0
154 176 0
153 176 0
145 167 0
147 168 0
146 167 0
148 169 0
145 167 0
143 165 0
141 163 0
153 175 0
142 164 0
144 165 0
147 168 0
145 167 0
137 158 0
136 157 0
146 167 0
140 162 0
150 171 0
144 165 0
140 162 0
142 163 0
148 169 0
146 166 0
138 159 0
140 161 0
145 167 0
138 159 0
146 168 0
142 163 0
149 171 0
133 154 0
145 166 0
143 164 0
144 166 0
140 161 0
133 153 0
128 147 0
143 164 0
142 162 0
139 159 0
141 160 0
128 148 0
140 161 0
138 159 0
146 166 0
141 162 0
137 158 0
142 161 0
144 165 0
132 152 0
145 167 0
132 153 0
145 166 0
137 157 0
145 166 0
136 156 0
141 161 0
141 162 0
131 150 0
140 160 0
145 165 0
141 159 0
130 148 0
136 156 0
129 148 0
144 163 0
152 172 0
131 152 0
135 154 0
146 166 0
144 165 0
139 158 0
145 164 0
130 149 0
138 158 0
134 155 0
130 149 0
133 152 0
134 152 0
136 156 0
148 167 0
139 158 0
141 160 0
139 158 0
141 158 0
134 153 0
140 159 0
135 153 0
139 157 0
138 156 0
147 167 0
149 169 0
136 156 0
139 157 0
141 158 0
139 156 0
138 158 0
138 157 0
142 157 0
145 164 0
137 155 0
137 154 0
136 152 0
139 155 0
146 163 0
139 156 0
145 164 0
143 161 0
147 166 0
140 158 0
141 161 0
146 163 0
133 151 0
133 149 0
137 155 0
143 157 0
143 158 0
148 166 0
144 161 0
137 154 0
144 160 0
146 161 0
147 164 0
147 166 0
152 169 0
145 161 0
145 163 0
145 161 0
136 151 0
149 164 0
139 155 0
140 156 0
135 147 0
147 162 0
140 154 0
138 150 0
143 158 0
148 161 0
145 158 0
144 155 0
141 152 0
140 154 0
138 151 0
143 156 0
143 156 0
143 158 0
145 157 0
139 153 0
144 156 0
140 150 0
145 159 0
143 155 0
145 160 0
148 160 0
141 155 0
142 154 0
144 158 0
144 156 0
141 154 0
148 160 0
149 160 0
147 158 0
143 155 0
136 144 0
139 149 0
143 152 0
141 149 0
146 156 0
139 148 0
141 151 0
144 156 0
139 148 0
141 150 0
152 161 0
139 146 0
149 158 0
141 149 0
144 151 0
142 150 0
148 155 0
145 153 0
141 149 0
134 141 0
148 158 0
139 148 0
145 152 0
149 159 0
143 148 0
141 150 0
144 151 0
145 152 0
146 152 0
149 158 0
148 154 0
135 143 0
139 145 0
140 148 0
146 153 0
151 157 0
143 148 0
145 153 0
142 149 0
145 152 0
150 158 0
139 146 0
139 143 0
151 159 0
139 143 0
141 148 0
147 151 0
144 152 0
150 156 0
140 146 0
143 148 0
146 151 0
147 153 0
144 151 0
144 150 0
145 151 0
153 161 0
147 152 0
154 166 0
152 161 0
152 160 0
151 158 0
152 161 0
150 157 0
150 153 0
153 161 0
143 149 0
155 163 0
151 159 0
142 149 0
152 162 0
153 165 0
157 165 0
157 165 0
154 161 0
163 174 0
152 162 0
172 195 0
170 193 0
172 195 0
170 193 0
175 197 0
171 194 0
173 195 0
175 197 0
174 196 0
170 193 0
173 195 0
174 196 0
171 193 0
172 194 0
173 196 0
174 196 0
173 195 0
172 194 0
173 196 0
173 195 0
169 192 0
169 191 0
169 192 0
169 191 0
172 193 0
171 193 0
168 190 0
170 192 0
166 189 0
170 193 0
173 195 0
171 193 0
169 191 0
170 193 0
173 195 0
170 192 0
173 196 0
172 194 0
175 197 0
167 189 0
170 191 0
171 194 0
168 190 0
169 191 0
176 198 0
166 188 0
169 192 0
169 191 0
172 194 0
169 192 0
166 188 0
165 188 0
168 189 0
166 190 0
168 190 0
168 190 0
168 190 0
168 191 0
165 186 0
164 186 0
165 188 0
164 187 0
166 188 0
161 183 0
165 188 0
165 187 0
166 189 0
166 188 0
167 190 0
166 188 0
163 186 0
159 181 0
166 188 0
164 187 0
161 183 0
164 186 0
164 186 0
162 185 0
162 184 0
161 184 0
159 182 0
160 183 0
164 186 0
163 185 0
162 185 0
162 184 0
161 183 0
166 188 0
159 183 0
160 182 0
157 179 0
159 182 0
164 187 0
160 182 0
164 187 0
160 182 0
162 186 0
153 176 0
164 186 0
161 183 0
162 185 0
162 184 0
161 184 0
162 185 0
156 179 0
152 175 0
154 177 0
164 187 0
155 178 0
157 180 0
155 178 0
158 181 0
154 177 0
161 184 0
156 178 0
158 179 0
161 184 0
157 180 0
158 180 0
155 178 0
154 177 0
155 177 0
155 177 0
151 173 0
158 179 0
160 182 0
152 175 0
149 170 0
155 177 0
152 175 0
152 174 0
142 165 0
150 172 0
152 174 0
155 177 0
152 175 0
153 175 0
158 181 0
151 173 0
155 177 0
144 166 0
150 172 0
155 177 0
155 177 0
159 181 0
146 167 0
148 170 0
134 157 0
154 176 0
156 178 0
155 177 0
148 170 0
152 174 0
158 181 0
146 169 0
153 175 0
141 162 0
150 172 0
149 171 0
150 171 0
145 168 0
144 166 0
147 168 0
142 165 0
145 166 0
153 174 0
152 174 0
146 167 0
143 164 0
148 168 0
144 165 0
142 163 0
148 169 0
141 162 0
149 169 0
141 163 0
146 168 0
139 161 0
147 169 0
145 167 0
147 168 0
147 169 0
138 160 0
149 170 0
143 165 0
148 170 0
143 165 0
145 165 0
149 170 0
133 154 0
141 164 0
148 169 0
141 162 0
140 160 0
144 166 0
139 161 0
132 153 0
141 163 0
140 161 0
138 158 0
144 165 0
149 169 0
144 165 0
145 167 0
139 161 0
137 157 0
136 156 0
139 159 0
142 162 0
140 160 0
144 165 0
137 158 0
143 164 0
138 159 0
139 159 0
143 163 0
135 154 0
136 157 0
143 163 0
139 159 0
144 165 0
132 152 0
142 161 0
138 157 0
140 160 0
133 154 0
139 160 0
139 159 0
140 161 0
142 161 0
136 154 0
141 161 0
141 161 0
138 157 0
140 159 0
133 152 0
149 168 0
153 173 0
140 161 0
140 160 0
139 158 0
136 154 0
136 155 0
143 163 0
134 152 0
143 163 0
131 149 0
140 159 0
140 160 0
144 164 0
149 167 0
138 157 0
147 166 0
142 160 0
144 163 0
148 166 0
129 147 0
144 163 0
139 154 0
137 157 0
138 155 0
149 169 0
142 161 0
140 158 0
146 165 0
145 162 0
149 167 0
142 159 0
142 159 0
143 162 0
148 166 0
138 157 0
152 170 0
135 151 0
143 160 0
142 161 0
141 159 0
139 157 0
144 162 0
136 151 0
147 164 0
140 156 0
143 159 0
140 155 0
135 149 0
134 151 0
148 165 0
138 155 0
143 160 0
144 161 0
136 151 0
151 167 0
143 160 0
139 154 0
142 159 0
137 151 0
140 154 0
131 147 0
140 155 0
146 161 0
137 152 0
141 154 0
145 159 0
143 158 0
152 168 0
141 156 0
136 147 0
144 157 0
138 151 0
140 150 0
145 160 0
146 159 0
133 145 0
144 157 0
144 157 0
150 162 0
142 153 0
144 154 0
140 151 0
141 151 0
142 150 0
145 155 0
148 160 0
143 153 0
139 150 0
145 157 0
138 150 0
144 154 0
147 158 0
142 151 0
139 149 0
143 152 0
144 152 0
145 155 0
144 152 0
143 154 0
146 156 0
139 146 0
149 162 0
139 148 0
144 153 0
149 157 0
144 151 0
143 155 0
144 156 0
140 145 0
142 150 0
143 152 0
140 150 0
144 150 0
151 161 0
147 156 0
149 155 0
141 147 0
137 142 0
147 157 0
142 147 0
141 149 0
146 153 0
147 156 0
147 155 0
150 158 0
140 144 0
149 157 0
144 151 0
147 153 0
142 148 0
147 154 0
144 148 0
150 157 0
147 156 0
152 160 0
144 151 0
151 157 0
155 162 0
151 159 0
145 151 0
147 149 0
151 159 0
143 151 0
149 156 0
143 147 0
153 160 0
144 151 0
154 161 0
149 157 0
149 157 0
147 156 0
144 151 0
153 163 0
150 158 0
146 151 0
152 161 0
154 164 0
153 163 0
156 166 0
145 155 0
152 161 0
155 166 0
159 170 0
171 193 0
173 195 0
172 194 0
170 193 0
174 196 0
170 193 0
172 194 0
171 191 0
171 193 0
172 195 0
171 194 0
172 194 0
172 195 0
173 195 0
174 196 0
170 192 0
173 196 0
169 192 0
171 193 0
171 193 0
172 194 0
174 197 0
171 194 0
174 196 0
169 191 0
168 191 0
168 191 0
170 192 0
171 193 0
165 188 0
170 192 0
165 187 0
175 196 0
167 189 0
170 193 0
169 192 0
167 189 0
163 185 0
170 192 0
170 192 0
168 190 0
168 191 0
168 191 0
167 188 0
172 194 0
166 189 0
170 192 0
168 190 0
170 192 0
169 190 0
168 191 0
169 192 0
167 190 0
169 191 0
161 184 0
169 191 0
163 185 0
170 191 0
164 187 0
160 182 0
165 188 0
166 188 0
160 183 0
161 182 0
169 192 0
170 192 0
164 186 0
164 185 0
165 188 0
167 189 0
166 189 0
165 188 0
166 188 0
171 194 0
168 190 0
163 185 0
166 188 0
166 189 0
168 190 0
163 186 0
166 189 0
161 184 0
166 188 0
157 180 0
159 182 0
160 183 0
164 187 0
162 184 0
162 184 0
161 184 0
167 190 0
166 190 0
159 182 0
163 184 0
159 182 0
161 184 0
165 187 0
152 174 0
164 187 0
158 181 0
162 184 0
156 179 0
160 182 0
154 176 0
161 183 0
151 173 0
158 181 0
157 179 0
159 183 0
160 182 0
156 178 0
154 177 0
160 183 0
148 172 0
159 181 0
158 181 0
164 186 0
154 177 0
158 179 0
151 172 0
158 180 0
159 182 0
154 177 0
158 180 0
156 178 0
156 179 0
153 175 0
154 176 0
149 172 0
151 173 0
157 179 0
151 172 0
158 181 0
158 180 0
149 172 0
152 174 0
160 180 0
150 172 0
151 173 0
157 178 0
149 171 0
154 176 0
146 169 0
157 179 0
145 166 0
150 173 0
150 172 0
155 177 0
146 167 0
154 175 0
145 166 0
147 169 0
154 176 0
154 176 0
145 167 0
145 167 0
157 179 0
141 162 0
149 171 0
150 172 0
142 164 0
141 162 0
150 172 0
148 169 0
149 170 0
153 175 0
145 166 0
140 161 0
146 169 0
152 174 0
149 171 0
138 159 0
151 173 0
145 167 0
138 158 0
148 170 0
144 166 0
144 164 0
140 160 0
149 171 0
144 165 0
142 163 0
145 166 0
143 165 0
147 168 0
150 172 0
139 159 0
153 173 0
136 158 0
147 167 0
144 166 0
139 159 0
147 168 0
143 164 0
146 166 0
146 168 0
142 163 0
145 167 0
146 167 0
138 160 0
147 169 0
144 165 0
144 166 0
139 159 0
138 160 0
135 155 0
145 166 0
138 161 0
139 159 0
145 167 0
144 163 0
139 158 0
143 163 0
148 169 0
140 162 0
135 155 0
143 164 0
134 155 0
135 155 0
137 157 0
142 162 0
144 165 0
139 161 0
138 158 0
125 146 0
149 170 0
133 153 0
131 152 0
147 168 0
148 166 0
136 154 0
147 167 0
130 148 0
136 156 0
145 166 0
134 153 0
140 160 0
146 165 0
141 160 0
143 164 0
144 163 0
144 164 0
142 163 0
136 155 0
136 154 0
138 158 0
143 162 0
129 148 0
145 165 0
136 155 0
141 160 0
145 163 0
138 159 0
145 165 0
148 167 0
143 162 0
144 163 0
148 166 0
152 171 0
146 166 0
145 165 0
143 161 0
150 168 0
145 163 0
148 168 0
146 162 0
146 166 0
144 163 0
150 167 0
142 160 0
144 164 0
141 159 0
153 171 0
137 155 0
138 156 0
137 154 0
139 155 0
152 169 0
150 168 0
146 165 0
138 153 0
147 163 0
143 159 0
144 159 0
147 163 0
143 160 0
141 158 0
145 160 0
144 160 0
145 163 0
143 158 0
144 161 0
142 157 0
145 162 0
146 163 0
137 152 0
142 156 0
137 152 0
139 154 0
148 163 0
140 155 0
150 164 0
146 159 0
145 156 0
144 156 0
152 165 0
148 163 0
142 156 0
149 163 0
146 161 0
136 149 0
144 156 0
140 154 0
150 165 0
148 160 0
145 157 0
139 152 0
142 152 0
147 160 0
140 152 0
139 145 0
141 153 0
132 142 0
139 149 0
141 151 0
143 154 0
149 161 0
146 159 0
141 153 0
136 146 0
143 154 0
141 150 0
143 150 0
141 152 0
144 153 0
144 153 0
142 154 0
144 153 0
149 158 0
139 146 0
131 140 0
143 153 0
144 154 0
137 145 0
134 140 0
147 156 0
142 149 0
143 152 0
149 158 0
146 153 0
143 150 0
142 149 0
135 137 0
150 158 0
144 151 0
143 151 0
150 158 0
146 155 0
145 152 0
146 152 0
142 149 0
150 157 0
142 150 0
141 150 0
152 162 0
143 152 0
153 161 0
149 157 0
151 161 0
159 166 0
149 156 0
144 150 0
142 149 0
151 156 0
149 157 0
151 160 0
147 155 0
146 154 0
154 159 0
149 156 0
155 163 0
154 163 0
157 167 0
148 155 0
149 154 0
149 159 0
152 160 0
144 153 0
155 167 0
154 165 0
155 165 0
158 169 0
147 156 0
145 152 0
153 162 0
153 161 0
150 159 0
155 167 0
157 166 0
155 168 0
171 194 0
170 193 0
171 193 0
173 196 0
170 193 0
172 194 0
173 195 0
172 194 0
171 194 0
169 192 0
172 195 0
171 194 0
170 193 0
170 192 0
168 191 0
172 194 0
170 192 0
170 192 0
173 195 0
172 194 0
171 193 0
170 192 0
168 191 0
168 190 0
169 192 0
169 191 0
173 196 0
169 191 0
171 194 0
166 188 0
168 192 0
173 195 0
172 194 0
174 195 0
167 188 0
169 192 0
173 195 0
171 193 0
170 191 0
165 187 0
171 193 0
166 189 0
170 192 0
166 188 0
168 190 0
169 192 0
165 187 0
166 189 0
164 186 0
168 191 0
165 188 0
168 190 0
163 186 0
161 183 0
164 187 0
166 188 0
167 190 0
168 191 0
167 189 0
160 183 0
165 188 0
167 190 0
163 186 0
160 181 0
167 190 0
159 181 0
164 187 0
164 186 0
167 189 0
158 181 0
164 187 0
165 187 0
162 183 0
163 186 0
164 186 0
167 190 0
165 187 0
168 191 0
166 188 0
157 180 0
158 181 0
161 183 0
159 182 0
164 186 0
163 186 0
160 182 0
159 182 0
159 183 0
161 184 0
160 183 0
162 185 0
162 184 0
165 188 0
153 176 0
162 184 0
161 183 0
161 184 0
166 188 0
165 187 0
158 181 0
160 184 0
154 176 0
161 183 0
163 184 0
159 182 0
160 183 0
160 183 0
159 181 0
155 177 0
153 175 0
158 181 0
151 173 0
154 177 0
159 182 0
153 175 0
157 180 0
159 181 0
163 185 0
158 180 0
158 181 0
159 182 0
156 180 0
158 180 0
159 181 0
157 180 0
155 178 0
158 180 0
153 175 0
155 177 0
161 184 0
157 180 0
156 179 0
154 176 0
157 180 0
160 182 0
151 173 0
159 181 0
164 186 0
153 175 0
148 170 0
148 170 0
147 169 0
155 177 0
162 185 0
152 175 0
150 172 0
151 174 0
152 175 0
148 171 0
155 178 0
156 177 0
157 178 0
149 171 0
149 172 0
158 180 0
156 178 0
150 172 0
143 165 0
149 170 0
153 175 0
151 172 0
148 170 0
137 158 0
147 169 0
149 171 0
149 170 0
147 169 0
142 164 0
153 174 0
149 171 0
147 169 0
148 170 0
147 169 0
143 164 0
149 172 0
142 164 0
142 163 0
138 159 0
148 169 0
147 169 0
154 174 0
145 165 0
153 175 0
138 160 0
156 176 0
143 165 0
142 164 0
152 173 0
146 167 0
142 164 0
138 157 0
147 168 0
149 170 0
142 163 0
139 160 0
140 161 0
144 165 0
146 167 0
138 158 0
139 159 0
153 174 0
138 159 0
143 164 0
138 159 0
143 164 0
143 165 0
135 155 0
143 163 0
141 163 0
146 169 0
139 160 0
137 158 0
141 162 0
138 158 0
152 171 0
145 166 0
141 161 0
140 159 0
139 160 0
134 155 0
135 155 0
136 155 0
141 161 0
141 162 0
131 153 0
148 168 0
146 167 0
142 163 0
140 160 0
143 164 0
132 152 0
143 164 0
136 157 0
141 161 0
147 167 0
144 162 0
148 167 0
136 154 0
136 157 0
150 169 0
136 157 0
142 161 0
137 159 0
131 151 0
141 161 0
134 153 0
153 173 0
142 161 0
143 163 0
142 162 0
145 161 0
145 161 0
144 162 0
141 160 0
145 164 0
141 160 0
137 157 0
136 154 0
140 157 0
143 161 0
142 159 0
141 161 0
145 163 0
150 169 0
151 170 0
143 163 0
145 161 0
143 162 0
144 159 0
141 160 0
157 176 0
140 158 0
143 161 0
145 161 0
154 174 0
142 159 0
141 159 0
135 153 0
135 152 0
143 160 0
138 157 0
138 154 0
145 162 0
136 153 0
149 167 0
147 163 0
147 164 0
147 164 0
148 163 0
140 158 0
150 166 0
146 162 0
144 161 0
150 165 0
147 163 0
140 156 0
140 153 0
144 159 0
151 164 0
140 154 0
139 154 0
146 161 0
141 155 0
143 155 0
149 163 0
152 168 0
152 167 0
135 147 0
146 158 0
139 153 0
150 164 0
151 164 0
147 162 0
149 163 0
139 153 0
142 155 0
151 163 0
141 156 0
149 163 0
140 154 0
140 151 0
143 156 0
145 160 0
148 160 0
141 154 0
138 148 0
142 151 0
152 166 0
135 146 0
148 160 0
140 151 0
141 153 0
140 152 0
141 153 0
137 149 0
146 154 0
142 152 0
139 145 0
149 160 0
144 154 0
140 148 0
146 158 0
142 150 0
146 155 0
147 154 0
146 153 0
141 148 0
141 151 0
148 159 0
148 158 0
138 147 0
138 146 0
146 153 0
138 144 0
142 149 0
139 148 0
143 152 0
148 158 0
146 154 0
139 148 0
144 151 0
149 158 0
145 153 0
145 153 0
144 149 0
148 156 0
145 152 0
144 152 0
145 154 0
147 156 0
152 163 0
146 154 0
149 157 0
150 157 0
150 157 0
143 151 0
140 146 0
152 161 0
153 164 0
140 145 0
145 153 0
149 159 0
147 155 0
148 156 0
146 154 0
141 150 0
156 163 0
155 163 0
157 167 0
150 158 0
152 161 0
156 167 0
155 166 0
154 162 0
152 162 0
148 156 0
151 160 0
158 169 0
153 163 0
153 163 0
171 194 0
173 196 0
172 194 0
170 193 0
170 193 0
174 197 0
172 194 0
173 195 0
170 193 0
165 188 0
172 193 0
172 195 0
173 196 0
170 192 0
171 193 0
173 195 0
174 196 0
173 195 0
169 191 0
171 193 0
171 192 0
172 193 0
170 193 0
171 194 0
168 190 0
170 193 0
172 194 0
171 193 0
171 193 0
167 189 0
164 187 0
167 189 0
171 193 0
169 191 0
165 188 0
169 191 0
169 191 0
164 186 0
168 190 0
171 194 0
168 189 0
168 191 0
168 190 0
167 190 0
165 188 0
168 191 0
166 188 0
164 186 0
162 184 0
173 195 0
167 190 0
165 188 0
165 188 0
161 183 0
165 187 0
163 186 0
166 188 0
166 189 0
167 188 0
165 187 0
168 190 0
166 189 0
159 182 0
161 184 0
166 188 0
162 186 0
166 188 0
164 186 0
167 190 0
169 191 0
163 185 0
164 187 0
160 184 0
165 188 0
160 182 0
162 185 0
162 185 0
165 187 0
161 184 0
159 182 0
160 182 0
160 183 0
157 180 0
166 188 0
159 182 0
162 185 0
161 184 0
164 186 0
160 182 0
165 188 0
167 190 0
162 185 0
159 181 0
160 182 0
162 184 0
156 179 0
154 177 0
165 188 0
164 187 0
158 181 0
156 179 0
159 182 0
156 179 0
161 183 0
156 179 0
155 178 0
160 184 0
159 180 0
161 184 0
154 177 0
160 183 0
158 180 0
161 184 0
164 188 0
160 183 0
159 181 0
158 181 0
148 170 0
159 182 0
163 186 0
154 177 0
156 179 0
154 177 0
155 177 0
148 170 0
156 179 0
157 179 0
155 176 0
154 176 0
153 176 0
159 182 0
158 180 0
157 180 0
149 171 0
152 175 0
154 176 0
152 173 0
156 178 0
148 171 0
154 177 0
146 168 0
153 175 0
148 171 0
154 177 0
151 173 0
147 170 0
150 173 0
151 174 0
147 168 0
152 174 0
151 174 0
157 179 0
146 168 0
153 175 0
154 177 0
154 175 0
140 162 0
150 172 0
148 170 0
152 174 0
152 173 0
152 175 0
151 172 0
151 174 0
146 167 0
151 173 0
150 172 0
148 171 0
142 164 0
139 161 0
142 163 0
147 169 0
146 167 0
148 170 0
153 174 0
152 173 0
142 163 0
148 170 0
152 174 0
149 171 0
149 171 0
151 172 0
151 174 0
152 174 0
139 160 0
138 160 0
150 170 0
152 173 0
145 167 0
150 172 0
145 166 0
151 173 0
142 163 0
148 169 0
144 165 0
147 166 0
143 164 0
143 163 0
142 164 0
143 163 0
148 171 0
152 174 0
145 168 0
143 165 0
148 168 0
139 159 0
139 159 0
143 162 0
142 163 0
138 159 0
136 155 0
140 159 0
143 163 0
143 164 0
144 165 0
144 164 0
134 152 0
133 152 0
141 162 0
139 159 0
143 164 0
139 157 0
142 163 0
138 157 0
142 160 0
136 156 0
144 164 0
142 162 0
142 162 0
144 162 0
142 162 0
147 168 0
150 171 0
146 166 0
146 165 0
144 165 0
136 155 0
143 164 0
141 161 0
139 158 0
143 162 0
138 156 0
137 155 0
132 151 0
146 165 0
147 167 0
143 162 0
139 159 0
138 158 0
146 166 0
148 168 0
135 153 0
156 174 0
148 168 0
141 161 0
150 171 0
143 162 0
146 165 0
147 166 0
142 162 0
145 163 0
148 166 0
141 160 0
142 161 0
153 171 0
145 163 0
144 163 0
151 171 0
147 166 0
144 162 0
142 161 0
145 163 0
142 161 0
141 157 0
140 158 0
137 157 0
146 163 0
141 160 0
151 169 0
153 172 0
142 159 0
147 165 0
149 166 0
146 163 0
148 167 0
137 152 0
146 161 0
138 155 0
133 148 0
144 158 0
138 154 0
147 166 0
150 166 0
149 164 0
147 163 0
144 161 0
148 162 0
146 164 0
140 156 0
150 165 0
144 160 0
141 156 0
151 165 0
150 165 0
138 152 0
145 159 0
142 157 0
149 164 0
142 156 0
142 156 0
144 158 0
144 159 0
141 154 0
147 162 0
139 151 0
146 161 0
135 146 0
141 154 0
138 149 0
142 155 0
145 158 0
147 158 0
144 155 0
144 157 0
148 161 0
144 154 0
148 159 0
153 166 0
136 147 0
146 158 0
137 148 0
146 159 0
146 159 0
144 156 0
148 160 0
144 157 0
144 157 0
146 156 0
141 150 0
145 153 0
145 157 0
143 152 0
154 164 0
148 157 0
140 149 0
152 160 0
149 160 0
139 150 0
140 148 0
145 155 0
137 147 0
143 151 0
155 168 0
148 157 0
147 156 0
139 144 0
148 155 0
150 158 0
140 148 0
146 154 0
145 153 0
144 150 0
151 160 0
142 149 0
142 149 0
140 147 0
143 151 0
139 146 0
146 155 0
144 152 0
147 153 0
152 162 0
149 156 0
142 153 0
149 158 0
152 162 0
149 156 0
150 160 0
155 164 0
150 156 0
149 159 0
148 158 0
152 159 0
156 168 0
157 168 0
142 149 0
145 154 0
145 154 0
156 168 0
153 160 0
160 172 0
155 166 0
154 163 0
150 161 0
155 165 0
148 159 0
155 166 0
156 167 0
157 166 0
162 172 0
173 195 0
171 194 0
172 195 0
169 191 0
173 196 0
173 196 0
171 193 0
175 197 0
167 189 0
167 190 0
171 194 0
169 191 0
169 192 0
174 196 0
171 193 0
168 191 0
174 196 0
170 192 0
173 195 0
168 190 0
165 187 0
171 193 0
172 194 0
171 193 0
169 191 0
175 198 0
170 192 0
171 194 0
171 195 0
167 189 0
172 194 0
170 192 0
167 188 0
166 189 0
167 189 0
165 188 0
169 191 0
165 187 0
170 192 0
164 187 0
167 189 0
165 188 0
167 189 0
170 192 0
169 191 0
168 190 0
166 189 0
166 189 0
166 189 0
166 188 0
165 187 0
168 190 0
167 190 0
160 183 0
166 189 0
169 192 0
166 188 0
164 187 0
165 187 0
162 184 0
167 189 0
166 189 0
164 186 0
169 191 0
160 183 0
165 188 0
164 186 0
161 183 0
167 190 0
169 192 0
158 180 0
165 188 0
162 184 0
160 183 0
163 187 0
155 178 0
161 183 0
163 186 0
167 189 0
166 189 0
158 181 0
165 187 0
169 191 0
161 183 0
167 189 0
165 188 0
163 186 0
163 186 0
160 182 0
160 183 0
165 188 0
161 184 0
160 182 0
161 184 0
162 185 0
154 176 0
157 180 0
156 180 0
159 181 0
154 176 0
155 177 0
164 187 0
154 178 0
154 177 0
166 189 0
156 179 0
157 180 0
161 183 0
159 182 0
158 180 0
158 180 0
158 181 0
155 177 0
160 182 0
156 178 0
158 180 0
163 187 0
154 175 0
156 179 0
156 179 0
156 178 0
152 175 0
154 176 0
152 175 0
156 177 0
153 176 0
153 176 0
152 175 0
151 174 0
159 182 0
157 181 0
151 173 0
153 176 0
149 171 0
153 175 0
152 175 0
160 182 0
152 175 0
156 178 0
159 182 0
148 170 0
151 173 0
158 181 0
154 176 0
149 171 0
149 171 0
159 180 0
145 167 0
149 171 0
151 173 0
151 175 0
153 176 0
145 167 0
145 167 0
151 174 0
145 168 0
152 174 0
145 167 0
153 174 0
149 172 0
149 171 0
146 168 0
150 172 0
148 170 0
156 178 0
158 179 0
147 170 0
150 172 0
159 182 0
141 164 0
146 169 0
154 176 0
152 174 0
151 172 0
149 171 0
146 168 0
146 168 0
148 168 0
143 164 0
153 175 0
142 162 0
147 168 0
143 165 0
138 160 0
139 160 0
138 158 0
146 167 0
140 160 0
147 168 0
146 168 0
146 167 0
146 167 0
143 166 0
152 174 0
142 162 0
140 160 0
144 165 0
150 172 0
151 172 0
148 168 0
139 161 0
138 157 0
143 163 0
151 173 0
138 160 0
147 169 0
143 165 0
143 163 0
140 160 0
142 163 0
138 157 0
140 161 0
146 164 0
146 165 0
143 165 0
142 164 0
144 163 0
152 172 0
151 172 0
138 159 0
145 165 0
141 163 0
146 166 0
143 164 0
148 168 0
147 166 0
142 161 0
137 159 0
140 162 0
147 168 0
141 161 0
137 156 0
134 154 0
141 161 0
144 165 0
143 163 0
143 164 0
146 166 0
141 162 0
146 166 0
139 159 0
146 166 0
145 164 0
143 163 0
151 170 0
152 172 0
142 160 0
137 156 0
146 165 0
140 159 0
140 160 0
148 167 0
137 156 0
146 164 0
147 166 0
143 160 0
139 157 0
149 168 0
147 167 0
145 164 0
143 163 0
138 157 0
130 148 0
142 161 0
149 168 0
148 167 0
141 158 0
139 160 0
145 162 0
138 154 0
149 167 0
138 156 0
151 171 0
150 168 0
135 153 0
147 165 0
146 163 0
141 157 0
143 162 0
144 162 0
142 160 0
142 158 0
147 163 0
152 172 0
141 157 0
143 162 0
148 165 0
144 161 0
153 170 0
146 163 0
142 157 0
145 160 0
135 150 0
143 160 0
150 165 0
137 153 0
149 165 0
152 168 0
143 158 0
151 168 0
135 148 0
146 162 0
143 161 0
150 165 0
147 162 0
145 160 0
142 155 0
144 160 0
142 156 0
140 154 0
145 160 0
143 157 0
143 157 0
142 156 0
149 163 0
144 158 0
146 161 0
140 154 0
138 150 0
143 157 0
148 161 0
146 159 0
147 160 0
152 166 0
140 152 0
135 144 0
141 153 0
143 153 0
152 165 0
137 146 0
143 155 0
145 158 0
153 167 0
142 153 0
143 154 0
152 165 0
139 147 0
151 163 0
148 160 0
145 156 0
142 151 0
136 148 0
139 148 0
145 154 0
143 153 0
146 156 0
146 157 0
146 155 0
153 164 0
141 151 0
149 157 0
140 148 0
149 158 0
146 152 0
149 157 0
150 160 0
146 156 0
149 160 0
141 147 0
133 139 0
157 167 0
148 156 0
151 161 0
149 156 0
149 159 0
147 153 0
148 156 0
143 152 0
150 158 0
146 153 0
150 160 0
152 160 0
148 157 0
152 164 0
148 156 0
156 163 0
150 162 0
157 168 0
149 155 0
145 152 0
149 158 0
147 157 0
150 156 0
155 163 0
155 166 0
153 161 0
148 156 0
157 168 0
153 164 0
150 159 0
148 160 0
155 166 0
147 156 0
152 160 0
158 169 0
155 166 0
149 159 0
159 170 0
162 172 0
150 159 0
174 197 0
172 195 0
168 190 0
170 193 0
171 194 0
168 192 0
168 191 0
170 192 0
173 195 0
173 195 0
169 192 0
173 195 0
172 195 0
167 189 0
170 193 0
168 190 0
173 195 0
174 195 0
169 192 0
172 194 0
168 190 0
169 191 0
171 192 0
173 195 0
168 190 0
167 190 0
168 190 0
174 196 0
163 185 0
171 193 0
171 194 0
166 189 0
170 193 0
168 191 0
170 193 0
165 188 0
168 191 0
164 187 0
169 191 0
168 190 0
170 192 0
170 192 0
163 185 0
171 194 0
163 186 0
168 190 0
162 184 0
165 188 0
163 185 0
170 192 0
166 188 0
165 188 0
169 192 0
166 189 0
165 187 0
162 185 0
164 186 0
160 182 0
168 191 0
168 190 0
171 194 0
168 190 0
162 185 0
164 187 0
162 184 0
160 183 0
164 186 0
163 186 0
159 181 0
163 186 0
161 184 0
164 188 0
158 180 0
164 186 0
163 185 0
159 181 0
163 185 0
166 189 0
159 180 0
157 181 0
168 190 0
165 187 0
161 184 0
164 188 0
161 185 0
164 186 0
166 190 0
164 187 0
161 184 0
160 182 0
156 179 0
160 183 0
154 176 0
156 179 0
163 185 0
165 187 0
156 180 0
156 178 0
160 183 0
159 182 0
165 187 0
161 183 0
163 185 0
163 185 0
154 176 0
163 186 0
163 186 0
162 185 0
162 185 0
164 186 0
155 178 0
161 184 0
164 187 0
160 183 0
159 182 0
162 185 0
158 181 0
155 178 0
158 181 0
152 174 0
159 181 0
159 182 0
156 179 0
159 181 0
157 181 0
152 175 0
164 187 0
158 180 0
159 181 0
154 177 0
162 184 0
150 172 0
156 178 0
155 177 0
158 181 0
149 171 0
148 170 0
148 171 0
155 178 0
150 173 0
154 176 0
155 178 0
151 173 0
145 168 0
159 181 0
151 173 0
155 177 0
150 173 0
155 176 0
157 180 0
148 171 0
153 175 0
147 169 0
155 178 0
151 172 0
155 177 0
151 171 0
158 181 0
155 177 0
149 171 0
157 179 0
153 175 0
150 172 0
147 169 0
153 175 0
151 172 0
146 168 0
149 170 0
145 166 0
157 178 0
149 172 0
149 169 0
149 171 0
147 169 0
142 163 0
144 165 0
142 164 0
145 166 0
140 161 0
145 167 0
149 170 0
142 164 0
144 166 0
147 168 0
141 163 0
146 168 0
148 170 0
153 174 0
153 175 0
142 164 0
150 171 0
142 165 0
145 165 0
146 166 0
139 161 0
161 182 0
138 159 0
144 166 0
143 164 0
146 167 0
147 169 0
138 160 0
144 165 0
134 155 0
141 161 0
139 162 0
145 167 0
140 161 0
148 169 0
138 160 0
148 169 0
143 163 0
145 165 0
143 164 0
142 164 0
147 168 0
141 162 0
147 164 0
149 170 0
134 155 0
136 156 0
147 169 0
144 165 0
145 165 0
143 163 0
143 163 0
146 166 0
146 166 0
137 159 0
145 165 0
144 164 0
148 169 0
145 165 0
141 162 0
150 172 0
145 165 0
137 157 0
141 160 0
141 160 0
145 165 0
148 169 0
143 161 0
146 166 0
146 166 0
140 159 0
137 157 0
139 157 0
145 163 0
143 162 0
141 158 0
142 162 0
150 169 0
144 163 0
150 169 0
145 165 0
142 161 0
150 169 0
145 164 0
147 166 0
148 168 0
140 159 0
142 163 0
144 162 0
139 158 0
145 164 0
142 161 0
143 162 0
152 172 0
150 168 0
144 161 0
142 159 0
152 171 0
150 168 0
145 162 0
150 169 0
152 170 0
149 167 0
149 169 0
145 163 0
143 159 0
143 162 0
134 150 0
142 160 0
146 163 0
149 167 0
144 161 0
145 163 0
143 159 0
137 153 0
141 158 0
147 165 0
144 160 0
145 160 0
148 165 0
142 158 0
146 163 0
141 157 0
143 158 0
149 166 0
149 163 0
141 157 0
139 155 0
146 161 0
139 155 0
140 154 0
150 165 0
145 160 0
142 156 0
142 157 0
150 166 0
144 158 0
151 167 0
151 168 0
153 169 0
145 161 0
156 171 0
144 157 0
148 163 0
135 150 0
145 158 0
143 156 0
147 162 0
148 159 0
145 158 0
144 158 0
148 162 0
151 165 0
135 148 0
144 157 0
142 155 0
136 147 0
147 158 0
142 152 0
151 160 0
152 166 0
143 155 0
142 152 0
144 156 0
151 161 0
140 150 0
144 156 0
147 158 0
146 157 0
149 160 0
141 150 0
149 161 0
140 150 0
145 156 0
143 152 0
143 153 0
142 153 0
145 157 0
144 154 0
149 161 0
150 160 0
133 143 0
153 163 0
139 148 0
147 155 0
148 156 0
140 148 0
147 155 0
151 162 0
143 151 0
153 162 0
145 155 0
144 151 0
151 162 0
155 167 0
149 159 0
152 161 0
146 154 0
150 159 0
153 162 0
147 153 0
148 157 0
147 153 0
154 165 0
145 154 0
147 157 0
153 164 0
148 160 0
146 156 0
157 168 0
142 147 0
147 157 0
152 160 0
154 163 0
150 159 0
147 157 0
153 165 0
152 161 0
156 170 0
152 163 0
160 171 0
151 159 0
156 164 0
152 161 0
156 166 0
158 170 0
175 197 0
172 195 0
169 192 0
174 195 0
172 194 0
172 194 0
176 197 0
174 197 0
170 191 0
172 194 0
170 192 0
171 193 0
170 193 0
173 196 0
173 196 0
172 194 0
167 190 0
169 191 0
169 193 0
172 193 0
167 189 0
164 186 0
171 194 0
168 190 0
171 193 0
169 192 0
166 188 0
172 193 0
168 190 0
174 196 0
168 190 0
169 192 0
169 192 0
169 191 0
165 187 0
171 194 0
168 190 0
169 191 0
163 186 0
164 187 0
164 187 0
167 189 0
168 190 0
166 188 0
168 191 0
166 189 0
170 193 0
170 192 0
170 193 0
171 193 0
169 191 0
169 191 0
166 188 0
162 186 0
164 187 0
168 190 0
165 188 0
169 192 0
164 187 0
160 182 0
168 191 0
162 183 0
163 186 0
166 187 0
164 187 0
166 188 0
166 189 0
165 188 0
168 192 0
166 189 0
170 192 0
162 184 0
160 182 0
160 182 0
162 184 0
160 182 0
157 179 0
163 186 0
161 183 0
164 186 0
160 183 0
159 181 0
167 190 0
160 183 0
168 191 0
163 186 0
151 174 0
158 180 0
160 184 0
158 179 0
165 188 0
163 186 0
153 176 0
165 187 0
161 184 0
151 174 0
162 184 0
156 178 0
155 178 0
159 181 0
157 181 0
161 184 0
157 180 0
159 182 0
161 184 0
152 175 0
157 180 0
161 184 0
156 179 0
155 179 0
156 179 0
150 173 0
149 172 0
165 188 0
157 180 0
160 182 0
158 182 0
156 178 0
154 176 0
160 182 0
164 186 0
166 188 0
160 184 0
163 185 0
160 183 0
157 179 0
161 184 0
155 176 0
162 183 0
161 184 0
153 175 0
159 182 0
148 170 0
147 169 0
154 175 0
155 178 0
154 175 0
151 173 0
151 175 0
151 174 0
162 184 0
156 179 0
151 174 0
144 166 0
147 168 0
145 167 0
152 177 0
150 174 0
152 173 0
153 174 0
152 174 0
147 168 0
153 175 0
152 174 0
150 173 0
150 172 0
145 167 0
152 174 0
148 169 0
143 164 0
149 171 0
152 174 0
149 171 0
151 172 0
151 172 0
144 166 0
149 171 0
146 168 0
145 168 0
143 165 0
146 168 0
148 170 0
145 167 0
144 166 0
143 165 0
143 164 0
148 170 0
151 171 0
154 175 0
145 167 0
143 165 0
147 169 0
152 174 0
143 165 0
148 170 0
149 171 0
147 169 0
147 168 0
141 161 0
134 157 0
145 165 0
148 170 0
149 171 0
150 170 0
134 155 0
145 164 0
143 164 0
148 169 0
147 168 0
147 169 0
144 167 0
152 173 0
147 167 0
144 165 0
144 165 0
139 159 0
148 169 0
151 171 0
150 171 0
149 170 0
143 165 0
142 163 0
145 164 0
149 172 0
149 170 0
143 164 0
147 167 0
145 165 0
137 156 0
151 170 0
149 168 0
142 163 0
139 160 0
143 164 0
146 166 0
145 165 0
151 173 0
133 153 0
143 164 0
142 162 0
143 163 0
140 158 0
140 161 0
148 168 0
145 165 0
145 165 0
139 158 0
141 161 0
152 173 0
146 166 0
149 169 0
137 154 0
149 168 0
142 163 0
147 167 0
140 161 0
148 167 0
146 166 0
146 166 0
147 167 0
149 169 0
149 170 0
145 164 0
151 172 0
143 163 0
153 172 0
139 157 0
142 163 0
145 164 0
146 163 0
136 154 0
145 163 0
150 168 0
140 158 0
141 159 0
148 166 0
139 158 0
147 166 0
146 164 0
138 155 0
146 164 0
146 164 0
148 164 0
147 166 0
146 165 0
142 161 0
143 160 0
143 162 0
138 155 0
149 167 0
142 161 0
144 163 0
149 169 0
148 168 0
143 159 0
146 163 0
150 170 0
145 160 0
151 167 0
148 164 0
140 157 0
140 155 0
146 163 0
144 161 0
146 162 0
146 160 0
148 164 0
149 165 0
151 169 0
144 161 0
145 160 0
136 153 0
143 157 0
143 156 0
135 149 0
144 159 0
140 156 0
140 154 0
144 159 0
148 164 0
139 151 0
143 157 0
151 167 0
147 161 0
146 163 0
141 157 0
146 161 0
143 158 0
138 154 0
143 157 0
152 165 0
140 152 0
147 161 0
138 151 0
144 157 0
150 163 0
137 150 0
146 161 0
148 161 0
147 162 0
147 159 0
147 160 0
150 165 0
140 152 0
150 162 0
142 155 0
146 159 0
139 148 0
140 151 0
146 158 0
147 157 0
152 164 0
144 154 0
147 159 0
146 157 0
148 158 0
150 159 0
147 156 0
149 160 0
143 154 0
151 161 0
153 164 0
143 154 0
144 154 0
151 163 0
139 149 0
145 154 0
149 158 0
147 157 0
153 165 0
146 156 0
146 152 0
135 144 0
147 155 0
149 156 0
151 157 0
151 159 0
151 160 0
148 157 0
148 155 0
148 156 0
152 159 0
154 164 0
146 153 0
147 154 0
150 160 0
151 161 0
145 154 0
158 166 0
155 164 0
141 151 0
144 153 0
153 160 0
155 165 0
153 163 0
144 153 0
154 165 0
159 170 0
149 156 0
157 168 0
153 164 0
153 161 0
153 164 0
150 157 0
153 163 0
143 154 0
152 161 0
152 162 0
151 163 0
156 166 0
172 194 0
171 192 0
172 195 0
170 193 0
171 193 0
171 193 0
172 195 0
173 196 0
169 192 0
173 196 0
172 195 0
169 190 0
169 192 0
165 187 0
168 191 0
171 193 0
171 193 0
169 191 0
169 191 0
169 191 0
174 197 0
171 194 0
170 193 0
169 191 0
168 190 0
171 194 0
168 191 0
171 193 0
169 191 0
167 190 0
168 190 0
168 190 0
170 193 0
165 187 0
169 191 0
168 190 0
167 189 0
168 190 0
165 187 0
169 192 0
170 192 0
168 190 0
172 195 0
166 188 0
170 192 0
170 193 0
165 188 0
167 188 0
165 187 0
166 188 0
167 188 0
161 182 0
169 191 0
166 188 0
163 186 0
165 187 0
172 194 0
164 188 0
167 190 0
168 192 0
168 190 0
161 184 0
159 182 0
161 185 0
165 187 0
166 189 0
164 187 0
159 182 0
163 187 0
160 183 0
160 183 0
167 190 0
163 186 0
164 185 0
163 187 0
159 182 0
162 185 0
162 185 0
163 186 0
161 183 0
161 184 0
158 181 0
171 193 0
159 182 0
161 184 0
166 188 0
160 184 0
162 183 0
159 182 0
161 184 0
161 183 0
159 182 0
163 186 0
160 184 0
160 184 0
162 185 0
160 182 0
156 178 0
160 184 0
161 183 0
158 181 0
160 183 0
165 187 0
156 179 0
150 173 0
159 182 0
158 181 0
163 185 0
156 179 0
159 182 0
155 178 0
159 182 0
155 178 0
164 188 0
156 179 0
158 181 0
155 178 0
158 181 0
158 181 0
158 181 0
161 183 0
158 181 0
159 181 0
154 176 0
157 179 0
156 179 0
150 173 0
152 174 0
152 175 0
157 179 0
157 180 0
159 181 0
157 179 0
145 166 0
148 170 0
151 173 0
155 179 0
153 175 0
153 176 0
155 178 0
158 181 0
154 176 0
148 171 0
154 176 0
155 178 0
151 173 0
159 182 0
152 174 0
150 172 0
150 172 0
156 179 0
152 174 0
151 174 0
159 181 0
151 171 0
152 173 0
150 172 0
154 176 0
151 174 0
150 173 0
149 172 0
148 169 0
161 184 0
143 165 0
144 165 0
154 176 0
151 172 0
145 166 0
155 177 0
149 172 0
150 173 0
146 169 0
151 173 0
151 174 0
150 171 0
150 172 0
149 172 0
148 169 0
146 167 0
142 163 0
148 169 0
135 156 0
147 169 0
154 176 0
148 170 0
150 171 0
149 170 0
148 169 0
146 168 0
150 170 0
141 163 0
140 161 0
146 167 0
141 161 0
150 170 0
153 176 0
145 167 0
139 161 0
146 167 0
143 164 0
143 165 0
144 166 0
144 165 0
149 170 0
143 164 0
145 165 0
136 156 0
144 163 0
144 165 0
150 172 0
145 165 0
145 167 0
143 163 0
144 164 0
138 159 0
138 159 0
140 160 0
136 157 0
148 169 0
150 169 0
142 164 0
145 167 0
142 161 0
136 157 0
139 160 0
142 158 0
133 152 0
139 158 0
148 168 0
143 164 0
143 163 0
155 175 0
145 165 0
137 158 0
148 169 0
142 163 0
140 161 0
146 168 0
144 164 0
143 164 0
154 174 0
145 164 0
147 167 0
143 163 0
143 163 0
154 174 0
136 155 0
137 156 0
155 176 0
138 158 0
148 168 0
140 160 0
145 163 0
150 169 0
148 167 0
146 165 0
147 166 0
144 164 0
144 166 0
151 171 0
150 169 0
140 160 0
146 166 0
145 163 0
146 165 0
144 163 0
144 163 0
142 161 0
143 162 0
143 160 0
152 169 0
146 166 0
146 164 0
154 172 0
148 167 0
148 167 0
151 170 0
147 164 0
152 169 0
151 170 0
151 169 0
148 167 0
146 165 0
156 174 0
148 165 0
147 165 0
155 174 0
145 161 0
143 162 0
149 168 0
148 165 0
151 169 0
141 158 0
148 166 0
145 161 0
139 154 0
143 160 0
157 175 0
151 169 0
154 171 0
151 167 0
141 158 0
147 165 0
141 158 0
149 165 0
149 166 0
146 162 0
143 158 0
141 159 0
151 168 0
146 161 0
153 169 0
146 160 0
153 168 0
153 170 0
151 168 0
150 163 0
149 162 0
152 168 0
143 159 0
140 154 0
146 160 0
148 160 0
149 165 0
152 167 0
150 162 0
146 160 0
148 160 0
147 160 0
150 163 0
146 158 0
146 160 0
143 156 0
155 171 0
151 165 0
145 159 0
138 149 0
151 162 0
150 160 0
147 158 0
150 161 0
148 160 0
146 159 0
149 160 0
152 164 0
152 164 0
150 162 0
148 159 0
147 159 0
141 152 0
149 160 0
151 165 0
151 161 0
153 165 0
148 161 0
145 155 0
153 163 0
149 159 0
150 161 0
153 163 0
144 155 0
152 163 0
148 156 0
151 161 0
147 158 0
154 164 0
146 156 0
153 160 0
152 160 0
147 157 0
154 163 0
150 158 0
149 159 0
139 149 0
157 165 0
146 156 0
140 149 0
149 158 0
154 167 0
150 160 0
148 159 0
145 154 0
153 165 0
152 161 0
151 158 0
148 158 0
151 161 0
160 171 0
156 169 0
149 158 0
147 157 0
150 160 0
149 160 0
158 169 0
153 163 0
153 161 0
157 169 0
150 160 0
158 169 0
158 170 0
166 188 0
173 195 0
169 192 0
172 195 0
174 196 0
173 196 0
172 195 0
171 193 0
173 196 0
170 192 0
172 194 0
171 194 0
171 193 0
174 194 0
169 191 0
166 188 0
169 192 0
167 189 0
168 191 0
166 188 0
172 194 0
170 192 0
171 193 0
169 192 0
169 191 0
168 191 0
170 193 0
171 193 0
163 186 0
167 190 0
170 192 0
171 194 0
165 187 0
168 190 0
169 191 0
169 192 0
160 183 0
167 189 0
168 190 0
163 185 0
166 189 0
168 191 0
167 189 0
167 190 0
173 195 0
164 187 0
165 189 0
171 193 0
170 193 0
164 187 0
167 190 0
163 186 0
165 187 0
161 184 0
165 188 0
169 192 0
162 185 0
164 188 0
167 189 0
166 189 0
161 184 0
163 185 0
163 186 0
164 187 0
163 185 0
169 191 0
163 186 0
163 186 0
164 186 0
166 188 0
163 187 0
166 188 0
161 183 0
163 187 0
163 186 0
161 184 0
163 187 0
164 186 0
161 183 0
162 185 0
157 180 0
161 185 0
163 185 0
161 185 0
158 180 0
157 180 0
166 189 0
163 185 0
159 182 0
159 182 0
161 184 0
160 183 0
151 173 0
157 180 0
166 189 0
159 181 0
159 180 0
155 178 0
166 189 0
157 179 0
157 180 0
161 183 0
159 182 0
150 173 0
159 181 0
160 183 0
155 179 0
161 184 0
158 180 0
160 183 0
151 175 0
163 186 0
161 183 0
159 181 0
158 180 0
153 175 0
153 176 0
158 181 0
159 183 0
162 185 0
160 183 0
150 172 0
162 184 0
164 187 0
154 177 0
159 182 0
153 174 0
154 176 0
158 181 0
156 178 0
152 174 0
160 183 0
147 169 0
150 172 0
163 186 0
153 175 0
147 170 0
153 176 0
148 170 0
155 177 0
154 176 0
162 185 0
152 174 0
150 172 0
158 180 0
153 176 0
147 169 0
153 175 0
158 182 0
151 173 0
151 174 0
155 177 0
158 180 0
148 169 0
153 176 0
147 169 0
153 175 0
152 175 0
150 173 0
154 175 0
142 165 0
151 174 0
153 176 0
149 171 0
152 173 0
150 171 0
151 173 0
151 172 0
151 173 0
156 176 0
151 173 0
150 171 0
151 173 0
144 166 0
147 170 0
140 162 0
148 170 0
144 165 0
145 165 0
149 171 0
151 173 0
146 168 0
148 169 0
148 169 0
146 167 0
150 172 0
146 168 0
142 164 0
133 154 0
147 170 0
153 174 0
147 170 0
152 173 0
148 168 0
137 158 0
144 165 0
151 172 0
147 169 0
145 165 0
151 171 0
151 173 0
149 169 0
148 168 0
150 172 0
147 168 0
144 166 0
136 156 0
143 162 0
139 160 0
147 167 0
147 168 0
157 178 0
146 166 0
142 163 0
150 172 0
149 170 0
149 170 0
145 167 0
144 166 0
145 166 0
142 163 0
147 167 0
149 170 0
146 167 0
141 162 0
151 171 0
142 161 0
143 164 0
136 156 0
143 164 0
142 162 0
142 164 0
143 163 0
147 168 0
146 165 0
144 165 0
146 166 0
146 164 0
136 157 0
152 172 0
143 163 0
147 167 0
136 156 0
145 165 0
142 162 0
138 158 0
143 164 0
150 172 0
146 166 0
149 169 0
151 172 0
147 166 0
151 171 0
142 162 0
150 169 0
146 167 0
151 170 0
146 164 0
148 168 0
154 172 0
146 166 0
140 159 0
143 162 0
141 160 0
147 167 0
143 162 0
146 163 0
154 174 0
137 155 0
145 165 0
150 169 0
146 164 0
145 165 0
138 156 0
156 175 0
150 169 0
150 170 0
145 163 0
145 164 0
151 169 0
144 162 0
148 167 0
146 163 0
148 166 0
151 170 0
145 163 0
150 168 0
143 161 0
146 164 0
146 163 0
144 163 0
151 169 0
148 166 0
148 166 0
152 170 0
151 170 0
142 160 0
143 161 0
148 164 0
152 169 0
146 161 0
146 162 0
148 166 0
156 174 0
147 164 0
146 162 0
135 148 0
153 172 0
143 156 0
146 163 0
142 157 0
150 165 0
145 161 0
147 161 0
149 163 0
156 172 0
142 158 0
150 165 0
145 160 0
152 169 0
131 143 0
147 162 0
138 153 0
154 170 0
149 163 0
139 152 0
152 166 0
150 165 0
149 164 0
146 159 0
144 159 0
145 159 0
157 172 0
148 161 0
149 162 0
152 164 0
143 157 0
139 151 0
156 168 0
141 151 0
151 163 0
141 151 0
147 159 0
150 163 0
147 157 0
150 165 0
157 170 0
150 161 0
151 161 0
153 165 0
154 166 0
151 163 0
147 158 0
149 161 0
149 159 0
147 159 0
149 160 0
144 157 0
147 157 0
151 161 0
148 158 0
147 157 0
152 162 0
148 162 0
152 164 0
148 158 0
154 166 0
147 156 0
152 164 0
146 158 0
152 161 0
151 161 0
160 171 0
154 162 0
149 158 0
145 153 0
146 154 0
148 157 0
155 167 0
146 158 0
145 152 0
153 164 0
155 166 0
155 165 0
154 166 0
149 159 0
152 163 0
154 168 0
158 170 0
152 163 0
147 158 0
159 170 0
153 163 0
149 157 0
153 165 0
159 171 0
161 172 0
157 168 0
157 169 0
156 166 0
171 194 0
170 193 0
171 193 0
169 192 0
168 192 0
167 190 0
174 196 0
170 193 0
171 193 0
169 191 0
170 193 0
169 192 0
169 191 0
172 195 0
170 193 0
168 191 0
168 191 0
167 189 0
169 191 0
172 195 0
167 190 0
165 188 0
171 193 0
167 189 0
172 195 0
170 193 0
170 193 0
167 189 0
170 192 0
171 193 0
172 194 0
168 190 0
170 192 0
164 187 0
168 191 0
166 189 0
162 184 0
167 189 0
169 191 0
166 189 0
167 190 0
167 189 0
166 189 0
166 188 0
167 190 0
167 190 0
167 190 0
162 186 0
167 190 0
162 186 0
163 185 0
160 184 0
164 186 0
168 190 0
159 181 0
160 184 0
167 190 0
164 187 0
168 190 0
166 188 0
162 186 0
162 185 0
163 186 0
162 186 0
163 187 0
157 180 0
163 186 0
161 185 0
166 189 0
166 189 0
164 186 0
168 190 0
163 185 0
168 191 0
168 190 0
166 188 0
161 184 0
164 187 0
164 187 0
161 184 0
165 188 0
159 182 0
164 187 0
163 186 0
167 190 0
162 185 0
157 180 0
159 181 0
168 191 0
165 188 0
158 180 0
164 186 0
157 179 0
162 184 0
161 183 0
165 187 0
159 182 0
161 183 0
165 188 0
160 182 0
161 184 0
158 180 0
151 174 0
156 179 0
157 179 0
165 187 0
157 180 0
151 173 0
159 183 0
163 185 0
159 181 0
162 184 0
158 180 0
160 184 0
160 183 0
159 181 0
160 183 0
150 173 0
160 183 0
159 182 0
158 181 0
159 181 0
150 171 0
154 177 0
153 176 0
156 178 0
155 178 0
149 173 0
157 180 0
159 182 0
163 186 0
153 176 0
152 174 0
155 178 0
154 177 0
153 176 0
160 183 0
161 183 0
156 179 0
156 178 0
157 180 0
152 175 0
151 174 0
155 177 0
155 177 0
155 178 0
140 163 0
156 179 0
146 168 0
155 178 0
152 174 0
150 171 0
156 179 0
152 175 0
159 182 0
148 170 0
154 176 0
150 171 0
157 178 0
153 173 0
153 176 0
151 172 0
147 169 0
147 169 0
151 174 0
147 170 0
146 168 0
154 175 0
150 172 0
143 164 0
154 176 0
143 165 0
150 173 0
147 169 0
156 177 0
149 171 0
151 172 0
149 170 0
148 168 0
142 164 0
148 170 0
157 180 0
154 175 0
139 161 0
149 171 0
149 172 0
154 174 0
145 167 0
141 163 0
156 177 0
147 167 0
147 168 0
145 166 0
140 161 0
145 166 0
149 171 0
153 175 0
147 168 0
145 166 0
149 171 0
138 161 0
148 169 0
147 168 0
151 171 0
146 168 0
153 173 0
146 167 0
147 168 0
147 169 0
146 166 0
147 170 0
142 162 0
144 166 0
146 168 0
155 177 0
151 173 0
149 170 0
147 169 0
149 171 0
142 161 0
142 164 0
138 159 0
148 169 0
147 168 0
151 171 0
138 159 0
152 171 0
140 161 0
144 164 0
146 166 0
146 166 0
144 165 0
142 162 0
148 168 0
146 167 0
152 174 0
142 163 0
149 169 0
151 172 0
153 174 0
142 163 0
143 162 0
148 169 0
144 163 0
147 167 0
151 172 0
149 167 0
141 160 0
152 172 0
142 162 0
153 172 0
144 165 0
148 169 0
142 162 0
149 167 0
151 171 0
149 170 0
142 162 0
146 167 0
155 177 0
150 169 0
146 166 0
142 162 0
148 168 0
149 167 0
146 165 0
144 163 0
141 160 0
143 161 0
141 160 0
147 167 0
144 161 0
152 170 0
141 160 0
145 164 0
143 160 0
154 173 0
146 166 0
144 162 0
150 168 0
146 164 0
147 167 0
151 170 0
152 170 0
146 164 0
145 161 0
146 165 0
146 164 0
157 176 0
155 174 0
149 166 0
144 162 0
147 164 0
148 164 0
143 162 0
153 172 0
146 165 0
144 163 0
145 160 0
154 174 0
154 173 0
146 164 0
143 159 0
152 170 0
150 167 0
151 169 0
142 159 0
144 162 0
151 169 0
149 166 0
153 170 0
147 162 0
141 156 0
148 164 0
146 159 0
147 163 0
156 171 0
147 164 0
153 170 0
153 167 0
147 161 0
149 163 0
147 162 0
145 159 0
148 161 0
148 164 0
153 168 0
146 158 0
141 154 0
145 159 0
141 156 0
144 157 0
136 149 0
147 161 0
138 154 0
145 160 0
145 159 0
156 170 0
142 154 0
145 157 0
150 161 0
153 166 0
148 161 0
142 153 0
149 161 0
148 162 0
151 165 0
151 163 0
147 159 0
145 158 0
150 163 0
145 156 0
149 164 0
152 163 0
150 161 0
148 159 0
154 163 0
148 160 0
147 157 0
146 153 0
149 157 0
145 155 0
145 155 0
144 154 0
150 162 0
151 162 0
145 156 0
156 167 0
153 166 0
149 160 0
143 156 0
150 162 0
151 161 0
156 164 0
157 168 0
150 160 0
145 153 0
150 160 0
152 161 0
154 166 0
153 164 0
151 159 0
151 162 0
153 163 0
154 165 0
146 156 0
158 171 0
150 158 0
150 160 0
146 155 0
159 171 0
154 166 0
150 160 0
156 169 0
155 164 0
152 159 0
157 169 0
149 161 0
149 161 0
152 162 0
169 192 0
170 193 0
172 194 0
166 189 0
170 194 0
174 197 0
167 190 0
167 189 0
173 195 0
170 192 0
170 193 0
171 194 0
172 195 0
167 189 0
170 193 0
171 194 0
171 194 0
170 193 0
168 191 0
173 196 0
171 193 0
170 193 0
169 191 0
169 192 0
165 188 0
167 190 0
165 187 0
168 191 0
171 194 0
164 187 0
166 189 0
170 193 0
162 185 0
167 190 0
167 190 0
168 190 0
168 191 0
168 190 0
169 192 0
169 192 0
167 189 0
170 193 0
164 187 0
167 189 0
163 186 0
165 188 0
167 190 0
165 187 0
166 189 0
168 190 0
165 188 0
163 186 0
165 188 0
160 183 0
159 182 0
162 186 0
167 190 0
158 181 0
166 188 0
164 187 0
163 186 0
169 192 0
166 188 0
169 193 0
164 187 0
167 190 0
161 183 0
161 183 0
163 186 0
166 188 0
162 186 0
164 188 0
162 184 0
160 183 0
164 186 0
164 186 0
161 185 0
164 186 0
156 179 0
162 184 0
166 188 0
158 181 0
165 188 0
162 184 0
152 174 0
160 183 0
160 183 0
161 184 0
162 185 0
152 176 0
155 179 0
158 181 0
160 183 0
160 184 0
160 183 0
166 188 0
161 184 0
160 184 0
156 179 0
159 180 0
163 185 0
161 182 0
165 188 0
157 180 0
157 181 0
161 184 0
162 185 0
160 184 0
161 184 0
152 175 0
154 177 0
155 177 0
163 186 0
160 182 0
151 173 0
161 185 0
156 179 0
156 180 0
162 184 0
156 179 0
154 176 0
157 180 0
160 182 0
160 182 0
152 174 0
155 177 0
157 179 0
153 175 0
160 183 0
157 180 0
153 176 0
159 182 0
158 181 0
162 184 0
153 176 0
154 175 0
160 183 0
153 175 0
154 176 0
151 174 0
152 175 0
149 172 0
148 171 0
151 174 0
159 182 0
155 176 0
149 169 0
153 174 0
154 176 0
158 181 0
153 175 0
149 171 0
149 171 0
151 174 0
152 174 0
157 180 0
153 176 0
158 180 0
147 169 0
156 178 0
150 172 0
153 175 0
159 182 0
151 172 0
148 171 0
155 177 0
150 171 0
159 181 0
146 168 0
152 174 0
145 167 0
154 177 0
154 176 0
148 170 0
149 170 0
141 163 0
155 178 0
151 173 0
141 161 0
151 174 0
145 165 0
148 169 0
144 166 0
151 174 0
151 172 0
156 178 0
152 174 0
148 170 0
145 168 0
145 167 0
154 176 0
140 163 0
148 170 0
148 169 0
143 165 0
148 170 0
148 170 0
148 170 0
151 173 0
148 169 0
147 169 0
151 173 0
146 168 0
147 168 0
145 165 0
142 163 0
147 168 0
150 172 0
145 167 0
141 162 0
151 173 0
149 169 0
145 167 0
145 167 0
143 162 0
147 169 0
147 170 0
148 168 0
147 168 0
147 167 0
144 164 0
145 166 0
147 166 0
140 160 0
150 172 0
151 171 0
140 161 0
153 174 0
149 171 0
141 160 0
152 173 0
143 164 0
150 170 0
144 164 0
141 162 0
146 166 0
138 159 0
152 172 0
146 167 0
150 171 0
140 159 0
148 167 0
144 164 0
146 166 0
143 164 0
152 172 0
152 172 0
147 169 0
155 174 0
139 159 0
153 173 0
148 167 0
149 168 0
143 162 0
150 170 0
139 159 0
142 162 0
151 168 0
146 164 0
147 167 0
139 160 0
142 161 0
144 161 0
148 165 0
145 165 0
150 170 0
144 162 0
142 158 0
144 163 0
144 163 0
146 165 0
144 164 0
143 162 0
137 154 0
149 165 0
155 173 0
149 171 0
154 173 0
153 172 0
143 161 0
145 161 0
151 172 0
152 171 0
152 170 0
141 159 0
151 170 0
146 164 0
147 165 0
151 169 0
149 166 0
148 166 0
148 165 0
152 171 0
154 172 0
149 168 0
149 168 0
143 160 0
151 171 0
148 165 0
150 167 0
150 165 0
148 167 0
145 161 0
145 161 0
146 161 0
150 165 0
148 164 0
144 162 0
146 162 0
143 160 0
150 166 0
144 161 0
146 162 0
148 164 0
153 169 0
149 166 0
148 162 0
142 157 0
141 156 0
148 163 0
149 166 0
148 163 0
144 159 0
154 168 0
148 165 0
147 164 0
153 170 0
156 170 0
150 167 0
146 159 0
154 171 0
155 173 0
149 161 0
148 161 0
146 158 0
149 162 0
145 158 0
146 159 0
138 151 0
142 157 0
150 162 0
142 156 0
147 160 0
157 168 0
143 155 0
152 166 0
148 163 0
145 156 0
148 158 0
156 169 0
148 160 0
153 165 0
152 166 0
146 158 0
144 155 0
153 165 0
147 159 0
147 158 0
144 155 0
148 160 0
151 162 0
149 164 0
141 155 0
147 158 0
150 162 0
146 156 0
150 162 0
149 158 0
143 156 0
154 166 0
156 168 0
150 162 0
151 161 0
145 157 0
147 156 0
149 158 0
150 160 0
153 167 0
150 159 0
150 159 0
152 163 0
154 166 0
150 160 0
149 159 0
152 163 0
152 164 0
146 158 0
150 160 0
152 163 0
150 158 0
148 158 0
154 164 0
142 152 0
154 166 0
154 167 0
158 169 0
153 164 0
157 170 0
157 167 0
152 164 0
169 192 0
166 189 0
171 194 0
173 197 0
172 194 0
167 189 0
172 195 0
167 190 0
172 195 0
171 193 0
171 194 0
166 189 0
170 192 0
167 190 0
165 188 0
169 192 0
168 190 0
168 191 0
163 186 0
164 187 0
170 192 0
170 193 0
168 190 0
171 194 0
168 191 0
166 189 0
168 190 0
169 192 0
170 192 0
167 190 0
168 191 0
164 187 0
170 193 0
166 189 0
169 192 0
170 192 0
168 191 0
166 189 0
160 183 0
169 192 0
166 189 0
165 187 0
168 190 0
161 185 0
169 190 0
163 186 0
168 191 0
163 186 0
164 187 0
169 191 0
163 185 0
171 194 0
166 189 0
160 182 0
167 190 0
168 190 0
169 192 0
166 189 0
164 185 0
167 190 0
167 190 0
162 184 0
161 185 0
163 187 0
161 184 0
167 190 0
163 187 0
163 186 0
159 183 0
161 183 0
165 188 0
164 187 0
164 188 0
165 188 0
165 186 0
165 189 0
158 181 0
160 183 0
166 189 0
157 181 0
158 181 0
166 189 0
157 180 0
155 177 0
156 179 0
159 182 0
161 185 0
161 183 0
160 183 0
162 185 0
162 184 0
155 178 0
159 182 0
162 185 0
160 183 0
162 185 0
161 184 0
163 185 0
157 179 0
161 183 0
162 184 0
158 181 0
166 188 0
162 186 0
160 184 0
158 180 0
161 183 0
161 184 0
157 178 0
161 183 0
162 184 0
154 175 0
157 180 0
156 179 0
152 174 0
159 182 0
159 182 0
157 179 0
157 180 0
161 183 0
160 182 0
155 176 0
155 178 0
159 180 0
155 178 0
155 179 0
162 184 0
153 176 0
162 184 0
158 182 0
150 172 0
155 176 0
155 177 0
153 176 0
153 175 0
149 171 0
157 179 0
158 180 0
152 173 0
155 178 0
147 169 0
155 177 0
159 183 0
155 177 0
160 182 0
154 177 0
155 178 0
157 179 0
148 170 0
158 180 0
147 169 0
153 177 0
146 168 0
158 181 0
154 177 0
151 175 0
153 175 0
150 172 0
160 182 0
150 172 0
151 173 0
154 177 0
152 174 0
153 175 0
147 169 0
146 167 0
147 169 0
151 174 0
153 175 0
154 175 0
154 177 0
142 165 0
148 169 0
151 173 0
158 180 0
150 172 0
152 175 0
149 170 0
149 172 0
159 181 0
146 168 0
144 165 0
153 175 0
147 168 0
141 164 0
153 176 0
146 167 0
147 169 0
137 159 0
158 180 0
155 178 0
140 161 0
150 171 0
145 166 0
146 166 0
144 164 0
151 173 0
142 163 0
146 168 0
146 167 0
147 170 0
149 170 0
151 173 0
146 167 0
151 171 0
147 167 0
150 172 0
143 164 0
149 172 0
140 159 0
143 164 0
145 166 0
152 173 0
153 175 0
146 168 0
151 172 0
148 170 0
145 166 0
140 162 0
141 163 0
149 169 0
154 175 0
154 173 0
146 167 0
145 165 0
147 166 0
154 175 0
139 160 0
144 164 0
150 171 0
155 175 0
141 160 0
154 175 0
157 179 0
140 161 0
146 167 0
146 167 0
144 163 0
150 170 0
150 171 0
141 162 0
144 166 0
146 166 0
153 176 0
150 171 0
145 165 0
148 167 0
148 170 0
149 172 0
151 171 0
155 175 0
148 169 0
151 171 0
151 171 0
149 168 0
146 168 0
142 159 0
145 164 0
152 171 0
156 176 0
147 167 0
146 166 0
145 163 0
146 168 0
153 172 0
153 173 0
152 172 0
146 165 0
148 168 0
151 171 0
139 158 0
146 167 0
141 159 0
148 168 0
149 168 0
152 169 0
148 169 0
149 169 0
146 164 0
150 168 0
146 164 0
147 167 0
151 169 0
148 166 0
149 164 0
149 166 0
142 162 0
153 172 0
151 168 0
151 170 0
145 164 0
148 166 0
143 159 0
143 159 0
147 163 0
146 165 0
151 170 0
144 161 0
147 164 0
142 157 0
150 166 0
144 162 0
157 175 0
150 169 0
140 158 0
150 169 0
153 171 0
154 172 0
150 166 0
146 164 0
145 162 0
153 170 0
147 163 0
148 165 0
146 161 0
147 163 0
151 169 0
146 163 0
145 163 0
149 163 0
153 170 0
147 162 0
151 164 0
155 171 0
153 170 0
152 168 0
148 164 0
142 158 0
154 166 0
151 167 0
146 160 0
144 157 0
156 170 0
146 160 0
149 162 0
150 164 0
152 166 0
147 162 0
149 164 0
145 158 0
151 166 0
145 156 0
150 166 0
152 166 0
150 164 0
141 155 0
151 163 0
142 153 0
145 160 0
161 176 0
152 166 0
150 161 0
156 170 0
145 156 0
157 170 0
147 157 0
148 160 0
146 156 0
146 155 0
151 165 0
142 154 0
142 151 0
148 159 0
151 163 0
153 166 0
145 154 0
150 162 0
148 159 0
145 155 0
148 158 0
149 159 0
148 158 0
150 160 0
151 159 0
148 160 0
149 161 0
147 158 0
161 175 0
151 161 0
150 163 0
147 156 0
152 165 0
147 157 0
152 162 0
152 163 0
148 160 0
151 163 0
147 153 0
154 164 0
154 166 0
155 167 0
156 167 0
153 163 0
155 166 0
153 166 0
149 161 0
146 158 0
155 167 0
152 162 0
150 161 0
165 187 0
172 195 0
167 190 0
166 190 0
169 192 0
171 194 0
169 192 0
168 190 0
169 191 0
172 194 0
172 194 0
167 190 0
172 194 0
167 190 0
170 193 0
170 193 0
171 193 0
173 195 0
167 189 0
166 188 0
167 190 0
172 195 0
171 193 0
170 191 0
168 191 0
165 187 0
170 192 0
174 196 0
172 196 0
166 188 0
166 188 0
166 189 0
171 195 0
169 192 0
164 186 0
166 189 0
170 193 0
165 187 0
165 189 0
168 191 0
167 189 0
166 189 0
168 192 0
167 190 0
162 185 0
168 189 0
168 190 0
169 191 0
164 186 0
168 191 0
167 189 0
169 192 0
166 189 0
164 186 0
160 183 0
168 191 0
167 190 0
161 184 0
163 187 0
165 188 0
165 188 0
165 189 0
164 187 0
160 183 0
164 187 0
165 188 0
164 187 0
165 188 0
158 181 0
160 183 0
162 184 0
166 189 0
168 191 0
162 185 0
159 181 0
161 184 0
162 185 0
161 185 0
163 186 0
158 181 0
163 186 0
160 183 0
165 188 0
159 183 0
162 185 0
159 182 0
158 181 0
164 187 0
162 184 0
167 189 0
155 179 0
166 188 0
156 179 0
164 187 0
158 181 0
162 184 0
159 181 0
162 185 0
163 185 0
157 179 0
162 185 0
164 187 0
159 183 0
161 183 0
165 188 0
162 185 0
155 178 0
156 178 0
155 177 0
153 175 0
156 179 0
159 182 0
152 175 0
158 180 0
157 178 0
154 177 0
159 181 0
160 182 0
154 176 0
160 184 0
160 182 0
147 170 0
161 184 0
155 178 0
159 182 0
159 182 0
155 178 0
162 185 0
160 183 0
155 177 0
159 181 0
153 177 0
157 179 0
155 179 0
160 183 0
156 179 0
167 190 0
161 185 0
152 175 0
156 179 0
160 182 0
156 178 0
153 175 0
158 180 0
160 182 0
150 172 0
156 178 0
159 181 0
147 169 0
149 171 0
153 176 0
156 178 0
158 180 0
151 174 0
150 172 0
158 181 0
153 176 0
154 177 0
154 176 0
146 168 0
155 177 0
152 174 0
149 170 0
149 171 0
149 171 0
161 184 0
150 171 0
147 169 0
155 177 0
155 177 0
150 172 0
154 176 0
140 162 0
154 176 0
160 182 0
151 173 0
151 173 0
147 168 0
145 166 0
143 163 0
145 168 0
156 178 0
149 171 0
148 170 0
152 173 0
150 173 0
152 173 0
148 170 0
154 176 0
152 174 0
155 177 0
144 166 0
146 168 0
148 170 0
149 170 0
135 156 0
154 177 0
142 164 0
153 175 0
150 172 0
144 164 0
145 166 0
147 169 0
152 175 0
143 164 0
150 172 0
142 163 0
146 169 0
141 161 0
153 175 0
140 161 0
150 171 0
146 167 0
137 158 0
145 165 0
148 169 0
149 169 0
153 174 0
146 166 0
143 163 0
149 171 0
137 157 0
141 160 0
145 166 0
148 168 0
149 170 0
141 160 0
147 167 0
144 164 0
147 168 0
143 165 0
146 167 0
144 164 0
145 165 0
146 166 0
141 162 0
146 167 0
146 166 0
142 161 0
157 179 0
145 165 0
138 158 0
155 177 0
148 169 0
143 161 0
147 167 0
145 165 0
152 171 0
152 170 0
135 155 0
138 155 0
148 167 0
152 173 0
153 172 0
148 166 0
149 169 0
141 160 0
149 170 0
147 166 0
142 161 0
152 173 0
146 166 0
155 176 0
150 169 0
150 171 0
144 163 0
145 164 0
144 163 0
151 172 0
149 169 0
148 164 0
151 170 0
148 168 0
148 167 0
151 169 0
151 171 0
143 162 0
154 172 0
149 167 0
146 165 0
149 167 0
150 168 0
150 168 0
142 161 0
148 167 0
145 164 0
152 171 0
148 167 0
148 165 0
151 170 0
155 176 0
154 173 0
153 170 0
145 161 0
154 171 0
153 170 0
147 166 0
144 162 0
150 167 0
154 171 0
155 174 0
146 164 0
147 163 0
135 152 0
150 167 0
152 171 0
155 172 0
138 154 0
144 160 0
149 166 0
146 160 0
147 164 0
146 161 0
149 164 0
149 164 0
150 168 0
144 160 0
151 168 0
143 159 0
147 163 0
149 165 0
143 157 0
144 158 0
150 166 0
151 168 0
146 161 0
155 171 0
142 155 0
147 159 0
146 161 0
152 170 0
154 167 0
141 155 0
153 168 0
147 163 0
148 163 0
152 166 0
151 163 0
145 159 0
144 158 0
151 165 0
147 161 0
145 159 0
152 167 0
140 152 0
150 162 0
148 163 0
152 165 0
147 160 0
145 159 0
144 154 0
147 158 0
156 169 0
143 154 0
154 165 0
151 162 0
143 154 0
144 154 0
150 162 0
146 156 0
151 164 0
150 160 0
156 168 0
146 157 0
154 165 0
155 168 0
148 160 0
146 158 0
151 162 0
151 162 0
159 171 0
147 157 0
149 158 0
154 166 0
148 160 0
154 168 0
146 155 0
152 164 0
152 164 0
149 160 0
159 170 0
154 165 0
149 161 0
152 164 0
150 161 0
155 166 0
145 154 0
155 164 0
151 162 0
150 160 0
148 158 0
154 167 0
145 155 0
155 163 0
152 164 0
149 160 0
157 167 0
150 161 0
152 161 0
159 171 0
170 192 0
173 196 0
164 187 0
170 193 0
169 192 0
168 191 0
168 191 0
168 190 0
174 196 0
163 186 0
170 193 0
164 187 0
171 194 0
170 193 0
166 189 0
170 193 0
169 191 0
169 191 0
170 192 0
168 190 0
168 191 0
168 190 0
168 190 0
168 190 0
162 185 0
167 190 0
166 189 0
168 191 0
170 192 0
167 190 0
169 191 0
165 188 0
168 191 0
164 187 0
170 192 0
163 186 0
163 186 0
166 189 0
169 192 0
164 187 0
170 192 0
166 188 0
169 191 0
168 191 0
168 191 0
164 188 0
165 188 0
169 191 0
166 189 0
166 189 0
163 186 0
170 192 0
165 188 0
168 191 0
167 189 0
168 191 0
168 191 0
166 189 0
163 185 0
168 190 0
167 190 0
165 188 0
159 183 0
168 191 0
170 193 0
165 187 0
160 184 0
166 190 0
169 192 0
157 179 0
161 183 0
166 190 0
162 185 0
157 179 0
164 186 0
166 189 0
170 194 0
159 181 0
165 189 0
160 183 0
158 181 0
161 183 0
160 183 0
160 182 0
161 185 0
158 181 0
161 185 0
157 181 0
164 187 0
164 187 0
160 183 0
159 183 0
160 183 0
158 181 0
165 188 0
151 174 0
159 181 0
161 184 0
160 183 0
162 185 0
161 183 0
157 181 0
162 185 0
159 182 0
159 181 0
156 179 0
159 182 0
155 178 0
162 184 0
162 184 0
164 187 0
157 179 0
157 181 0
162 184 0
152 174 0
159 182 0
160 182 0
160 183 0
162 184 0
158 181 0
156 178 0
162 186 0
157 179 0
159 182 0
154 176 0
152 174 0
153 175 0
160 182 0
160 182 0
161 184 0
161 183 0
161 183 0
154 176 0
154 177 0
154 177 0
158 181 0
156 179 0
155 178 0
152 173 0
153 177 0
159 182 0
156 178 0
158 180 0
153 174 0
162 184 0
146 169 0
155 179 0
154 176 0
153 176 0
155 177 0
155 177 0
148 171 0
152 174 0
155 177 0
154 176 0
156 180 0
151 173 0
151 173 0
149 171 0
147 169 0
153 177 0
157 179 0
156 178 0
152 174 0
144 166 0
155 178 0
157 180 0
150 173 0
146 168 0
156 177 0
154 176 0
152 174 0
151 172 0
154 177 0
149 171 0
150 172 0
153 175 0
146 167 0
152 174 0
154 176 0
144 165 0
146 167 0
154 175 0
144 165 0
146 166 0
149 170 0
147 169 0
152 173 0
151 173 0
150 172 0
153 174 0
155 177 0
150 172 0
142 163 0
149 171 0
145 166 0
140 162 0
145 167 0
152 174 0
140 162 0
141 162 0
142 163 0
141 163 0
151 173 0
145 165 0
150 172 0
139 160 0
148 170 0
150 171 0
146 167 0
148 170 0
142 162 0
149 170 0
152 173 0
159 180 0
145 168 0
149 171 0
153 172 0
152 173 0
143 163 0
148 169 0
146 168 0
147 168 0
146 168 0
150 170 0
152 173 0
148 169 0
142 163 0
148 170 0
152 172 0
144 165 0
150 171 0
147 168 0
151 172 0
147 167 0
145 166 0
151 172 0
141 162 0
148 169 0
145 166 0
143 164 0
153 172 0
149 171 0
148 168 0
149 169 0
149 171 0
150 171 0
145 164 0
143 163 0
146 166 0
149 168 0
146 165 0
152 173 0
148 166 0
149 169 0
151 170 0
144 165 0
144 164 0
148 166 0
157 177 0
145 166 0
150 171 0
141 159 0
151 170 0
141 160 0
151 171 0
148 165 0
142 162 0
148 167 0
149 168 0
159 179 0
150 169 0
149 168 0
151 171 0
144 163 0
148 166 0
146 165 0
140 160 0
149 168 0
151 170 0
145 165 0
151 169 0
149 169 0
144 162 0
145 164 0
150 169 0
154 173 0
153 172 0
151 171 0
149 169 0
148 168 0
148 167 0
147 164 0
150 168 0
146 166 0
150 167 0
157 173 0
148 167 0
148 167 0
153 173 0
152 172 0
150 168 0
151 169 0
147 165 0
150 168 0
152 171 0
150 167 0
150 169 0
146 163 0
143 159 0
145 161 0
148 165 0
144 161 0
148 165 0
144 159 0
151 166 0
151 168 0
152 169 0
157 174 0
140 154 0
154 171 0
147 163 0
152 172 0
145 160 0
145 162 0
152 166 0
155 172 0
149 163 0
141 155 0
150 165 0
152 168 0
147 159 0
151 165 0
147 161 0
152 165 0
149 164 0
147 162 0
151 166 0
149 162 0
152 167 0
143 155 0
140 154 0
145 159 0
148 160 0
157 173 0
152 167 0
147 163 0
148 161 0
141 156 0
151 165 0
146 160 0
150 162 0
148 161 0
152 168 0
151 163 0
151 165 0
150 163 0
150 164 0
155 169 0
148 161 0
141 154 0
158 171 0
148 161 0
151 163 0
146 159 0
155 168 0
145 157 0
153 168 0
156 168 0
151 163 0
153 164 0
147 158 0
148 160 0
149 160 0
156 169 0
160 171 0
149 161 0
153 164 0
149 161 0
150 160 0
147 158 0
148 160 0
146 157 0
145 156 0
149 158 0
151 163 0
156 169 0
154 166 0
155 168 0
155 168 0
157 167 0
157 168 0
158 171 0
153 163 0
157 167 0
149 159 0
150 161 0
160 173 0
161 174 0
156 168 0
173 196 0
169 192 0
170 192 0
169 191 0
170 193 0
169 192 0
168 191 0
167 191 0
171 194 0
174 197 0
171 194 0
168 191 0
166 189 0
169 192 0
168 192 0
170 192 0
169 192 0
165 187 0
167 190 0
166 188 0
171 194 0
171 193 0
169 192 0
169 193 0
165 188 0
164 188 0
165 187 0
169 192 0
165 188 0
165 187 0
168 190 0
165 188 0
169 191 0
167 190 0
168 191 0
163 186 0
164 188 0
167 190 0
168 191 0
170 193 0
168 190 0
163 185 0
164 187 0
163 185 0
168 191 0
164 187 0
163 185 0
168 191 0
159 182 0
160 182 0
163 186 0
166 189 0
160 182 0
159 181 0
167 189 0
164 186 0
159 182 0
167 190 0
162 185 0
163 186 0
165 187 0
154 177 0
161 184 0
166 189 0
167 190 0
165 188 0
166 189 0
163 186 0
162 185 0
167 190 0
164 187 0
155 179 0
160 184 0
168 190 0
166 190 0
165 188 0
163 186 0
154 177 0
167 189 0
165 188 0
163 187 0
158 181 0
163 186 0
165 187 0
166 189 0
160 183 0
160 184 0
163 186 0
159 182 0
160 183 0
164 186 0
162 184 0
167 190 0
162 185 0
156 179 0
163 186 0
157 180 0
162 185 0
168 191 0
157 180 0
164 187 0
160 183 0
162 185 0
162 184 0
162 184 0
156 178 0
154 176 0
157 180 0
156 178 0
163 186 0
164 187 0
155 179 0
154 177 0
148 171 0
162 185 0
157 180 0
155 179 0
157 178 0
155 178 0
163 187 0
155 177 0
157 179 0
150 173 0
153 176 0
158 182 0
156 179 0
157 179 0
157 180 0
161 184 0
158 182 0
160 183 0
160 183 0
160 181 0
155 177 0
158 180 0
150 173 0
152 175 0
161 184 0
158 180 0
158 179 0
157 180 0
159 181 0
154 177 0
157 179 0
156 178 0
148 169 0
152 175 0
152 175 0
151 173 0
152 174 0
155 177 0
156 178 0
156 177 0
147 170 0
158 180 0
153 176 0
150 171 0
146 167 0
154 176 0
158 181 0
154 176 0
153 176 0
152 174 0
154 176 0
144 166 0
149 172 0
157 179 0
151 172 0
155 178 0
152 174 0
149 171 0
150 171 0
149 171 0
153 177 0
147 169 0
151 172 0
152 174 0
152 174 0
144 164 0
153 174 0
145 167 0
155 177 0
139 161 0
144 166 0
146 168 0
152 173 0
152 172 0
154 175 0
157 177 0
151 174 0
142 162 0
148 170 0
144 165 0
159 179 0
148 170 0
148 171 0
149 170 0
150 171 0
147 167 0
154 176 0
150 173 0
145 167 0
149 169 0
148 169 0
143 165 0
143 166 0
154 174 0
146 166 0
150 171 0
152 173 0
146 167 0
153 174 0
145 166 0
144 165 0
136 157 0
150 171 0
144 164 0
146 166 0
153 176 0
150 171 0
144 165 0
144 162 0
142 163 0
146 168 0
150 173 0
144 165 0
145 167 0
139 160 0
150 172 0
147 168 0
143 161 0
152 173 0
150 172 0
141 162 0
142 162 0
146 167 0
148 169 0
148 169 0
147 168 0
155 176 0
149 171 0
149 169 0
139 159 0
152 174 0
153 174 0
144 163 0
150 171 0
144 165 0
152 172 0
148 169 0
148 168 0
143 163 0
153 173 0
150 170 0
149 169 0
141 159 0
155 176 0
143 163 0
145 165 0
142 162 0
153 173 0
143 161 0
151 170 0
151 171 0
144 165 0
154 174 0
159 178 0
145 163 0
149 169 0
152 173 0
153 172 0
146 167 0
140 160 0
147 167 0
151 171 0
148 169 0
153 173 0
152 172 0
146 166 0
149 168 0
145 165 0
154 171 0
146 165 0
148 166 0
150 168 0
156 175 0
152 171 0
147 166 0
138 156 0
156 176 0
152 171 0
144 163 0
151 170 0
143 162 0
146 162 0
157 176 0
150 168 0
151 171 0
146 163 0
150 168 0
145 163 0
145 162 0
147 166 0
154 174 0
150 167 0
145 160 0
152 169 0
146 163 0
149 165 0
141 157 0
149 166 0
150 168 0
146 163 0
144 161 0
151 166 0
151 170 0
147 165 0
150 169 0
155 172 0
153 169 0
142 158 0
147 164 0
149 166 0
147 163 0
158 175 0
151 168 0
150 168 0
152 163 0
150 165 0
155 172 0
149 164 0
148 162 0
147 164 0
147 163 0
147 161 0
148 163 0
154 171 0
150 164 0
150 165 0
153 168 0
141 154 0
150 164 0
154 168 0
143 159 0
150 164 0
152 165 0
150 165 0
145 158 0
145 159 0
148 163 0
140 154 0
152 166 0
150 164 0
155 168 0
150 164 0
146 158 0
145 157 0
147 163 0
149 162 0
155 167 0
144 159 0
152 165 0
150 166 0
149 159 0
151 164 0
151 162 0
148 157 0
146 157 0
153 165 0
147 159 0
155 170 0
150 165 0
152 163 0
159 171 0
149 160 0
147 161 0
155 166 0
152 165 0
153 165 0
150 163 0
155 168 0
155 167 0
152 162 0
152 163 0
149 159 0
154 167 0
156 168 0
153 164 0
151 162 0
152 164 0
152 164 0
147 156 0
154 165 0
158 173 0
155 167 0
154 166 0
148 158 0
154 165 0
149 159 0
155 166 0
170 193 0
174 197 0
168 191 0
170 192 0
170 193 0
171 193 0
167 190 0
164 187 0
171 194 0
168 191 0
174 196 0
164 187 0
170 192 0
166 190 0
170 193 0
164 187 0
171 194 0
166 188 0
168 191 0
171 193 0
167 190 0
170 193 0
166 189 0
168 191 0
167 190 0
168 191 0
164 186 0
166 189 0
170 193 0
168 191 0
172 194 0
169 192 0
166 189 0
168 191 0
170 192 0
166 188 0
168 190 0
167 190 0
163 186 0
165 187 0
166 189 0
174 197 0
169 192 0
160 183 0
165 188 0
167 189 0
169 192 0
165 188 0
167 190 0
169 191 0
159 181 0
167 190 0
165 187 0
163 186 0
166 189 0
167 189 0
166 189 0
168 191 0
166 189 0
165 189 0
167 191 0
157 180 0
158 180 0
162 184 0
162 186 0
168 191 0
162 185 0
166 188 0
160 183 0
167 190 0
164 187 0
164 187 0
162 186 0
162 185 0
160 183 0
160 184 0
164 188 0
169 192 0
164 188 0
160 183 0
162 185 0
165 186 0
158 181 0
165 188 0
157 180 0
164 186 0
163 187 0
162 184 0
162 186 0
161 184 0
168 191 0
158 182 0
166 187 0
160 183 0
158 180 0
161 183 0
163 186 0
156 179 0
163 186 0
161 182 0
166 189 0
164 186 0
156 179 0
159 183 0
163 186 0
161 185 0
164 186 0
160 183 0
162 186 0
157 180 0
162 185 0
162 183 0
165 188 0
159 183 0
157 179 0
164 186 0
158 180 0
163 186 0
156 179 0
159 182 0
159 182 0
160 183 0
157 180 0
161 182 0
159 181 0
162 185 0
161 184 0
156 179 0
156 179 0
159 181 0
155 177 0
151 174 0
161 183 0
144 167 0
152 175 0
154 177 0
151 172 0
155 178 0
157 179 0
160 182 0
146 168 0
149 171 0
149 171 0
154 176 0
157 180 0
151 174 0
157 180 0
151 173 0
156 179 0
153 175 0
155 176 0
155 177 0
153 174 0
157 180 0
160 183 0
147 170 0
152 174 0
147 169 0
148 170 0
154 177 0
149 170 0
156 179 0
147 170 0
158 180 0
156 177 0
152 175 0
151 173 0
158 181 0
153 176 0
147 170 0
147 169 0
144 166 0
150 172 0
161 183 0
147 170 0
155 177 0
155 177 0
147 170 0
151 172 0
154 177 0
153 176 0
154 176 0
158 180 0
149 171 0
140 162 0
151 172 0
143 166 0
137 158 0
149 171 0
152 174 0
146 167 0
156 178 0
148 168 0
146 166 0
152 173 0
152 174 0
154 177 0
149 170 0
155 177 0
148 169 0
146 166 0
148 170 0
144 166 0
148 169 0
149 171 0
144 166 0
151 172 0
139 159 0
147 168 0
143 164 0
144 167 0
147 167 0
158 179 0
152 173 0
148 169 0
149 169 0
148 170 0
158 180 0
147 168 0
144 166 0
153 175 0
150 172 0
147 169 0
145 164 0
148 169 0
140 162 0
148 170 0
152 173 0
144 165 0
150 171 0
145 165 0
148 169 0
156 177 0
156 176 0
156 177 0
143 164 0
150 169 0
149 170 0
150 170 0
143 164 0
151 172 0
150 171 0
148 168 0
145 165 0
155 175 0
144 164 0
148 170 0
148 168 0
148 169 0
146 167 0
155 174 0
148 171 0
154 173 0
146 165 0
148 168 0
148 168 0
150 170 0
151 171 0
143 162 0
151 169 0
147 165 0
150 170 0
147 167 0
149 169 0
150 170 0
156 177 0
149 167 0
147 168 0
143 163 0
149 169 0
150 171 0
145 164 0
154 174 0
138 157 0
148 167 0
149 170 0
149 167 0
149 166 0
149 168 0
150 170 0
143 162 0
149 168 0
148 165 0
150 171 0
150 169 0
142 161 0
147 165 0
149 169 0
154 173 0
152 170 0
147 167 0
154 173 0
152 172 0
150 168 0
146 164 0
147 166 0
149 167 0
151 168 0
149 166 0
153 171 0
142 161 0
149 168 0
146 165 0
151 169 0
150 169 0
156 172 0
150 168 0
144 160 0
144 159 0
149 165 0
152 170 0
148 167 0
148 165 0
144 161 0
148 163 0
147 162 0
149 163 0
141 159 0
150 168 0
145 163 0
148 165 0
149 166 0
146 161 0
147 164 0
142 157 0
146 161 0
152 167 0
150 167 0
146 160 0
151 168 0
141 154 0
152 168 0
147 162 0
143 158 0
152 166 0
145 160 0
151 167 0
151 165 0
146 159 0
152 169 0
155 170 0
152 169 0
152 166 0
149 163 0
151 164 0
153 169 0
146 161 0
153 168 0
153 171 0
151 166 0
151 163 0
150 162 0
158 173 0
152 164 0
151 166 0
156 171 0
152 167 0
153 167 0
159 174 0
145 157 0
154 169 0
154 167 0
154 167 0
154 167 0
148 164 0
153 167 0
151 166 0
145 158 0
152 166 0
156 167 0
141 152 0
151 165 0
151 165 0
153 166 0
153 165 0
150 163 0
149 163 0
153 163 0
153 167 0
150 162 0
148 160 0
152 163 0
154 165 0
154 165 0
151 162 0
148 158 0
154 165 0
155 168 0
156 169 0
149 160 0
155 166 0
153 165 0
156 171 0
159 170 0
156 167 0
153 166 0
156 169 0
149 160 0
157 170 0
153 163 0
168 191 0
168 190 0
169 192 0
170 193 0
168 190 0
172 195 0
170 193 0
170 193 0
168 191 0
168 191 0
169 192 0
166 188 0
170 193 0
168 191 0
160 183 0
167 190 0
168 191 0
168 190 0
168 191 0
171 193 0
168 190 0
167 191 0
170 192 0
167 190 0
162 186 0
172 194 0
164 187 0
165 188 0
168 191 0
166 189 0
167 190 0
165 187 0
167 190 0
171 193 0
167 190 0
167 191 0
165 188 0
165 188 0
166 189 0
163 186 0
164 187 0
169 192 0
162 185 0
164 188 0
161 185 0
167 190 0
164 188 0
167 190 0
164 187 0
164 186 0
164 186 0
165 188 0
170 192 0
163 186 0
161 184 0
166 189 0
161 185 0
163 186 0
163 185 0
160 182 0
164 187 0
164 186 0
163 185 0
162 184 0
165 188 0
154 178 0
165 187 0
165 188 0
163 185 0
156 179 0
160 183 0
161 184 0
162 186 0
165 188 0
160 183 0
154 177 0
165 188 0
165 188 0
161 184 0
155 177 0
167 189 0
165 188 0
158 180 0
158 182 0
160 182 0
159 183 0
162 185 0
162 184 0
158 181 0
162 185 0
156 180 0
164 186 0
165 188 0
163 187 0
158 182 0
160 182 0
160 182 0
163 186 0
162 184 0
157 179 0
164 186 0
162 185 0
154 176 0
157 180 0
161 183 0
159 182 0
160 183 0
163 186 0
160 182 0
163 187 0
163 186 0
158 181 0
164 187 0
157 181 0
160 183 0
156 178 0
155 179 0
156 179 0
151 175 0
158 182 0
156 179 0
155 178 0
157 180 0
157 180 0
158 181 0
159 181 0
165 187 0
160 184 0
160 182 0
157 180 0
157 180 0
153 175 0
152 173 0
158 180 0
157 180 0
151 173 0
161 184 0
157 179 0
163 187 0
156 179 0
155 178 0
149 172 0
152 175 0
157 180 0
157 180 0
152 174 0
152 174 0
159 182 0
156 177 0
154 177 0
153 174 0
153 175 0
156 178 0
149 171 0
154 176 0
152 174 0
148 170 0
158 181 0
144 166 0
152 173 0
157 179 0
150 171 0
147 168 0
142 163 0
155 176 0
152 175 0
147 170 0
152 176 0
162 184 0
146 167 0
153 174 0
156 177 0
148 170 0
156 179 0
153 174 0
151 172 0
155 177 0
151 173 0
146 168 0
152 174 0
152 174 0
151 174 0
149 170 0
150 172 0
151 173 0
149 170 0
152 173 0
144 165 0
146 169 0
150 172 0
156 179 0
155 177 0
155 178 0
148 168 0
151 174 0
145 166 0
151 171 0
154 177 0
150 173 0
144 164 0
144 166 0
151 172 0
151 172 0
151 174 0
146 167 0
147 168 0
146 167 0
147 168 0
147 168 0
143 163 0
156 179 0
143 163 0
148 168 0
154 175 0
150 170 0
152 173 0
146 168 0
144 165 0
143 166 0
148 168 0
148 169 0
155 176 0
156 177 0
152 173 0
149 170 0
147 168 0
151 172 0
151 171 0
148 170 0
150 170 0
147 165 0
146 167 0
154 175 0
147 168 0
156 177 0
145 167 0
150 171 0
147 167 0
146 166 0
139 160 0
152 172 0
150 171 0
149 172 0
144 163 0
151 171 0
147 169 0
147 167 0
150 170 0
152 173 0
151 172 0
152 172 0
154 174 0
154 173 0
154 174 0
144 164 0
147 169 0
145 163 0
149 169 0
150 171 0
145 166 0
149 167 0
151 171 0
144 165 0
153 172 0
137 157 0
155 177 0
147 168 0
153 172 0
149 168 0
148 166 0
137 158 0
155 174 0
147 164 0
151 169 0
159 179 0
154 173 0
151 170 0
149 170 0
140 159 0
151 171 0
148 167 0
149 170 0
159 179 0
150 170 0
151 170 0
148 165 0
149 168 0
147 164 0
151 168 0
136 153 0
153 171 0
151 171 0
148 166 0
150 170 0
150 170 0
147 163 0
152 169 0
147 166 0
157 177 0
146 164 0
157 176 0
152 170 0
145 164 0
147 164 0
147 166 0
145 162 0
153 171 0
148 164 0
152 167 0
157 176 0
146 164 0
149 165 0
152 170 0
153 171 0
152 169 0
153 171 0
147 163 0
152 169 0
153 171 0
152 168 0
152 169 0
153 168 0
146 163 0
144 159 0
147 162 0
152 167 0
147 163 0
145 159 0
149 165 0
149 165 0
144 158 0
151 166 0
148 163 0
146 161 0
146 160 0
155 171 0
146 160 0
147 160 0
152 167 0
146 161 0
156 171 0
150 164 0
152 167 0
146 162 0
151 167 0
148 162 0
156 172 0
157 171 0
155 170 0
141 154 0
148 164 0
158 172 0
150 166 0
148 163 0
152 167 0
149 163 0
152 165 0
153 166 0
152 167 0
150 163 0
152 166 0
146 159 0
158 172 0
150 164 0
150 165 0
151 166 0
151 166 0
149 160 0
160 171 0
148 161 0
156 170 0
153 167 0
154 166 0
151 163 0
143 153 0
150 162 0
149 163 0
156 168 0
155 167 0
155 169 0
153 168 0
148 159 0
156 171 0
149 162 0
154 166 0
152 162 0
152 161 0
154 167 0
148 159 0
150 160 0
153 165 0
150 163 0
150 161 0
154 165 0
158 173 0
156 169 0
155 167 0
148 158 0
159 170 0
158 169 0
170 194 0
168 191 0
166 188 0
169 192 0
166 189 0
168 192 0
168 190 0
169 191 0
169 191 0
173 195 0
173 196 0
165 187 0
170 193 0
168 191 0
162 186 0
167 190 0
168 191 0
165 187 0
163 186 0
168 191 0
167 191 0
165 188 0
169 192 0
164 186 0
169 193 0
166 189 0
165 188 0
167 190 0
167 190 0
167 189 0
168 190 0
162 186 0
165 188 0
165 188 0
164 187 0
166 189 0
163 186 0
165 188 0
166 189 0
164 188 0
165 189 0
166 188 0
163 186 0
163 187 0
166 189 0
168 191 0
163 186 0
168 191 0
165 188 0
168 190 0
165 188 0
165 187 0
164 187 0
159 183 0
162 186 0
166 189 0
166 188 0
166 189 0
160 184 0
168 191 0
167 189 0
164 186 0
163 186 0
162 185 0
166 189 0
170 193 0
160 183 0
161 183 0
161 184 0
164 187 0
160 183 0
163 185 0
162 184 0
164 188 0
160 183 0
162 185 0
167 189 0
158 181 0
164 187 0
165 187 0
159 182 0
160 183 0
159 182 0
168 190 0
161 185 0
165 188 0
157 180 0
158 181 0
164 186 0
159 182 0
160 184 0
154 177 0
168 191 0
159 182 0
158 181 0
158 181 0
161 184 0
159 183 0
163 187 0
154 176 0
164 187 0
160 183 0
162 185 0
165 188 0
159 182 0
157 180 0
157 180 0
162 186 0
150 172 0
160 183 0
162 184 0
159 182 0
146 170 0
157 180 0
152 175 0
165 188 0
161 183 0
157 180 0
162 185 0
164 187 0
160 183 0
159 182 0
159 182 0
157 180 0
150 173 0
156 179 0
158 180 0
163 186 0
157 180 0
157 180 0
164 187 0
159 182 0
161 184 0
161 183 0
159 181 0
157 181 0
157 180 0
150 173 0
158 181 0
151 173 0
160 182 0
156 179 0
162 184 0
154 176 0
152 174 0
157 180 0
159 182 0
154 178 0
155 177 0
151 174 0
150 172 0
154 178 0
151 174 0
157 180 0
154 177 0
152 174 0
157 181 0
155 179 0
149 171 0
154 177 0
147 170 0
154 177 0
155 177 0
155 177 0
151 174 0
155 178 0
144 164 0
152 174 0
154 177 0
151 172 0
149 172 0
152 174 0
149 171 0
153 175 0
155 176 0
147 170 0
158 179 0
155 178 0
140 162 0
157 179 0
145 168 0
157 179 0
145 168 0
153 175 0
153 176 0
149 170 0
151 173 0
146 168 0
148 170 0
150 171 0
151 172 0
148 169 0
140 162 0
152 173 0
155 176 0
147 167 0
153 177 0
148 170 0
151 172 0
147 169 0
147 168 0
151 173 0
150 171 0
152 173 0
143 166 0
153 175 0
153 175 0
146 167 0
134 154 0
152 174 0
144 164 0
152 173 0
155 177 0
151 172 0
150 171 0
145 166 0
152 174 0
148 168 0
150 171 0
160 180 0
152 173 0
151 171 0
151 171 0
144 166 0
149 169 0
148 169 0
146 167 0
155 176 0
154 175 0
141 162 0
151 171 0
150 170 0
152 173 0
145 166 0
152 173 0
146 166 0
154 176 0
149 171 0
146 167 0
155 176 0
150 171 0
141 161 0
147 167 0
160 181 0
153 175 0
136 154 0
150 171 0
148 168 0
160 179 0
150 171 0
145 165 0
149 168 0
149 170 0
149 170 0
152 173 0
153 175 0
155 176 0
145 165 0
149 171 0
154 176 0
145 164 0
157 179 0
155 174 0
142 163 0
154 175 0
157 178 0
147 165 0
145 165 0
154 174 0
147 166 0
157 175 0
152 171 0
151 170 0
148 170 0
149 168 0
153 172 0
146 164 0
152 169 0
148 167 0
147 168 0
149 165 0
149 167 0
152 172 0
154 172 0
153 172 0
148 168 0
147 165 0
153 172 0
151 170 0
151 170 0
153 173 0
147 168 0
143 164 0
147 166 0
153 173 0
151 171 0
154 171 0
148 166 0
147 165 0
149 166 0
148 165 0
148 167 0
151 171 0
152 169 0
142 160 0
150 168 0
138 157 0
158 176 0
155 171 0
154 171 0
159 175 0
151 168 0
152 171 0
144 161 0
151 169 0
151 168 0
153 170 0
148 161 0
157 176 0
154 171 0
143 160 0
150 168 0
156 174 0
155 172 0
153 171 0
149 167 0
151 168 0
149 164 0
158 177 0
156 171 0
150 165 0
149 167 0
148 161 0
154 170 0
153 167 0
154 170 0
149 165 0
155 171 0
152 167 0
151 167 0
148 162 0
148 164 0
153 168 0
151 166 0
151 165 0
151 165 0
147 162 0
152 166 0
153 167 0
148 159 0
150 165 0
155 170 0
149 162 0
157 173 0
151 165 0
151 165 0
151 167 0
154 167 0
144 154 0
145 159 0
151 163 0
153 164 0
152 167 0
142 153 0
154 168 0
146 161 0
155 168 0
150 163 0
141 152 0
154 168 0
148 158 0
149 162 0
157 169 0
153 167 0
154 166 0
147 159 0
156 168 0
149 163 0
153 165 0
154 167 0
146 159 0
157 171 0
154 165 0
154 164 0
156 167 0
155 167 0
154 167 0
161 176 0
156 172 0
155 169 0
152 164 0
149 162 0
154 168 0
153 163 0
154 166 0
152 166 0
152 163 0
158 174 0
157 170 0
156 169 0
169 192 0
168 192 0
168 191 0
165 188 0
173 195 0
171 195 0
170 193 0
166 189 0
165 189 0
168 191 0
169 192 0
168 190 0
169 192 0
166 190 0
167 190 0
172 193 0
165 188 0
169 192 0
171 194 0
163 186 0
167 190 0
169 192 0
170 193 0
167 190 0
172 195 0
163 188 0
171 193 0
163 186 0
164 187 0
161 185 0
166 189 0
167 189 0
166 189 0
168 191 0
169 192 0
167 190 0
165 189 0
161 184 0
166 188 0
160 183 0
164 186 0
168 191 0
162 185 0
166 188 0
166 190 0
167 190 0
160 184 0
168 191 0
162 185 0
161 184 0
162 186 0
169 192 0
164 188 0
167 190 0
167 189 0
168 191 0
164 187 0
161 185 0
161 184 0
160 184 0
163 185 0
162 185 0
161 184 0
158 182 0
163 187 0
156 180 0
169 192 0
163 185 0
164 187 0
164 187 0
163 186 0
163 187 0
165 188 0
166 189 0
161 185 0
162 185 0
153 176 0
161 183 0
164 187 0
164 188 0
162 186 0
161 183 0
161 184 0
167 190 0
163 185 0
159 183 0
155 178 0
161 184 0
161 184 0
160 183 0
163 187 0
158 181 0
163 187 0
163 185 0
159 183 0
163 187 0
163 186 0
156 179 0
162 185 0
159 183 0
155 177 0
158 181 0
166 189 0
155 178 0
158 181 0
158 182 0
161 183 0
155 177 0
158 181 0
162 185 0
158 182 0
149 172 0
154 177 0
159 181 0
160 184 0
161 184 0
161 184 0
152 175 0
155 178 0
159 182 0
158 181 0
158 180 0
156 179 0
151 174 0
157 179 0
162 184 0
158 181 0
156 179 0
159 182 0
154 176 0
161 184 0
162 185 0
154 177 0
157 179 0
161 184 0
156 179 0
160 182 0
156 178 0
155 177 0
158 182 0
161 183 0
157 179 0
153 176 0
152 174 0
155 176 0
149 172 0
154 176 0
160 182 0
155 178 0
157 180 0
157 180 0
152 175 0
149 172 0
150 172 0
161 183 0
150 171 0
158 181 0
152 173 0
162 184 0
144 165 0
150 172 0
149 170 0
155 177 0
151 171 0
152 173 0
153 176 0
158 181 0
154 177 0
152 174 0
155 178 0
153 176 0
153 175 0
160 181 0
151 173 0
154 176 0
155 179 0
153 174 0
148 169 0
152 174 0
151 171 0
158 180 0
155 179 0
155 177 0
156 177 0
149 171 0
158 180 0
158 180 0
156 177 0
146 167 0
143 164 0
139 160 0
146 167 0
146 168 0
155 176 0
146 169 0
151 175 0
156 177 0
147 168 0
148 170 0
148 169 0
151 173 0
152 173 0
136 158 0
147 168 0
152 173 0
152 173 0
149 172 0
154 178 0
150 171 0
148 170 0
154 177 0
150 171 0
152 173 0
152 173 0
147 167 0
154 174 0
153 174 0
143 164 0
150 171 0
153 174 0
151 171 0
149 170 0
153 173 0
153 173 0
143 163 0
148 169 0
146 164 0
150 172 0
143 163 0
153 173 0
148 170 0
144 164 0
154 176 0
152 175 0
156 178 0
147 168 0
148 167 0
143 164 0
150 173 0
149 169 0
151 172 0
147 168 0
156 176 0
151 171 0
148 169 0
145 166 0
156 177 0
150 171 0
143 163 0
147 167 0
135 155 0
159 180 0
150 169 0
146 167 0
152 174 0
150 171 0
158 179 0
151 172 0
145 164 0
148 169 0
153 174 0
153 175 0
147 166 0
141 160 0
149 170 0
153 173 0
146 166 0
146 166 0
146 166 0
151 172 0
145 165 0
148 169 0
146 166 0
154 175 0
146 166 0
144 163 0
152 171 0
153 172 0
145 165 0
149 169 0
149 167 0
154 174 0
147 166 0
142 159 0
147 166 0
149 167 0
153 171 0
151 168 0
150 169 0
158 178 0
153 173 0
148 166 0
154 174 0
158 179 0
152 171 0
141 159 0
142 161 0
147 166 0
154 173 0
151 171 0
150 169 0
148 167 0
153 171 0
152 171 0
140 159 0
149 169 0
154 173 0
147 166 0
149 167 0
145 163 0
152 172 0
154 172 0
154 172 0
149 166 0
152 171 0
154 169 0
150 166 0
151 168 0
151 170 0
150 166 0
152 168 0
155 172 0
155 172 0
146 160 0
152 169 0
140 158 0
152 170 0
152 169 0
154 171 0
152 166 0
153 170 0
142 157 0
154 172 0
153 169 0
149 167 0
148 163 0
148 164 0
149 166 0
153 169 0
148 164 0
155 172 0
148 162 0
146 163 0
148 163 0
150 164 0
154 169 0
154 168 0
148 164 0
151 166 0
156 172 0
154 170 0
150 164 0
152 166 0
151 165 0
149 164 0
147 162 0
149 166 0
146 160 0
153 166 0
151 164 0
151 164 0
153 166 0
155 168 0
154 170 0
150 164 0
157 170 0
151 166 0
155 170 0
152 165 0
146 159 0
154 169 0
147 161 0
156 170 0
153 167 0
148 162 0
148 161 0
146 159 0
156 170 0
152 165 0
151 166 0
155 169 0
147 157 0
150 165 0
146 156 0
157 171 0
152 162 0
152 166 0
159 172 0
152 165 0
153 165 0
155 170 0
158 171 0
146 158 0
154 165 0
151 163 0
152 164 0
149 164 0
157 169 0
153 165 0
154 167 0
172 195 0
169 191 0
166 189 0
169 193 0
167 190 0
170 193 0
170 193 0
168 192 0
167 190 0
169 192 0
167 190 0
167 190 0
170 191 0
168 191 0
165 188 0
166 188 0
170 191 0
167 191 0
163 185 0
170 192 0
164 187 0
166 189 0
163 186 0
168 191 0
166 190 0
162 186 0
162 185 0
165 188 0
165 188 0
161 184 0
164 186 0
166 190 0
168 192 0
167 190 0
171 193 0
169 191 0
170 193 0
163 186 0
168 191 0
166 188 0
166 189 0
159 182 0
162 185 0
168 191 0
165 188 0
165 189 0
162 185 0
167 188 0
162 186 0
162 185 0
165 187 0
164 188 0
166 189 0
166 189 0
164 187 0
167 189 0
157 181 0
162 186 0
163 186 0
166 189 0
164 187 0
168 191 0
164 187 0
166 189 0
164 187 0
170 193 0
161 183 0
161 184 0
165 189 0
166 189 0
158 182 0
163 186 0
160 182 0
165 189 0
157 180 0
161 184 0
164 187 0
160 183 0
165 188 0
156 179 0
162 184 0
162 184 0
159 181 0
166 188 0
163 185 0
158 181 0
162 185 0
167 190 0
160 183 0
158 181 0
157 179 0
165 188 0
162 185 0
164 188 0
164 186 0
164 187 0
161 184 0
160 183 0
157 181 0
162 185 0
162 184 0
160 182 0
161 183 0
161 184 0
161 184 0
164 186 0
157 181 0
157 181 0
159 181 0
153 174 0
159 182 0
160 183 0
157 181 0
158 181 0
161 184 0
160 182 0
148 172 0
154 176 0
159 182 0
164 186 0
157 180 0
154 177 0
156 179 0
160 182 0
155 177 0
159 182 0
162 184 0
154 178 0
157 181 0
159 182 0
159 180 0
159 181 0
153 175 0
160 182 0
158 181 0
145 168 0
153 176 0
158 179 0
160 182 0
155 178 0
157 178 0
154 176 0
154 177 0
155 176 0
144 167 0
156 179 0
152 174 0
158 180 0
157 181 0
158 181 0
156 178 0
155 177 0
151 173 0
156 180 0
159 181 0
154 178 0
159 180 0
152 174 0
160 182 0
164 187 0
153 176 0
151 174 0
160 182 0
156 179 0
153 174 0
154 176 0
155 178 0
149 171 0
152 174 0
144 166 0
154 176 0
149 171 0
151 173 0
155 177 0
151 174 0
154 176 0
155 177 0
151 173 0
149 171 0
152 175 0
155 178 0
148 170 0
153 175 0
153 175 0
154 177 0
146 168 0
147 169 0
152 174 0
155 177 0
142 163 0
152 174 0
160 183 0
150 171 0
160 183 0
151 172 0
146 167 0
155 177 0
149 172 0
148 168 0
155 176 0
149 169 0
150 171 0
148 170 0
148 170 0
149 170 0
149 170 0
138 159 0
147 169 0
150 172 0
143 163 0
153 174 0
151 173 0
151 173 0
151 173 0
154 176 0
149 170 0
144 165 0
144 166 0
149 170 0
152 172 0
153 174 0
155 176 0
145 165 0
151 171 0
158 180 0
157 178 0
152 174 0
151 173 0
149 170 0
141 162 0
150 171 0
151 171 0
156 177 0
145 167 0
149 171 0
146 166 0
149 170 0
140 159 0
143 162 0
150 171 0
139 159 0
151 169 0
155 176 0
150 171 0
149 170 0
147 166 0
148 167 0
155 176 0
148 170 0
145 163 0
153 176 0
161 182 0
150 168 0
145 165 0
140 160 0
145 164 0
145 167 0
150 170 0
152 172 0
149 170 0
152 172 0
149 169 0
151 171 0
155 174 0
153 172 0
151 171 0
147 169 0
147 169 0
159 177 0
157 177 0
150 169 0
152 172 0
148 167 0
150 169 0
146 165 0
154 173 0
142 159 0
154 172 0
150 170 0
153 174 0
152 172 0
150 171 0
155 173 0
150 169 0
145 164 0
151 168 0
143 161 0
153 174 0
141 160 0
145 164 0
152 171 0
151 170 0
153 170 0
151 169 0
154 173 0
154 173 0
139 158 0
151 171 0
146 165 0
153 173 0
154 175 0
155 175 0
151 167 0
149 168 0
149 166 0
154 175 0
143 161 0
143 161 0
153 171 0
150 169 0
154 171 0
155 173 0
149 167 0
152 170 0
155 170 0
148 166 0
156 174 0
144 160 0
152 169 0
153 169 0
154 171 0
153 170 0
154 173 0
151 169 0
148 163 0
148 166 0
156 174 0
147 162 0
147 164 0
153 169 0
149 167 0
158 174 0
152 170 0
154 170 0
147 165 0
150 166 0
148 166 0
154 171 0
147 162 0
151 167 0
146 161 0
151 169 0
157 172 0
143 159 0
151 167 0
154 170 0
158 173 0
152 166 0
155 172 0
153 170 0
150 167 0
150 165 0
151 167 0
158 171 0
148 162 0
148 160 0
152 166 0
151 167 0
151 164 0
146 160 0
156 171 0
146 158 0
149 162 0
148 163 0
151 164 0
150 162 0
152 166 0
156 172 0
147 161 0
150 165 0
154 170 0
146 158 0
152 167 0
147 159 0
151 162 0
152 166 0
152 162 0
157 172 0
155 166 0
153 165 0
152 166 0
152 167 0
156 171 0
154 167 0
144 151 0
157 171 0
154 169 0
154 167 0
157 171 0
155 166 0
153 163 0
153 166 0
153 165 0
161 174 0
155 167 0
155 168 0
144 156 0
155 165 0
158 169 0
156 170 0
170 192 0
171 194 0
172 195 0
167 189 0
168 191 0
170 192 0
166 189 0
168 192 0
167 189 0
170 192 0
164 186 0
166 189 0
167 190 0
164 187 0
165 188 0
168 191 0
169 192 0
171 193 0
168 190 0
166 189 0
169 192 0
170 193 0
167 190 0
171 193 0
166 190 0
168 191 0
165 188 0
166 189 0
164 188 0
166 190 0
164 186 0
166 189 0
163 186 0
171 193 0
162 185 0
162 185 0
165 187 0
167 191 0
171 194 0
166 189 0
167 190 0
163 186 0
157 181 0
160 183 0
162 185 0
166 188 0
163 186 0
169 192 0
163 185 0
162 186 0
165 188 0
166 188 0
168 192 0
164 187 0
162 185 0
164 188 0
165 188 0
163 186 0
161 184 0
158 180 0
161 184 0
163 186 0
160 184 0
159 182 0
169 192 0
159 183 0
168 191 0
173 195 0
157 181 0
159 182 0
166 188 0
158 181 0
162 185 0
162 185 0
162 186 0
167 190 0
162 185 0
166 189 0
162 185 0
163 186 0
158 181 0
162 185 0
164 187 0
158 182 0
164 187 0
161 184 0
160 183 0
161 184 0
165 187 0
163 186 0
167 190 0
161 184 0
162 185 0
155 178 0
154 176 0
163 186 0
166 190 0
158 181 0
165 188 0
162 185 0
159 181 0
160 182 0
157 179 0
160 183 0
159 181 0
169 190 0
157 180 0
164 187 0
155 177 0
165 188 0
164 187 0
154 177 0
151 175 0
162 185 0
160 183 0
156 179 0
161 184 0
159 182 0
158 181 0
154 177 0
163 185 0
156 179 0
160 182 0
145 168 0
158 181 0
157 179 0
157 180 0
154 177 0
157 181 0
155 177 0
159 181 0
155 177 0
162 185 0
159 181 0
162 185 0
160 183 0
156 179 0
154 176 0
156 179 0
159 182 0
157 180 0
160 182 0
152 175 0
165 188 0
157 180 0
151 174 0
158 181 0
154 177 0
160 182 0
155 179 0
157 179 0
158 180 0
150 173 0
157 181 0
154 176 0
155 177 0
155 177 0
154 177 0
152 175 0
155 178 0
160 183 0
156 178 0
155 177 0
154 176 0
151 174 0
151 174 0
155 177 0
151 173 0
157 180 0
152 173 0
148 171 0
154 177 0
148 171 0
160 182 0
150 172 0
156 177 0
148 170 0
153 175 0
143 165 0
151 173 0
155 176 0
149 172 0
148 171 0
155 178 0
146 168 0
153 175 0
155 178 0
152 173 0
155 176 0
157 180 0
155 177 0
153 175 0
147 168 0
145 168 0
150 172 0
151 172 0
150 172 0
157 179 0
152 173 0
156 176 0
154 176 0
142 164 0
151 173 0
147 168 0
148 168 0
156 179 0
146 168 0
151 173 0
150 171 0
151 173 0
149 170 0
149 171 0
155 178 0
153 175 0
154 176 0
153 173 0
143 163 0
150 172 0
149 171 0
150 170 0
150 171 0
149 171 0
162 183 0
153 174 0
151 173 0
159 179 0
138 158 0
152 172 0
149 170 0
154 176 0
152 174 0
146 166 0
153 173 0
149 170 0
153 174 0
141 161 0
150 172 0
155 176 0
151 172 0
144 163 0
144 165 0
151 173 0
149 167 0
145 165 0
153 173 0
143 163 0
152 174 0
154 174 0
153 173 0
150 170 0
152 172 0
148 169 0
156 176 0
142 161 0
150 169 0
150 172 0
152 172 0
150 170 0
152 174 0
145 166 0
149 169 0
152 172 0
153 175 0
148 168 0
146 166 0
152 172 0
154 175 0
149 171 0
147 167 0
151 171 0
154 174 0
155 174 0
143 163 0
150 170 0
158 179 0
153 173 0
153 173 0
146 166 0
158 179 0
153 174 0
148 168 0
155 175 0
151 171 0
156 178 0
148 168 0
151 168 0
151 171 0
152 171 0
151 171 0
150 168 0
149 169 0
150 169 0
156 177 0
152 172 0
149 167 0
151 169 0
154 175 0
158 179 0
153 173 0
153 171 0
155 175 0
152 170 0
146 165 0
153 172 0
152 169 0
153 173 0
151 170 0
152 168 0
154 172 0
154 173 0
148 166 0
146 162 0
152 171 0
152 170 0
145 160 0
153 172 0
152 170 0
152 166 0
153 170 0
140 156 0
157 176 0
158 177 0
148 164 0
149 165 0
149 166 0
155 171 0
152 168 0
149 166 0
150 168 0
147 163 0
149 166 0
146 164 0
154 173 0
153 170 0
145 162 0
153 169 0
150 166 0
151 165 0
156 174 0
152 169 0
153 169 0
148 162 0
150 167 0
154 170 0
154 168 0
156 173 0
145 161 0
149 164 0
143 157 0
158 174 0
153 169 0
152 168 0
151 167 0
150 166 0
147 161 0
156 173 0
152 166 0
146 159 0
146 157 0
152 169 0
147 160 0
152 166 0
146 161 0
155 169 0
142 155 0
156 168 0
150 164 0
155 169 0
154 170 0
156 172 0
152 166 0
153 169 0
158 173 0
158 172 0
158 171 0
149 161 0
149 164 0
151 162 0
157 171 0
155 168 0
152 166 0
150 161 0
155 170 0
158 172 0
155 167 0
153 165 0
149 161 0
153 166 0
150 164 0
156 170 0
152 163 0
156 170 0
155 166 0
158 173 0
157 173 0
155 169 0
153 166 0
157 169 0
153 164 0
158 171 0
170 193 0
168 190 0
167 190 0
169 192 0
168 191 0
167 189 0
167 190 0
168 191 0
163 187 0
170 192 0
165 188 0
168 192 0
172 195 0
168 191 0
166 189 0
165 188 0
169 191 0
165 188 0
163 186 0
168 192 0
168 192 0
168 191 0
168 192 0
163 186 0
164 187 0
167 191 0
168 191 0
172 194 0
165 188 0
168 190 0
166 189 0
165 188 0
169 192 0
165 189 0
162 185 0
164 187 0
168 190 0
157 180 0
161 185 0
162 185 0
159 182 0
164 186 0
163 186 0
167 189 0
164 187 0
161 183 0
169 192 0
167 191 0
164 187 0
162 185 0
167 190 0
164 187 0
164 187 0
158 181 0
164 188 0
159 183 0
163 186 0
169 192 0
161 184 0
172 195 0
164 188 0
157 180 0
163 186 0
165 187 0
165 189 0
166 189 0
162 185 0
163 186 0
164 187 0
161 184 0
163 187 0
164 187 0
165 188 0
162 185 0
159 182 0
160 183 0
163 185 0
160 183 0
159 182 0
166 188 0
160 183 0
158 181 0
163 187 0
169 192 0
158 182 0
160 184 0
154 177 0
162 185 0
165 187 0
164 186 0
164 186 0
156 179 0
158 182 0
162 184 0
161 185 0
159 182 0
162 185 0
159 181 0
160 183 0
164 187 0
164 187 0
162 185 0
156 179 0
163 185 0
165 188 0
159 182 0
158 180 0
160 182 0
164 188 0
157 179 0
159 183 0
158 181 0
162 185 0
158 181 0
157 180 0
161 184 0
155 177 0
160 183 0
153 176 0
161 185 0
161 184 0
166 189 0
158 181 0
166 189 0
154 177 0
158 181 0
155 177 0
154 176 0
159 182 0
157 179 0
159 180 0
155 178 0
162 186 0
159 181 0
156 178 0
160 183 0
155 178 0
151 173 0
155 177 0
154 176 0
151 173 0
158 181 0
158 180 0
159 182 0
153 175 0
160 182 0
156 179 0
154 177 0
160 183 0
154 177 0
148 171 0
159 181 0
152 174 0
159 183 0
150 172 0
151 174 0
160 182 0
157 179 0
159 182 0
157 180 0
155 177 0
145 166 0
148 170 0
151 173 0
158 181 0
149 171 0
151 173 0
150 172 0
152 175 0
155 178 0
145 167 0
152 175 0
148 170 0
151 174 0
149 171 0
153 175 0
149 171 0
156 178 0
152 175 0
155 177 0
153 174 0
155 177 0
151 172 0
153 174 0
152 174 0
157 179 0
150 171 0
157 178 0
152 173 0
146 168 0
150 173 0
151 174 0
154 175 0
151 173 0
147 169 0
154 176 0
154 176 0
156 177 0
153 173 0
144 164 0
155 177 0
150 172 0
146 168 0
150 173 0
150 171 0
157 179 0
152 173 0
148 170 0
155 177 0
149 171 0
156 176 0
154 175 0
153 175 0
151 172 0
155 176 0
150 171 0
153 174 0
147 167 0
145 166 0
149 170 0
151 172 0
148 170 0
158 181 0
148 170 0
148 170 0
156 177 0
146 167 0
149 168 0
149 171 0
153 175 0
147 168 0
149 170 0
147 168 0
154 175 0
150 171 0
151 172 0
155 176 0
152 174 0
151 172 0
150 172 0
148 167 0
158 178 0
147 168 0
151 171 0
142 161 0
144 165 0
154 175 0
152 173 0
145 166 0
146 167 0
152 173 0
154 174 0
152 174 0
151 171 0
147 168 0
151 170 0
152 170 0
150 171 0
157 178 0
163 185 0
148 170 0
149 170 0
146 166 0
150 170 0
152 171 0
142 162 0
154 174 0
155 175 0
146 166 0
144 164 0
157 178 0
153 174 0
150 169 0
154 173 0
144 165 0
153 172 0
152 171 0
149 168 0
150 169 0
155 174 0
149 168 0
154 174 0
157 177 0
151 170 0
150 169 0
147 167 0
156 175 0
153 171 0
150 172 0
146 165 0
149 168 0
155 173 0
147 167 0
155 174 0
156 174 0
156 175 0
138 155 0
147 164 0
147 165 0
142 160 0
156 176 0
152 171 0
153 172 0
142 160 0
149 168 0
150 168 0
150 168 0
157 178 0
148 166 0
157 173 0
153 173 0
155 173 0
154 172 0
152 168 0
152 171 0
156 173 0
141 160 0
148 165 0
151 168 0
152 170 0
155 174 0
149 165 0
147 164 0
147 166 0
150 168 0
152 169 0
154 171 0
154 170 0
150 166 0
152 168 0
154 172 0
155 171 0
150 169 0
155 174 0
158 174 0
148 163 0
151 168 0
144 160 0
157 172 0
150 166 0
155 171 0
148 162 0
151 169 0
156 169 0
154 168 0
148 164 0
155 171 0
150 165 0
156 171 0
154 169 0
155 173 0
148 163 0
149 164 0
156 171 0
155 171 0
151 165 0
152 169 0
158 172 0
150 167 0
153 170 0
151 163 0
150 165 0
157 173 0
154 167 0
147 162 0
155 170 0
151 164 0
154 170 0
159 173 0
150 164 0
149 164 0
156 170 0
151 165 0
146 159 0
146 160 0
155 170 0
150 164 0
147 159 0
156 170 0
154 166 0
152 166 0
155 168 0
157 170 0
148 160 0
151 163 0
154 168 0
159 176 0
154 167 0
151 163 0
148 161 0
157 171 0
157 173 0
150 165 0
151 162 0
150 162 0
158 173 0
162 178 0
159 173 0
150 161 0
154 166 0
165 187 0
170 192 0
168 191 0
172 195 0
168 191 0
171 194 0
163 185 0
169 191 0
168 191 0
165 187 0
167 190 0
163 186 0
168 191 0
169 192 0
169 192 0
166 189 0
169 193 0
172 195 0
166 189 0
168 192 0
167 191 0
164 186 0
166 188 0
167 190 0
168 191 0
172 194 0
170 193 0
167 190 0
165 188 0
169 192 0
169 192 0
164 188 0
160 183 0
161 185 0
167 190 0
166 189 0
166 189 0
166 189 0
168 191 0
168 191 0
166 189 0
162 185 0
161 184 0
171 194 0
163 186 0
168 191 0
170 193 0
162 185 0
165 188 0
163 186 0
170 193 0
162 185 0
157 181 0
169 192 0
164 187 0
161 185 0
165 189 0
161 184 0
163 187 0
158 180 0
162 184 0
160 184 0
160 183 0
166 189 0
166 189 0
161 184 0
163 185 0
164 188 0
163 186 0
163 186 0
158 182 0
159 181 0
161 185 0
163 186 0
164 188 0
163 185 0
166 188 0
164 187 0
159 182 0
160 184 0
157 180 0
161 184 0
162 185 0
168 191 0
162 185 0
164 187 0
161 184 0
160 184 0
157 180 0
163 185 0
159 182 0
165 187 0
160 182 0
157 179 0
169 192 0
167 191 0
160 182 0
161 183 0
160 183 0
163 186 0
160 183 0
158 180 0
161 184 0
157 180 0
159 182 0
160 183 0
166 188 0
156 178 0
160 183 0
160 184 0
157 181 0
160 182 0
161 185 0
161 184 0
163 186 0
155 179 0
157 181 0
162 185 0
159 181 0
162 186 0
154 177 0
158 180 0
152 174 0
158 181 0
154 177 0
160 182 0
158 181 0
156 178 0
157 179 0
158 180 0
161 184 0
156 179 0
165 187 0
158 181 0
154 177 0
159 182 0
154 177 0
153 176 0
147 169 0
156 178 0
157 180 0
162 185 0
157 180 0
156 178 0
159 181 0
154 176 0
159 182 0
154 176 0
159 182 0
153 175 0
159 181 0
158 179 0
156 179 0
156 179 0
151 173 0
156 178 0
159 182 0
157 179 0
152 175 0
154 177 0
158 181 0
154 177 0
160 182 0
158 181 0
148 170 0
153 175 0
153 176 0
151 172 0
151 173 0
155 177 0
158 179 0
155 177 0
146 168 0
150 173 0
154 177 0
158 182 0
146 168 0
153 176 0
153 174 0
155 179 0
150 172 0
150 173 0
151 174 0
157 179 0
154 175 0
154 174 0
144 167 0
149 172 0
155 179 0
152 174 0
154 176 0
148 170 0
144 166 0
148 170 0
154 176 0
148 169 0
155 178 0
150 171 0
146 166 0
154 176 0
151 171 0
146 168 0
149 171 0
155 177 0
156 177 0
157 178 0
151 173 0
155 177 0
153 174 0
154 176 0
155 176 0
148 170 0
149 170 0
154 176 0
152 173 0
151 172 0
154 175 0
150 172 0
151 173 0
150 171 0
156 177 0
150 171 0
154 176 0
151 173 0
151 171 0
152 173 0
155 176 0
145 165 0
154 174 0
152 173 0
155 177 0
151 173 0
145 164 0
147 169 0
147 169 0
152 174 0
152 171 0
151 172 0
152 174 0
151 171 0
147 166 0
152 173 0
152 172 0
149 171 0
153 173 0
149 170 0
153 174 0
155 176 0
149 170 0
149 169 0
152 173 0
152 173 0
146 168 0
151 172 0
152 173 0
149 169 0
155 176 0
160 181 0
154 176 0
150 170 0
150 171 0
158 180 0
145 166 0
147 168 0
158 178 0
152 172 0
152 172 0
155 175 0
154 173 0
141 162 0
141 159 0
159 178 0
149 169 0
155 175 0
152 174 0
154 174 0
148 169 0
150 171 0
154 173 0
156 176 0
148 169 0
155 174 0
150 172 0
153 175 0
155 175 0
155 177 0
156 176 0
152 173 0
146 165 0
151 172 0
158 177 0
150 169 0
155 174 0
146 165 0
149 169 0
156 174 0
152 171 0
149 167 0
157 177 0
156 175 0
157 175 0
154 172 0
155 173 0
144 163 0
155 175 0
157 178 0
150 168 0
159 178 0
150 167 0
157 178 0
156 173 0
158 178 0
153 172 0
153 172 0
157 174 0
156 174 0
148 166 0
150 169 0
154 172 0
153 172 0
147 164 0
156 175 0
150 168 0
157 176 0
145 162 0
152 167 0
149 166 0
150 166 0
158 175 0
154 170 0
150 164 0
152 168 0
155 171 0
156 173 0
157 175 0
154 171 0
152 167 0
154 171 0
156 173 0
150 166 0
145 164 0
152 168 0
149 164 0
150 166 0
152 170 0
156 175 0
156 173 0
149 162 0
154 170 0
147 162 0
156 172 0
152 167 0
150 167 0
151 168 0
152 166 0
155 172 0
151 165 0
151 167 0
144 159 0
154 167 0
153 169 0
149 164 0
157 174 0
153 167 0
154 170 0
150 163 0
152 169 0
154 170 0
153 166 0
154 168 0
148 163 0
160 175 0
153 168 0
154 168 0
153 167 0
160 174 0
156 172 0
151 166 0
154 167 0
155 168 0
156 169 0
147 160 0
152 166 0
152 167 0
152 165 0
157 170 0
159 171 0
156 169 0
153 167 0
155 166 0
156 170 0
152 167 0
152 165 0
156 169 0
151 164 0
154 166 0
151 164 0
157 171 0
151 163 0
149 162 0
170 192 0
165 188 0
170 193 0
166 190 0
167 190 0
165 188 0
165 187 0
168 191 0
167 190 0
167 190 0
167 190 0
171 193 0
165 188 0
165 189 0
170 193 0
169 191 0
164 188 0
166 189 0
168 192 0
166 189 0
169 192 0
170 193 0
165 188 0
164 187 0
164 187 0
164 188 0
167 189 0
167 190 0
168 190 0
166 189 0
167 190 0
167 190 0
159 181 0
167 191 0
167 190 0
165 189 0
155 177 0
163 186 0
163 186 0
163 187 0
166 189 0
164 187 0
168 191 0
165 188 0
167 190 0
165 189 0
167 190 0
165 189 0
163 186 0
163 187 0
165 188 0
165 189 0
166 189 0
157 181 0
163 185 0
165 188 0
165 189 0
165 189 0
163 185 0
164 187 0
164 187 0
168 192 0
169 192 0
161 184 0
159 183 0
159 183 0
167 190 0
164 187 0
172 195 0
160 184 0
166 189 0
163 186 0
167 189 0
158 181 0
162 186 0
163 185 0
162 185 0
161 183 0
164 187 0
161 184 0
163 186 0
163 186 0
165 188 0
160 183 0
161 184 0
160 183 0
162 184 0
161 184 0
164 186 0
165 189 0
162 184 0
161 184 0
159 182 0
161 184 0
163 187 0
161 185 0
159 181 0
161 183 0
165 187 0
157 181 0
166 188 0
165 189 0
165 188 0
162 185 0
159 181 0
162 185 0
157 181 0
155 178 0
158 181 0
163 185 0
166 188 0
156 179 0
151 174 0
161 182 0
162 185 0
156 179 0
160 182 0
160 183 0
165 188 0
160 183 0
160 183 0
160 184 0
154 177 0
159 182 0
158 180 0
150 173 0
152 174 0
157 179 0
163 186 0
153 176 0
158 181 0
152 175 0
163 186 0
160 182 0
156 177 0
151 174 0
151 175 0
154 176 0
153 176 0
153 176 0
165 188 0
157 180 0
158 181 0
158 181 0
157 180 0
155 176 0
157 179 0
153 176 0
151 174 0
152 175 0
148 170 0
153 176 0
152 175 0
153 177 0
153 175 0
155 177 0
153 176 0
160 183 0
156 178 0
152 174 0
151 173 0
152 174 0
159 183 0
150 172 0
152 174 0
147 168 0
152 174 0
153 175 0
148 170 0
156 177 0
152 175 0
153 175 0
156 177 0
162 184 0
157 180 0
155 176 0
154 177 0
156 177 0
151 173 0
160 184 0
150 172 0
156 177 0
153 176 0
150 173 0
158 181 0
156 178 0
155 177 0
158 180 0
162 183 0
150 171 0
151 173 0
153 173 0
147 168 0
150 171 0
147 168 0
148 169 0
145 167 0
157 180 0
141 163 0
154 176 0
150 172 0
150 170 0
150 171 0
154 176 0
153 173 0
150 172 0
151 173 0
154 175 0
142 164 0
151 171 0
148 171 0
152 175 0
152 174 0
144 166 0
152 172 0
157 178 0
155 178 0
153 175 0
153 175 0
155 175 0
155 177 0
148 169 0
155 177 0
157 177 0
150 170 0
147 169 0
151 172 0
146 166 0
150 172 0
154 176 0
149 171 0
151 172 0
149 170 0
148 170 0
144 164 0
152 174 0
153 175 0
155 175 0
146 167 0
153 174 0
147 167 0
153 173 0
152 174 0
151 171 0
151 172 0
153 174 0
156 177 0
149 172 0
156 176 0
150 172 0
148 169 0
151 171 0
157 177 0
151 171 0
156 178 0
154 174 0
150 170 0
156 177 0
152 172 0
154 174 0
153 174 0
145 164 0
157 178 0
149 168 0
149 169 0
156 177 0
153 172 0
153 173 0
152 171 0
144 165 0
155 176 0
153 174 0
150 170 0
156 176 0
143 164 0
157 176 0
156 177 0
155 175 0
159 180 0
154 173 0
150 170 0
157 176 0
151 171 0
155 177 0
152 170 0
155 173 0
154 174 0
152 173 0
149 166 0
148 168 0
156 174 0
151 170 0
159 179 0
153 173 0
152 169 0
148 166 0
155 174 0
152 172 0
158 179 0
150 168 0
152 170 0
153 172 0
149 166 0
156 176 0
152 171 0
154 173 0
151 170 0
148 167 0
157 177 0
158 177 0
153 171 0
150 170 0
149 166 0
151 171 0
156 175 0
145 163 0
149 170 0
152 170 0
157 175 0
154 171 0
150 168 0
149 165 0
151 166 0
149 165 0
155 172 0
148 164 0
147 165 0
153 169 0
151 170 0
156 175 0
154 169 0
150 167 0
155 173 0
157 174 0
155 171 0
156 175 0
156 173 0
156 174 0
152 169 0
146 163 0
149 167 0
162 179 0
150 165 0
150 167 0
153 168 0
146 162 0
153 171 0
155 172 0
151 167 0
148 163 0
150 166 0
144 159 0
151 167 0
160 178 0
152 167 0
158 176 0
151 165 0
153 171 0
146 160 0
150 164 0
155 170 0
159 175 0
153 169 0
155 170 0
158 175 0
146 162 0
152 166 0
157 172 0
156 170 0
149 164 0
154 168 0
157 170 0
149 165 0
157 175 0
155 171 0
156 173 0
155 171 0
147 163 0
155 169 0
158 173 0
149 165 0
157 175 0
155 169 0
150 163 0
155 165 0
153 169 0
157 173 0
155 168 0
155 169 0
153 169 0
159 176 0
157 168 0
157 171 0
159 172 0
149 163 0
152 165 0
154 167 0
156 169 0
149 160 0
152 163 0
166 190 0
165 188 0
164 187 0
166 189 0
167 190 0
164 187 0
166 189 0
166 189 0
174 196 0
166 189 0
169 191 0
167 190 0
167 191 0
166 189 0
167 190 0
173 195 0
164 187 0
167 190 0
166 188 0
169 191 0
162 186 0
166 189 0
163 187 0
165 188 0
161 183 0
167 189 0
171 194 0
166 189 0
167 190 0
165 187 0
165 187 0
168 191 0
170 193 0
164 186 0
165 188 0
165 189 0
165 188 0
166 189 0
167 190 0
159 182 0
168 191 0
165 188 0
164 187 0
165 187 0
167 191 0
168 191 0
162 185 0
165 187 0
168 190 0
164 187 0
171 194 0
161 184 0
163 187 0
158 181 0
162 186 0
160 183 0
166 189 0
160 184 0
165 187 0
161 184 0
164 188 0
163 186 0
168 191 0
164 188 0
161 184 0
167 190 0
167 190 0
159 182 0
166 189 0
166 189 0
159 182 0
155 178 0
163 186 0
163 185 0
157 180 0
161 183 0
161 184 0
163 188 0
163 186 0
162 185 0
157 180 0
159 183 0
161 185 0
157 180 0
158 182 0
163 186 0
164 187 0
161 184 0
164 187 0
163 186 0
158 181 0
161 184 0
161 184 0
161 184 0
163 187 0
158 180 0
158 179 0
160 183 0
167 189 0
159 182 0
156 179 0
162 185 0
163 185 0
155 178 0
164 187 0
155 177 0
164 187 0
161 183 0
153 176 0
154 177 0
158 181 0
167 190 0
154 176 0
161 185 0
155 178 0
156 179 0
157 180 0
150 171 0
158 181 0
162 183 0
157 181 0
162 185 0
159 181 0
150 173 0
156 178 0
157 180 0
155 177 0
159 182 0
155 178 0
161 184 0
163 185 0
160 181 0
155 178 0
160 183 0
159 182 0
161 184 0
159 182 0
159 182 0
161 183 0
157 179 0
158 181 0
155 178 0
151 171 0
152 174 0
160 182 0
149 171 0
158 181 0
159 182 0
150 173 0
152 174 0
155 178 0
152 175 0
151 173 0
152 174 0
154 177 0
152 175 0
156 179 0
156 178 0
157 179 0
156 178 0
162 185 0
156 179 0
151 174 0
153 174 0
152 174 0
157 178 0
158 180 0
154 176 0
153 176 0
155 177 0
157 178 0
158 181 0
151 173 0
150 172 0
153 174 0
157 179 0
155 177 0
150 172 0
154 178 0
153 176 0
155 176 0
161 182 0
150 173 0
148 170 0
141 163 0
148 168 0
155 177 0
156 178 0
148 169 0
153 175 0
154 175 0
158 181 0
149 170 0
158 181 0
150 172 0
157 178 0
155 177 0
149 170 0
155 175 0
154 176 0
150 173 0
149 171 0
157 180 0
152 173 0
159 183 0
152 174 0
147 169 0
152 174 0
142 163 0
153 175 0
163 185 0
153 174 0
149 171 0
150 171 0
148 170 0
155 177 0
154 175 0
156 176 0
155 177 0
150 171 0
155 177 0
152 174 0
151 172 0
154 176 0
154 175 0
145 166 0
150 172 0
145 165 0
151 173 0
151 173 0
155 175 0
146 165 0
151 173 0
153 173 0
140 160 0
151 172 0
151 172 0
148 170 0
147 168 0
151 172 0
154 176 0
155 177 0
153 174 0
156 176 0
146 166 0
151 172 0
148 169 0
153 175 0
145 163 0
151 171 0
157 178 0
152 172 0
154 174 0
151 171 0
160 182 0
148 167 0
148 168 0
146 166 0
151 172 0
151 171 0
143 161 0
148 168 0
144 164 0
154 175 0
155 175 0
151 170 0
150 171 0
148 167 0
152 173 0
153 172 0
149 168 0
158 178 0
152 173 0
148 167 0
156 177 0
157 178 0
154 175 0
156 178 0
155 175 0
153 173 0
154 174 0
147 167 0
147 164 0
152 172 0
153 172 0
153 174 0
146 165 0
153 173 0
146 164 0
152 172 0
151 169 0
156 174 0
152 173 0
151 171 0
147 167 0
153 172 0
156 174 0
158 177 0
150 167 0
155 175 0
154 173 0
158 178 0
149 168 0
153 172 0
150 169 0
157 175 0
153 171 0
155 175 0
153 172 0
149 169 0
151 168 0
149 167 0
146 164 0
151 166 0
148 165 0
147 165 0
153 172 0
153 171 0
152 171 0
158 176 0
158 177 0
156 176 0
158 176 0
152 170 0
156 174 0
154 170 0
149 167 0
155 173 0
150 170 0
156 172 0
147 166 0
142 157 0
154 173 0
144 160 0
147 164 0
145 162 0
153 171 0
156 172 0
158 176 0
147 162 0
155 174 0
151 168 0
158 175 0
152 170 0
147 160 0
145 160 0
153 170 0
148 165 0
158 175 0
151 165 0
153 171 0
150 166 0
154 170 0
161 177 0
153 170 0
146 161 0
152 170 0
150 165 0
159 176 0
146 162 0
155 170 0
151 166 0
152 167 0
155 170 0
149 161 0
158 174 0
155 171 0
153 167 0
152 168 0
152 167 0
149 165 0
146 160 0
151 167 0
157 171 0
152 166 0
155 171 0
152 169 0
155 173 0
149 162 0
155 168 0
154 169 0
154 169 0
155 171 0
161 176 0
157 171 0
157 172 0
148 163 0
158 172 0
156 170 0
151 164 0
159 173 0
150 166 0
152 168 0
148 161 0
156 169 0
157 173 0
160 175 0
159 174 0
147 158 0
150 164 0
170 194 0
166 188 0
171 194 0
172 194 0
171 193 0
167 190 0
165 188 0
171 193 0
168 191 0
173 196 0
171 193 0
173 196 0
167 190 0
163 187 0
163 187 0
164 187 0
165 188 0
164 187 0
164 187 0
168 190 0
166 189 0
168 191 0
165 188 0
171 193 0
169 191 0
165 189 0
166 189 0
165 189 0
166 188 0
169 192 0
166 189 0
171 193 0
171 194 0
164 187 0
160 184 0
168 191 0
168 191 0
163 185 0
163 185 0
167 189 0
166 189 0
168 191 0
170 193 0
162 185 0
168 191 0
164 188 0
167 189 0
168 191 0
167 190 0
160 183 0
168 190 0
163 187 0
166 189 0
162 185 0
166 190 0
166 189 0
164 188 0
168 191 0
164 186 0
168 191 0
167 190 0
158 180 0
162 185 0
164 187 0
167 190 0
160 183 0
162 185 0
160 183 0
160 183 0
168 191 0
161 184 0
160 183 0
162 184 0
163 186 0
166 189 0
161 185 0
162 185 0
164 188 0
168 191 0
158 181 0
161 185 0
160 183 0
161 185 0
162 185 0
163 187 0
165 188 0
161 184 0
162 186 0
162 185 0
161 184 0
156 178 0
161 184 0
161 184 0
162 186 0
166 188 0
160 183 0
161 184 0
164 186 0
159 183 0
158 182 0
160 183 0
161 184 0
163 185 0
155 180 0
156 178 0
157 180 0
157 180 0
167 191 0
161 184 0
160 183 0
161 184 0
157 181 0
159 181 0
166 190 0
163 187 0
159 182 0
156 178 0
155 178 0
155 178 0
156 179 0
159 182 0
163 186 0
153 176 0
157 180 0
155 177 0
157 180 0
160 183 0
165 188 0
161 183 0
163 186 0
153 175 0
162 184 0
151 175 0
154 179 0
160 183 0
158 181 0
152 175 0
152 174 0
154 175 0
160 183 0
161 184 0
159 182 0
158 181 0
152 175 0
147 170 0
148 171 0
156 179 0
158 181 0
158 181 0
162 184 0
150 172 0
152 174 0
157 180 0
150 172 0
152 174 0
152 174 0
154 177 0
151 173 0
152 174 0
150 172 0
152 174 0
154 176 0
155 176 0
157 178 0
147 170 0
146 168 0
150 172 0
156 179 0
152 175 0
153 175 0
156 179 0
152 176 0
156 178 0
156 178 0
160 182 0
149 170 0
147 169 0
150 172 0
153 176 0
155 179 0
151 173 0
143 165 0
155 176 0
153 174 0
152 174 0
155 176 0
161 182 0
157 180 0
157 180 0
151 173 0
156 178 0
142 164 0
159 181 0
156 177 0
148 170 0
153 175 0
152 174 0
148 170 0
148 169 0
155 178 0
157 180 0
148 170 0
153 175 0
158 180 0
149 170 0
147 169 0
150 171 0
148 169 0
152 174 0
150 172 0
153 173 0
151 174 0
152 174 0
148 170 0
150 171 0
149 170 0
155 177 0
145 166 0
148 170 0
150 170 0
150 171 0
152 173 0
156 176 0
151 172 0
158 180 0
153 175 0
154 174 0
145 167 0
155 177 0
139 161 0
155 175 0
145 166 0
156 177 0
158 180 0
147 167 0
153 174 0
149 170 0
154 175 0
153 175 0
155 178 0
153 175 0
160 181 0
148 169 0
150 172 0
150 170 0
156 176 0
151 171 0
150 171 0
149 167 0
149 172 0
150 170 0
153 174 0
152 172 0
154 175 0
148 168 0
158 179 0
156 176 0
146 168 0
150 170 0
155 178 0
161 182 0
153 174 0
154 175 0
147 168 0
160 180 0
150 172 0
159 179 0
153 172 0
154 174 0
143 163 0
152 173 0
144 163 0
163 183 0
145 162 0
156 177 0
157 177 0
155 176 0
143 163 0
148 169 0
159 179 0
153 175 0
152 171 0
148 168 0
155 176 0
156 176 0
149 168 0
153 172 0
159 179 0
153 172 0
149 167 0
157 178 0
154 175 0
155 174 0
151 171 0
149 169 0
153 172 0
153 172 0
149 169 0
152 171 0
152 170 0
157 177 0
154 172 0
154 171 0
150 170 0
154 174 0
147 167 0
147 164 0
148 168 0
155 173 0
155 175 0
153 171 0
150 167 0
149 168 0
144 160 0
150 169 0
149 167 0
153 172 0
148 165 0
149 168 0
159 178 0
149 164 0
155 175 0
155 172 0
149 164 0
149 167 0
158 176 0
156 176 0
152 169 0
150 167 0
150 165 0
150 168 0
154 170 0
160 176 0
156 175 0
153 169 0
154 171 0
153 170 0
158 174 0
148 166 0
148 163 0
151 170 0
147 164 0
156 174 0
144 160 0
151 168 0
150 164 0
158 175 0
158 174 0
149 167 0
156 172 0
157 175 0
155 175 0
145 163 0
151 167 0
154 169 0
143 160 0
160 176 0
154 170 0
149 164 0
151 165 0
149 165 0
154 169 0
153 169 0
152 166 0
154 171 0
157 174 0
156 173 0
156 170 0
149 163 0
151 165 0
150 166 0
155 169 0
154 170 0
156 171 0
154 165 0
156 173 0
154 169 0
156 173 0
144 160 0
154 171 0
155 168 0
159 170 0
152 166 0
157 172 0
160 176 0
153 167 0
152 167 0
156 172 0
155 172 0
154 168 0
156 170 0
158 172 0
158 176 0
154 169 0
156 172 0
160 176 0
159 172 0
155 168 0
159 174 0
155 167 0
172 194 0
165 189 0
166 188 0
169 192 0
172 195 0
164 187 0
168 191 0
167 189 0
170 193 0
168 191 0
162 185 0
166 188 0
167 190 0
167 190 0
169 193 0
164 187 0
166 189 0
168 190 0
169 191 0
169 192 0
165 188 0
166 189 0
165 189 0
162 185 0
172 195 0
165 188 0
168 191 0
171 194 0
168 192 0
172 195 0
159 182 0
166 189 0
167 190 0
169 192 0
166 188 0
164 187 0
164 187 0
166 189 0
167 191 0
162 186 0
163 186 0
166 190 0
162 185 0
168 192 0
166 189 0
165 188 0
166 189 0
166 189 0
164 188 0
163 187 0
163 186 0
165 187 0
165 188 0
166 189 0
170 193 0
168 191 0
165 188 0
167 189 0
166 188 0
163 187 0
165 189 0
157 179 0
165 187 0
165 188 0
162 185 0
160 185 0
165 188 0
157 179 0
161 185 0
162 185 0
164 187 0
156 179 0
168 189 0
162 186 0
161 184 0
160 183 0
159 182 0
161 184 0
160 183 0
165 188 0
157 181 0
162 184 0
162 186 0
163 185 0
163 187 0
163 186 0
163 186 0
162 185 0
161 185 0
160 184 0
163 185 0
157 180 0
156 179 0
162 185 0
160 184 0
161 184 0
161 184 0
160 184 0
165 188 0
161 184 0
163 186 0
157 181 0
163 185 0
160 183 0
161 184 0
156 178 0
162 186 0
152 176 0
158 181 0
155 178 0
165 187 0
162 184 0
162 183 0
163 185 0
152 174 0
156 180 0
165 188 0
167 191 0
155 178 0
158 181 0
159 181 0
157 180 0
156 177 0
158 181 0
157 179 0
158 181 0
152 174 0
159 182 0
157 181 0
157 180 0
162 185 0
156 179 0
161 183 0
160 183 0
161 184 0
160 183 0
155 178 0
156 178 0
154 177 0
152 175 0
155 176 0
156 179 0
158 180 0
154 178 0
161 184 0
156 180 0
155 177 0
155 178 0
152 175 0
153 176 0
152 175 0
152 175 0
153 175 0
153 177 0
153 175 0
158 180 0
159 183 0
145 168 0
156 178 0
153 175 0
152 175 0
154 177 0
157 179 0
156 178 0
155 179 0
156 178 0
150 172 0
151 173 0
163 184 0
153 176 0
157 181 0
154 176 0
154 177 0
148 169 0
149 171 0
154 176 0
156 177 0
148 171 0
153 175 0
155 178 0
146 168 0
153 176 0
142 164 0
149 172 0
154 175 0
156 178 0
154 176 0
153 177 0
155 178 0
153 176 0
147 169 0
155 177 0
156 178 0
156 179 0
158 180 0
155 177 0
150 172 0
152 174 0
152 175 0
157 179 0
153 174 0
154 176 0
142 163 0
155 176 0
154 175 0
151 173 0
150 172 0
152 173 0
148 169 0
151 173 0
148 169 0
152 174 0
149 171 0
152 175 0
152 174 0
144 166 0
151 172 0
151 173 0
152 174 0
150 173 0
158 180 0
152 173 0
146 167 0
153 173 0
145 166 0
153 175 0
160 182 0
159 181 0
155 176 0
146 167 0
154 175 0
145 165 0
151 172 0
152 172 0
154 176 0
147 168 0
153 174 0
150 172 0
150 170 0
151 172 0
158 179 0
146 168 0
159 181 0
152 173 0
156 178 0
148 167 0
148 169 0
153 174 0
150 171 0
146 168 0
152 173 0
152 172 0
158 178 0
151 172 0
154 175 0
147 166 0
148 167 0
147 169 0
156 175 0
152 172 0
158 179 0
150 170 0
151 172 0
152 174 0
150 170 0
155 176 0
158 179 0
155 174 0
155 173 0
152 173 0
152 173 0
146 168 0
153 173 0
154 174 0
154 175 0
154 174 0
152 173 0
150 170 0
156 175 0
156 176 0
150 170 0
152 172 0
162 183 0
157 178 0
153 174 0
157 178 0
157 177 0
155 176 0
151 171 0
148 168 0
153 174 0
153 174 0
153 172 0
148 167 0
151 171 0
153 172 0
148 166 0
156 175 0
160 180 0
147 167 0
151 172 0
152 172 0
156 176 0
156 177 0
152 169 0
148 167 0
147 167 0
150 169 0
149 166 0
150 168 0
152 170 0
150 168 0
148 166 0
159 178 0
150 168 0
156 172 0
155 175 0
151 167 0
149 166 0
155 175 0
156 175 0
159 177 0
149 167 0
152 170 0
151 170 0
153 171 0
153 169 0
156 176 0
156 174 0
159 178 0
152 169 0
155 172 0
151 168 0
152 170 0
153 171 0
154 172 0
150 167 0
150 166 0
153 169 0
159 175 0
149 166 0
151 167 0
157 176 0
151 168 0
158 175 0
143 159 0
154 168 0
147 163 0
157 172 0
159 178 0
156 171 0
151 170 0
151 166 0
157 174 0
158 174 0
156 174 0
146 163 0
153 170 0
154 171 0
149 166 0
145 160 0
156 171 0
153 168 0
152 167 0
159 174 0
150 164 0
141 155 0
154 169 0
154 172 0
154 169 0
156 173 0
161 176 0
159 176 0
154 171 0
160 177 0
159 175 0
153 169 0
152 165 0
153 168 0
158 174 0
154 169 0
152 165 0
156 171 0
151 166 0
156 172 0
156 172 0
151 165 0
156 170 0
154 171 0
157 172 0
159 172 0
158 173 0
154 165 0
162 179 0
152 168 0
152 166 0
159 176 0
156 171 0
159 173 0
156 172 0
165 189 0
170 194 0
170 193 0
168 192 0
165 188 0
166 189 0
167 189 0
173 196 0
164 188 0
166 189 0
169 191 0
170 192 0
163 185 0
166 189 0
165 188 0
164 187 0
160 184 0
167 190 0
165 189 0
165 187 0
169 192 0
163 186 0
168 191 0
169 191 0
168 191 0
166 189 0
169 192 0
165 188 0
168 192 0
169 191 0
160 184 0
168 191 0
165 189 0
165 189 0
170 192 0
167 190 0
167 191 0
163 186 0
169 190 0
161 185 0
163 187 0
165 188 0
165 188 0
163 185 0
168 191 0
168 192 0
163 186 0
164 186 0
165 189 0
163 186 0
163 185 0
166 188 0
162 185 0
165 187 0
165 188 0
163 186 0
165 187 0
166 188 0
161 185 0
163 186 0
167 190 0
164 187 0
165 189 0
164 188 0
166 189 0
164 186 0
162 184 0
163 186 0
163 187 0
168 190 0
160 183 0
161 183 0
163 187 0
162 186 0
159 182 0
163 187 0
164 188 0
161 184 0
166 189 0
158 181 0
158 181 0
165 188 0
158 180 0
161 184 0
163 185 0
159 182 0
156 179 0
161 184 0
165 188 0
159 183 0
160 183 0
161 185 0
158 181 0
162 185 0
160 184 0
161 184 0
163 185 0
161 184 0
161 184 0
160 183 0
165 188 0
159 182 0
160 183 0
155 178 0
157 179 0
159 182 0
160 183 0
157 180 0
160 181 0
165 188 0
164 188 0
158 182 0
156 180 0
163 186 0
161 184 0
156 179 0
164 188 0
161 183 0
163 186 0
162 184 0
157 180 0
156 178 0
164 188 0
155 178 0
152 176 0
155 179 0
158 181 0
159 181 0
152 176 0
158 181 0
163 185 0
153 176 0
156 178 0
161 184 0
157 179 0
159 181 0
154 176 0
163 186 0
161 184 0
152 175 0
161 185 0
164 186 0
155 177 0
159 181 0
154 176 0
152 175 0
154 178 0
155 178 0
158 182 0
160 182 0
163 186 0
155 178 0
152 175 0
152 174 0
155 178 0
162 186 0
154 177 0
156 176 0
158 181 0
159 182 0
159 181 0
157 179 0
152 173 0
154 177 0
152 176 0
146 168 0
162 185 0
161 184 0
156 178 0
151 174 0
156 178 0
161 184 0
148 170 0
158 179 0
157 180 0
159 182 0
157 180 0
157 179 0
155 176 0
150 173 0
159 180 0
156 177 0
157 180 0
156 179 0
156 178 0
154 176 0
149 170 0
155 177 0
156 178 0
147 169 0
154 177 0
154 175 0
157 180 0
154 177 0
157 180 0
154 175 0
155 176 0
153 175 0
153 176 0
153 174 0
152 173 0
155 178 0
149 169 0
151 173 0
151 173 0
155 177 0
152 173 0
158 180 0
155 177 0
141 163 0
148 170 0
147 168 0
153 175 0
149 171 0
155 175 0
147 168 0
154 176 0
155 177 0
151 174 0
148 169 0
153 175 0
154 175 0
148 170 0
155 176 0
149 171 0
150 172 0
157 177 0
151 172 0
157 179 0
152 174 0
153 174 0
155 175 0
151 173 0
154 175 0
152 174 0
153 174 0
159 181 0
154 175 0
142 163 0
146 166 0
145 166 0
144 166 0
154 175 0
148 170 0
155 176 0
152 173 0
151 172 0
149 170 0
157 178 0
143 163 0
149 167 0
155 175 0
152 173 0
152 173 0
157 178 0
156 176 0
151 171 0
159 180 0
151 171 0
145 165 0
154 174 0
155 175 0
147 167 0
152 174 0
156 177 0
151 174 0
157 178 0
150 171 0
152 171 0
149 169 0
153 172 0
150 169 0
153 175 0
152 174 0
149 168 0
151 170 0
158 176 0
151 172 0
153 173 0
152 172 0
154 175 0
151 170 0
151 172 0
159 178 0
156 177 0
155 176 0
154 172 0
146 165 0
152 172 0
156 175 0
151 171 0
149 168 0
154 174 0
158 177 0
150 171 0
147 165 0
151 169 0
150 169 0
157 176 0
154 174 0
152 171 0
149 169 0
159 179 0
151 171 0
157 175 0
149 168 0
150 169 0
157 178 0
160 178 0
154 173 0
154 174 0
151 170 0
156 176 0
153 173 0
156 174 0
155 173 0
156 174 0
154 172 0
155 174 0
154 174 0
153 172 0
151 170 0
155 174 0
149 168 0
154 172 0
155 174 0
154 174 0
160 179 0
154 172 0
156 172 0
149 167 0
153 172 0
153 172 0
157 174 0
156 173 0
152 169 0
151 170 0
150 167 0
153 170 0
155 172 0
151 166 0
154 170 0
152 170 0
147 162 0
153 170 0
154 171 0
152 169 0
151 168 0
158 174 0
154 171 0
158 174 0
155 173 0
159 177 0
157 175 0
156 174 0
160 177 0
154 171 0
151 165 0
153 170 0
153 169 0
148 164 0
145 162 0
148 161 0
151 166 0
155 173 0
152 167 0
152 165 0
151 166 0
150 163 0
150 166 0
151 166 0
153 170 0
154 169 0
154 169 0
156 173 0
158 174 0
150 165 0
156 172 0
153 168 0
154 169 0
154 169 0
155 170 0
153 169 0
152 166 0
156 171 0
149 163 0
154 170 0
157 172 0
152 163 0
161 176 0
154 170 0
153 167 0
159 173 0
151 164 0
157 172 0
153 167 0
152 167 0
147 160 0
156 171 0
150 165 0
167 190 0
163 187 0
166 189 0
168 190 0
166 189 0
162 186 0
165 188 0
172 195 0
168 191 0
166 190 0
168 191 0
165 188 0
168 191 0
168 191 0
168 191 0
172 195 0
170 192 0
170 193 0
164 188 0
168 191 0
165 187 0
163 186 0
166 189 0
167 190 0
167 191 0
166 189 0
165 188 0
166 189 0
167 190 0
170 193 0
164 185 0
166 189 0
165 188 0
166 189 0
166 189 0
165 187 0
166 190 0
162 185 0
167 190 0
166 189 0
163 186 0
165 188 0
165 189 0
160 183 0
169 192 0
163 187 0
168 191 0
165 189 0
159 182 0
161 184 0
162 185 0
163 186 0
166 190 0
160 184 0
161 184 0
156 180 0
165 187 0
159 182 0
160 183 0
166 189 0
168 192 0
166 188 0
157 180 0
159 182 0
169 192 0
162 184 0
166 190 0
165 188 0
161 185 0
162 185 0
161 183 0
163 186 0
166 190 0
163 186 0
161 185 0
164 187 0
163 186 0
160 184 0
158 182 0
167 190 0
165 189 0
165 187 0
164 187 0
164 187 0
166 189 0
159 182 0
159 182 0
159 182 0
164 186 0
160 182 0
157 180 0
159 182 0
162 185 0
162 185 0
164 187 0
157 181 0
159 181 0
161 185 0
161 184 0
162 185 0
157 180 0
162 186 0
165 188 0
162 186 0
161 185 0
161 184 0
161 185 0
158 182 0
160 183 0
164 188 0
160 183 0
161 183 0
156 179 0
158 180 0
163 187 0
160 184 0
156 180 0
157 179 0
159 182 0
157 180 0
163 186 0
163 186 0
160 183 0
155 178 0
163 185 0
162 185 0
160 182 0
156 178 0
162 185 0
154 177 0
160 182 0
164 187 0
155 178 0
162 184 0
165 187 0
162 185 0
155 177 0
159 182 0
155 178 0
161 184 0
152 173 0
162 184 0
153 176 0
149 172 0
158 180 0
153 175 0
154 177 0
158 179 0
157 180 0
152 175 0
158 180 0
154 176 0
153 175 0
155 177 0
156 179 0
161 183 0
160 182 0
152 174 0
154 177 0
158 180 0
157 181 0
153 175 0
160 182 0
153 176 0
157 180 0
156 179 0
158 180 0
154 176 0
149 171 0
162 185 0
156 179 0
151 173 0
158 180 0
151 172 0
159 181 0
151 172 0
152 173 0
157 180 0
157 181 0
154 176 0
156 178 0
154 176 0
150 174 0
150 172 0
155 175 0
152 172 0
153 175 0
154 177 0
157 180 0
154 177 0
152 174 0
148 169 0
159 181 0
154 177 0
157 178 0
155 177 0
152 174 0
154 176 0
152 174 0
153 175 0
153 174 0
154 175 0
154 175 0
156 178 0
153 174 0
156 179 0
151 171 0
152 173 0
154 176 0
148 170 0
158 178 0
156 178 0
153 174 0
159 181 0
156 178 0
156 179 0
155 178 0
155 176 0
159 181 0
146 167 0
145 167 0
150 171 0
152 174 0
149 171 0
148 170 0
154 174 0
149 170 0
150 171 0
152 174 0
150 171 0
150 172 0
153 176 0
153 175 0
160 181 0
150 171 0
152 173 0
152 173 0
151 171 0
153 174 0
154 175 0
146 166 0
145 166 0
146 167 0
154 174 0
153 174 0
149 171 0
157 178 0
156 177 0
153 173 0
151 173 0
152 172 0
154 175 0
149 169 0
150 172 0
156 178 0
155 176 0
152 172 0
143 164 0
145 165 0
150 172 0
151 172 0
157 179 0
154 175 0
156 178 0
151 171 0
159 179 0
152 173 0
157 179 0
157 177 0
153 174 0
149 170 0
156 176 0
149 170 0
156 176 0
154 175 0
152 172 0
148 167 0
155 176 0
153 171 0
156 177 0
152 171 0
153 174 0
155 174 0
157 177 0
153 172 0
155 174 0
143 161 0
150 168 0
155 175 0
152 171 0
152 169 0
155 175 0
154 174 0
153 173 0
155 174 0
151 171 0
156 176 0
157 177 0
146 166 0
147 166 0
146 165 0
157 178 0
153 173 0
154 173 0
145 166 0
159 178 0
154 173 0
152 170 0
153 174 0
156 175 0
156 175 0
149 167 0
149 168 0
148 166 0
159 178 0
144 162 0
154 173 0
152 172 0
155 175 0
149 169 0
152 170 0
153 170 0
149 168 0
151 171 0
156 173 0
156 174 0
155 174 0
154 171 0
149 167 0
149 167 0
150 167 0
158 177 0
157 174 0
156 174 0
149 167 0
158 176 0
150 168 0
147 165 0
157 176 0
149 167 0
147 165 0
147 165 0
151 168 0
155 172 0
157 176 0
153 169 0
150 167 0
155 173 0
150 166 0
155 171 0
151 168 0
153 167 0
156 175 0
154 169 0
157 172 0
157 175 0
156 173 0
157 173 0
160 177 0
150 166 0
158 175 0
155 171 0
160 176 0
164 181 0
155 172 0
157 173 0
158 174 0
156 173 0
158 176 0
154 168 0
157 172 0
162 178 0
151 168 0
154 170 0
157 176 0
157 173 0
152 168 0
158 174 0
151 167 0
155 170 0
153 170 0
159 173 0
143 157 0
152 168 0
152 167 0
154 170 0
156 170 0
153 166 0
159 175 0
164 179 0
157 173 0
146 157 0
150 163 0
160 174 0
149 164 0
158 174 0
155 168 0
147 162 0
159 175 0
156 171 0
168 191 0
166 189 0
169 192 0
171 194 0
166 189 0
169 191 0
168 190 0
166 189 0
164 187 0
167 190 0
165 188 0
167 190 0
170 194 0
168 190 0
162 184 0
162 186 0
166 189 0
168 191 0
170 193 0
164 187 0
162 186 0
168 191 0
166 188 0
165 187 0
170 193 0
169 192 0
163 186 0
168 191 0
161 185 0
166 190 0
165 188 0
166 188 0
163 186 0
163 187 0
163 186 0
165 188 0
158 181 0
166 188 0
165 188 0
167 191 0
168 191 0
169 192 0
163 186 0
164 188 0
167 190 0
165 188 0
167 190 0
167 190 0
167 191 0
165 189 0
166 189 0
162 184 0
163 187 0
165 189 0
160 184 0
170 194 0
164 187 0
166 189 0
166 188 0
167 190 0
162 185 0
165 188 0
164 187 0
170 194 0
165 188 0
166 189 0
162 185 0
167 189 0
158 181 0
160 182 0
169 191 0
168 191 0
163 187 0
162 185 0
161 185 0
163 186 0
161 184 0
163 186 0
164 186 0
166 190 0
164 188 0
156 179 0
158 180 0
161 183 0
161 184 0
163 187 0
164 187 0
163 187 0
159 184 0
166 189 0
159 182 0
160 184 0
158 181 0
165 188 0
164 186 0
159 182 0
164 187 0
157 181 0
157 179 0
159 182 0
162 186 0
158 180 0
165 187 0
159 183 0
161 184 0
164 187 0
158 181 0
159 181 0
162 186 0
161 183 0
160 184 0
167 190 0
161 184 0
153 177 0
159 182 0
160 182 0
161 183 0
165 188 0
162 184 0
158 181 0
157 179 0
159 182 0
162 184 0
165 188 0
158 180 0
157 181 0
159 181 0
158 180 0
154 177 0
158 180 0
159 181 0
157 181 0
159 181 0
152 175 0
159 181 0
161 184 0
152 174 0
155 178 0
160 182 0
158 179 0
163 185 0
157 180 0
160 183 0
155 178 0
155 178 0
152 174 0
162 185 0
154 177 0
159 181 0
156 179 0
158 180 0
161 184 0
159 182 0
153 175 0
151 173 0
156 179 0
160 183 0
154 177 0
157 180 0
155 177 0
154 177 0
156 178 0
162 185 0
156 179 0
158 180 0
154 177 0
154 177 0
158 179 0
159 182 0
151 174 0
147 169 0
155 177 0
151 174 0
159 181 0
157 180 0
159 181 0
158 181 0
156 180 0
147 169 0
156 179 0
157 179 0
157 180 0
159 182 0
152 175 0
148 170 0
157 179 0
154 177 0
155 177 0
152 173 0
151 172 0
149 170 0
158 180 0
152 175 0
159 181 0
151 173 0
153 175 0
155 176 0
152 174 0
157 179 0
157 178 0
161 182 0
159 182 0
152 173 0
155 175 0
147 170 0
155 177 0
157 178 0
145 168 0
152 173 0
147 168 0
162 184 0
154 176 0
156 179 0
157 179 0
153 174 0
145 167 0
151 173 0
146 169 0
144 166 0
159 181 0
155 176 0
156 177 0
153 175 0
151 172 0
155 178 0
149 171 0
148 169 0
154 176 0
146 167 0
147 167 0
156 179 0
155 176 0
149 170 0
147 169 0
156 177 0
155 176 0
153 174 0
145 167 0
156 178 0
157 179 0
145 164 0
157 178 0
152 174 0
148 167 0
156 178 0
153 174 0
152 174 0
159 181 0
162 182 0
156 177 0
144 165 0
149 169 0
149 170 0
158 178 0
150 170 0
152 172 0
148 168 0
153 175 0
145 165 0
155 176 0
150 171 0
152 173 0
151 171 0
155 175 0
153 174 0
156 175 0
152 173 0
156 177 0
152 174 0
156 177 0
158 180 0
151 172 0
156 177 0
153 174 0
152 172 0
155 176 0
152 174 0
149 169 0
153 172 0
151 171 0
152 172 0
148 168 0
149 169 0
158 179 0
158 177 0
147 166 0
156 175 0
158 180 0
154 174 0
158 179 0
158 178 0
154 172 0
154 175 0
153 173 0
152 170 0
149 169 0
152 171 0
146 165 0
158 177 0
151 172 0
151 171 0
147 167 0
153 172 0
160 183 0
155 175 0
151 170 0
159 176 0
153 173 0
155 174 0
156 175 0
154 173 0
157 177 0
152 173 0
160 178 0
149 168 0
148 166 0
156 175 0
154 171 0
154 174 0
156 175 0
153 173 0
146 164 0
156 172 0
155 174 0
157 175 0
143 160 0
147 164 0
157 174 0
156 176 0
155 174 0
156 174 0
156 176 0
157 172 0
155 174 0
156 173 0
155 174 0
155 173 0
160 179 0
148 166 0
143 160 0
150 169 0
157 177 0
155 175 0
154 171 0
153 169 0
152 169 0
153 170 0
147 161 0
149 166 0
156 175 0
153 170 0
152 169 0
150 167 0
159 177 0
158 174 0
153 170 0
158 177 0
153 169 0
152 168 0
157 175 0
158 174 0
150 166 0
153 169 0
155 172 0
161 180 0
161 176 0
154 170 0
152 168 0
138 154 0
155 172 0
158 175 0
153 171 0
146 161 0
153 170 0
159 174 0
152 165 0
153 168 0
153 168 0
154 168 0
158 175 0
157 175 0
148 163 0
160 173 0
149 164 0
151 164 0
149 163 0
153 168 0
158 173 0
156 172 0
150 166 0
162 179 0
159 173 0
152 166 0
160 177 0
150 164 0
156 172 0
155 170 0
154 170 0
147 162 0
155 172 0
